;FLAVOR:Marlin
;TIME:8003
;Filament used: 4.50554m
;Layer height: 0.2
;MINX:69.25
;MINY:60.041
;MINZ:0.2
;MAXX:150.75
;MAXY:159.965
;MAXZ:21.8
;Generated with Cura_SteamEngine master
M82 ;absolute extrusion mode
;Sliced at: Sat 03-12-2022 18:01:20
;Basic settings: Layer height: 0.2 Walls: 0.8 Fill: 30.0
G21 ;metric values
G90 ;absolute positioning
M82 ;set extruder to absolute mode
M107 ;start with the fan off
M117 Start heating ...
M104 S200
M117 Homing X/Y ...
G28 X0 Y0 ;move X/Y to min endstops
M117 Homing Z ...
G28 Z0 ;move Z to min endstops
G1 Z15.0 F100 ;move the platform down 15mm
M117 Heating ...
M109 S200
M117 Start cleaning ...
G92 E0 ;zero the extruded length
G1 F200 E10 ;extrude 10mm of feed stock
G92 E0 ;zero the extruded length again
M117 Intro line ...
G1 Z2.0 F3000 ; Move Z Axis up little to prevent scratching of Heat Bed
G1 X0.1 Y20 Z0.2 F5000.0 ; Move to start position
G1 X0.1 Y200.0 Z0.2 F1500.0 E15 ; Draw the first line
G1 X0.4 Y200.0 Z0.2 F5000.0 ; Move to side a little
G1 X0.4 Y20 Z0.3 F1500.0 E30 ; Draw the second line
G92 E0 ; Reset Extruder
G1 E-1 F500 ; Retract filiment by 1 mm
G1 Z2.0 F3000 ; Move Z Axis up little to prevent scratching of Heat Bed
G1 X5 Y20 Z0.3 F100 ; Move over to prevent blob squish
G1 F100
G92 E0 ; Reset Extruder
M117 Printing...

G92 E0
G92 E0
G1 F1800 E-7
;LAYER_COUNT:108
;LAYER:0
M107
G1 F300 Z0.4
G0 F3000 X70.672 Y71.75 Z0.4
;TYPE:SKIRT
G1 F300 Z0.2
G1 F1800 E0
G1 F1200 X71.429 Y71.109 E0.03299
G1 X71.692 Y70.894 E0.04429
G1 X73.161 Y69.738 E0.10646
G1 X73.424 Y69.539 E0.11743
G1 X74.938 Y68.433 E0.17979
G1 X75.342 Y68.149 E0.19622
G1 X75.941 Y67.74 E0.22034
G1 X76.43 Y67.455 E0.23917
G1 X76.953 Y67.241 E0.25796
G1 X77.502 Y67.104 E0.27678
G1 X77.827 Y67.06 E0.28769
G1 X78.536 Y66.995 E0.31137
G1 X80.016 Y66.881 E0.36074
G1 X82.75 Y66.593 E0.45218
G1 X85.393 Y66.238 E0.54087
G1 X88.116 Y65.793 E0.63264
G1 X90.76 Y65.285 E0.72219
G1 X93.433 Y64.692 E0.81326
G1 X96.008 Y64.045 E0.90156
G1 X98.67 Y63.293 E0.99357
G1 X101.276 Y62.479 E1.08437
G1 X103.797 Y61.611 E1.17305
G1 X105.183 Y61.085 E1.22236
G1 X105.362 Y61.031 E1.22858
G1 X106.135 Y60.742 E1.25603
G1 X106.734 Y60.539 E1.27706
G1 X107.276 Y60.385 E1.2958
G1 X107.799 Y60.265 E1.31365
G1 X108.347 Y60.167 E1.33217
G1 X108.886 Y60.098 E1.35024
G1 X109.439 Y60.055 E1.36869
G1 X109.98 Y60.041 E1.38669
G1 X110.537 Y60.055 E1.40522
G1 X111.085 Y60.095 E1.42349
G1 X111.599 Y60.159 E1.44072
G1 X112.172 Y60.258 E1.46006
G1 X112.688 Y60.375 E1.47766
G1 X113.217 Y60.523 E1.49593
G1 X113.751 Y60.702 E1.51466
G1 X114.397 Y60.949 E1.53767
G1 X117.003 Y61.901 E1.62994
G1 X119.59 Y62.765 E1.72066
G1 X122.162 Y63.543 E1.81003
G1 X124.787 Y64.257 E1.90051
G1 X127.435 Y64.898 E1.99113
G1 X130.136 Y65.472 E2.08297
G1 X132.729 Y65.944 E2.17063
G1 X135.472 Y66.365 E2.26293
G1 X138.109 Y66.694 E2.35132
G1 X141.938 Y67.042 E2.4792
G1 X142.076 Y67.052 E2.4838
G1 X142.636 Y67.131 E2.50261
G1 X143.179 Y67.288 E2.52141
G1 X143.92 Y67.651 E2.54885
G1 X144.519 Y68.05 E2.57279
G1 X145.119 Y68.474 E2.59723
G1 X146.64 Y69.587 E2.65991
G1 X146.895 Y69.782 E2.67059
G1 X148.36 Y70.936 E2.73262
G1 X148.8 Y71.296 E2.75153
G1 X149.305 Y71.72 E2.77346
G1 X149.711 Y72.113 E2.79225
G1 X150.058 Y72.559 E2.81105
G1 X150.338 Y73.05 E2.82985
G1 X150.547 Y73.576 E2.84867
G1 X150.679 Y74.126 E2.86748
G1 X150.732 Y74.711 E2.88702
G1 X150.75 Y75.726 E2.92079
G1 X150.75 Y97.368 E3.6406
G1 X150.739 Y98.094 E3.66475
G1 X150.69 Y98.657 E3.68355
G1 X150.565 Y99.2 E3.70208
G1 X150.307 Y100.045 E3.73147
G1 X149.954 Y101.144 E3.76986
G1 X149.193 Y103.758 E3.86041
G1 X148.514 Y106.367 E3.95008
G1 X147.905 Y109.012 E4.04035
G1 X147.361 Y111.717 E4.13212
G1 X146.91 Y114.36 E4.2213
G1 X146.525 Y117.063 E4.31211
G1 X146.224 Y119.713 E4.40081
G1 X145.991 Y122.45 E4.49218
G1 X145.836 Y125.189 E4.58342
G1 X145.76 Y127.846 E4.67183
G1 X145.75 Y129.264 E4.71899
G1 X145.75 Y155.284 E5.58442
G1 X145.74 Y156.011 E5.6086
G1 X145.692 Y156.574 E5.6274
G1 X145.565 Y157.125 E5.6462
G1 X145.362 Y157.653 E5.66502
G1 X145.087 Y158.147 E5.68382
G1 X144.745 Y158.597 E5.70262
G1 X144.342 Y158.994 E5.72144
G1 X143.888 Y159.33 E5.74022
G1 X143.391 Y159.599 E5.75902
G1 X142.861 Y159.796 E5.77783
G1 X142.308 Y159.915 E5.79664
G1 X141.532 Y159.963 E5.8225
G1 X141.42 Y159.965 E5.82623
G1 X78.905 Y159.965 E7.90548
G1 X78.207 Y159.956 E7.9287
G1 X77.644 Y159.908 E7.94749
G1 X77.093 Y159.782 E7.96629
G1 X76.565 Y159.58 E7.9851
G1 X76.071 Y159.305 E8.0039
G1 X75.621 Y158.963 E8.0227
G1 X75.223 Y158.561 E8.04151
G1 X74.887 Y158.107 E8.0603
G1 X74.617 Y157.61 E8.07911
G1 X74.42 Y157.08 E8.09792
G1 X74.3 Y156.528 E8.11671
G1 X74.251 Y155.731 E8.14327
G1 X74.25 Y129.287 E9.0228
G1 X74.21 Y126.487 E9.11593
G1 X74.097 Y123.817 E9.20482
G1 X73.903 Y121.077 E9.29618
G1 X73.639 Y118.42 E9.38499
G1 X73.287 Y115.668 E9.47726
G1 X72.875 Y113.047 E9.56551
G1 X72.369 Y110.32 E9.65776
G1 X71.805 Y107.703 E9.7468
G1 X71.165 Y105.09 E9.83628
G1 X70.432 Y102.425 E9.92821
G1 X69.609 Y99.741 E10.02158
G1 X69.454 Y99.262 E10.03832
G1 X69.319 Y98.714 E10.05709
G1 X69.262 Y98.153 E10.07585
G1 X69.25 Y97.703 E10.09082
G1 X69.25 Y75.435 E10.83146
G1 X69.26 Y74.742 E10.85451
G1 X69.308 Y74.179 E10.8733
G1 X69.436 Y73.628 E10.89212
G1 X69.639 Y73.101 E10.9109
G1 X69.915 Y72.607 E10.92972
G1 X70.257 Y72.157 E10.94852
G1 X70.672 Y71.75 E10.96785
G0 F3000 X70.931 Y72.055
G1 F1200 X71.682 Y71.419 E11.00059
G1 X71.94 Y71.208 E11.01167
G1 X73.403 Y70.057 E11.07359
G1 X73.66 Y69.862 E11.08432
G1 X75.168 Y68.76 E11.14644
G1 X75.568 Y68.479 E11.1627
G1 X76.167 Y68.07 E11.18682
G1 X76.631 Y67.801 E11.20466
G1 X77.13 Y67.605 E11.22249
G1 X77.864 Y67.458 E11.24739
G1 X78.567 Y67.394 E11.27087
G1 X80.053 Y67.28 E11.32044
G1 X82.774 Y66.993 E11.41144
G1 X85.479 Y66.63 E11.50221
G1 X88.179 Y66.189 E11.59321
G1 X90.858 Y65.674 E11.68394
G1 X93.478 Y65.092 E11.77321
G1 X96.133 Y64.425 E11.86426
G1 X98.793 Y63.674 E11.95619
G1 X101.388 Y62.863 E12.04661
G1 X103.943 Y61.984 E12.13648
G1 X105.325 Y61.459 E12.18565
G1 X105.492 Y61.41 E12.19144
G1 X106.266 Y61.12 E12.21893
G1 X106.847 Y60.922 E12.23935
G1 X107.369 Y60.775 E12.25739
G1 X107.874 Y60.658 E12.27463
G1 X108.401 Y60.563 E12.29244
G1 X108.921 Y60.496 E12.30988
G1 X109.453 Y60.455 E12.32762
G1 X109.974 Y60.441 E12.34496
G1 X110.511 Y60.454 E12.36282
G1 X111.039 Y60.493 E12.38043
G1 X111.911 Y60.616 E12.40972
G1 X112.411 Y60.719 E12.4267
G1 X112.912 Y60.849 E12.44392
G1 X113.438 Y61.015 E12.46226
G1 X113.609 Y61.075 E12.46829
G1 X114.31 Y61.343 E12.49325
G1 X116.855 Y62.273 E12.58337
G1 X119.452 Y63.14 E12.67443
G1 X122.079 Y63.935 E12.76572
G1 X124.694 Y64.646 E12.85586
G1 X127.363 Y65.292 E12.94719
G1 X130.014 Y65.855 E13.03733
G1 X132.71 Y66.346 E13.12847
G1 X135.394 Y66.759 E13.21879
G1 X138.084 Y67.094 E13.30896
G1 X141.873 Y67.439 E13.4355
G1 X142.049 Y67.451 E13.44137
G1 X142.579 Y67.528 E13.45918
G1 X143.093 Y67.683 E13.47704
G1 X143.708 Y67.99 E13.4999
G1 X144.292 Y68.38 E13.52325
G1 X144.883 Y68.797 E13.54731
G1 X146.397 Y69.905 E13.60971
G1 X146.648 Y70.096 E13.6202
G1 X148.107 Y71.246 E13.68199
G1 X148.543 Y71.602 E13.70071
G1 X149.048 Y72.026 E13.72264
G1 X149.432 Y72.4 E13.74047
G1 X149.756 Y72.828 E13.75833
G1 X150.013 Y73.298 E13.77614
G1 X150.197 Y73.802 E13.79399
G1 X150.304 Y74.328 E13.81184
G1 X150.332 Y74.718 E13.82485
G1 X150.35 Y75.726 E13.85838
G1 X150.35 Y97.362 E14.57799
G1 X150.339 Y98.088 E14.60214
G1 X150.291 Y98.622 E14.61998
G1 X150.182 Y99.083 E14.63573
G1 X149.926 Y99.923 E14.66494
G1 X149.572 Y101.025 E14.70344
G1 X148.808 Y103.65 E14.79437
G1 X148.125 Y106.274 E14.88455
G1 X147.507 Y108.956 E14.97609
G1 X146.975 Y111.603 E15.06589
G1 X146.513 Y114.308 E15.15716
G1 X146.13 Y116.998 E15.24753
G1 X145.823 Y119.706 E15.33818
G1 X145.591 Y122.427 E15.42901
G1 X145.438 Y125.12 E15.51872
G1 X145.359 Y127.92 E15.61189
G1 X145.35 Y129.261 E15.65649
G1 X145.35 Y155.279 E16.52185
G1 X145.34 Y156.006 E16.54604
G1 X145.292 Y156.54 E16.56387
G1 X145.166 Y157.061 E16.5817
G1 X144.964 Y157.558 E16.59954
G1 X144.69 Y158.019 E16.61738
G1 X144.351 Y158.434 E16.6352
G1 X143.954 Y158.795 E16.65305
G1 X143.508 Y159.092 E16.67087
G1 X143.022 Y159.32 E16.68872
G1 X142.508 Y159.473 E16.70656
G1 X141.841 Y159.555 E16.72891
G1 X141.42 Y159.565 E16.74292
G1 X78.911 Y159.565 E18.82198
G1 X78.213 Y159.556 E18.84519
G1 X77.678 Y159.509 E18.86306
G1 X77.157 Y159.383 E18.88088
G1 X76.66 Y159.181 E18.89873
G1 X76.199 Y158.908 E18.91655
G1 X75.783 Y158.569 E18.9344
G1 X75.422 Y158.173 E18.95222
G1 X75.124 Y157.727 E18.97006
G1 X74.896 Y157.241 E18.98791
G1 X74.743 Y156.727 E19.00575
G1 X74.66 Y156.053 E19.02834
G1 X74.65 Y155.623 E19.04264
G1 X74.65 Y129.281 E19.91878
G1 X74.611 Y126.5 E20.01129
G1 X74.495 Y123.772 E20.1021
G1 X74.301 Y121.042 E20.19313
G1 X74.036 Y118.366 E20.28257
G1 X73.686 Y115.626 E20.37445
G1 X73.265 Y112.949 E20.46458
G1 X72.767 Y110.269 E20.55524
G1 X72.198 Y107.629 E20.64506
G1 X71.545 Y104.961 E20.73642
G1 X70.821 Y102.329 E20.82721
G1 X69.973 Y99.565 E20.92337
G1 X69.835 Y99.139 E20.93827
G1 X69.708 Y98.618 E20.9561
G1 X69.652 Y97.813 E20.98294
G1 X69.65 Y97.703 E20.9866
G1 X69.65 Y75.441 E21.72704
G1 X69.66 Y74.748 E21.75009
G1 X69.708 Y74.214 E21.76792
G1 X69.835 Y73.693 E21.78576
G1 X70.037 Y73.196 E21.8036
G1 X70.311 Y72.735 E21.82144
G1 X70.65 Y72.32 E21.83926
G1 X70.931 Y72.055 E21.85211
G0 F3000 X71.19 Y72.36
G1 F1200 X71.935 Y71.728 E21.8846
G1 X72.188 Y71.523 E21.89543
G1 X73.644 Y70.375 E21.9571
G1 X73.896 Y70.185 E21.9676
G1 X75.398 Y69.087 E22.02948
G1 X75.794 Y68.809 E22.04557
G1 X76.393 Y68.4 E22.0697
G1 X76.831 Y68.149 E22.08649
G1 X77.304 Y67.97 E22.10331
G1 X77.901 Y67.857 E22.12352
G1 X78.597 Y67.792 E22.14677
G1 X80.127 Y67.675 E22.1978
G1 X82.802 Y67.392 E22.28727
G1 X85.554 Y67.023 E22.37962
G1 X88.253 Y66.582 E22.47058
G1 X90.907 Y66.072 E22.56047
G1 X93.59 Y65.476 E22.65188
G1 X96.242 Y64.81 E22.74283
G1 X98.906 Y64.058 E22.83489
G1 X101.5 Y63.247 E22.92529
G1 X104.088 Y62.356 E23.01632
G1 X105.467 Y61.833 E23.06538
G1 X105.615 Y61.79 E23.0705
G1 X106.323 Y61.524 E23.09566
G1 X106.808 Y61.355 E23.11274
G1 X107.301 Y61.206 E23.12987
G1 X107.806 Y61.082 E23.14717
G1 X108.455 Y60.959 E23.16914
G1 X108.956 Y60.895 E23.18594
G1 X109.467 Y60.855 E23.20298
G1 X109.968 Y60.841 E23.21965
G1 X110.485 Y60.853 E23.23685
G1 X110.993 Y60.89 E23.25379
G1 X111.846 Y61.01 E23.28244
G1 X112.48 Y61.147 E23.30402
G1 X112.97 Y61.283 E23.32093
G1 X113.466 Y61.449 E23.33833
G1 X114.134 Y61.704 E23.36211
G1 X116.759 Y62.664 E23.45507
G1 X119.315 Y63.517 E23.54469
G1 X121.963 Y64.318 E23.63671
G1 X124.6 Y65.035 E23.7276
G1 X127.252 Y65.677 E23.81835
G1 X129.964 Y66.253 E23.91057
G1 X132.614 Y66.736 E24.00016
G1 X135.354 Y67.157 E24.09236
G1 X138.026 Y67.49 E24.18192
G1 X141.858 Y67.839 E24.3099
G1 X142.021 Y67.85 E24.31533
G1 X142.521 Y67.925 E24.33215
G1 X143.003 Y68.077 E24.34896
G1 X143.496 Y68.33 E24.36739
G1 X144.065 Y68.709 E24.39013
G1 X144.647 Y69.12 E24.41383
G1 X146.155 Y70.223 E24.47597
G1 X146.4 Y70.411 E24.48624
G1 X147.854 Y71.556 E24.54779
G1 X148.286 Y71.908 E24.56633
G1 X148.791 Y72.332 E24.58826
G1 X149.151 Y72.687 E24.60508
G1 X149.451 Y73.094 E24.62189
G1 X149.683 Y73.543 E24.6387
G1 X149.841 Y74.023 E24.65551
G1 X149.932 Y74.725 E24.67905
G1 X149.95 Y75.726 E24.71235
G1 X149.95 Y97.355 E25.43174
G1 X149.939 Y98.081 E25.45589
G1 X149.891 Y98.585 E25.47272
G1 X149.8 Y98.966 E25.48575
G1 X149.545 Y99.8 E25.51476
G1 X149.196 Y100.886 E25.5527
G1 X148.422 Y103.544 E25.64478
G1 X147.732 Y106.197 E25.73595
G1 X147.12 Y108.853 E25.8266
G1 X146.574 Y111.568 E25.91871
G1 X146.122 Y114.22 E26.00819
G1 X145.736 Y116.928 E26.09917
G1 X145.42 Y119.71 E26.1923
G1 X145.194 Y122.374 E26.28122
G1 X145.038 Y125.121 E26.37273
G1 X144.96 Y127.885 E26.4647
G1 X144.95 Y129.259 E26.5104
G1 X144.95 Y155.273 E27.37563
G1 X144.94 Y156 E27.39981
G1 X144.893 Y156.503 E27.41661
G1 X144.767 Y156.993 E27.43344
G1 X144.566 Y157.457 E27.45026
G1 X144.294 Y157.883 E27.46707
G1 X143.959 Y158.262 E27.48389
G1 X143.568 Y158.582 E27.5007
G1 X143.132 Y158.837 E27.5175
G1 X142.661 Y159.021 E27.53432
G1 X142.166 Y159.127 E27.55115
G1 X141.51 Y159.164 E27.57301
G1 X78.916 Y159.165 E29.65489
G1 X78.218 Y159.156 E29.67811
G1 X77.714 Y159.109 E29.69495
G1 X77.224 Y158.984 E29.71177
G1 X76.76 Y158.783 E29.72858
G1 X76.334 Y158.512 E29.74538
G1 X75.955 Y158.177 E29.7622
G1 X75.634 Y157.786 E29.77903
G1 X75.379 Y157.35 E29.79583
G1 X75.195 Y156.879 E29.81264
G1 X75.088 Y156.385 E29.82946
G1 X75.051 Y155.709 E29.85197
G1 X75.05 Y129.275 E30.73117
G1 X75.01 Y126.478 E30.82421
G1 X74.895 Y123.761 E30.91466
G1 X74.7 Y121.014 E31.00625
G1 X74.432 Y118.309 E31.09666
G1 X74.084 Y115.585 E31.188
G1 X73.659 Y112.885 E31.27891
G1 X73.156 Y110.176 E31.37055
G1 X72.584 Y107.52 E31.46091
G1 X71.936 Y104.873 E31.55155
G1 X71.203 Y102.211 E31.64339
G1 X70.37 Y99.495 E31.73788
G1 X70.215 Y99.016 E31.75462
G1 X70.098 Y98.524 E31.77144
G1 X70.051 Y97.801 E31.79554
G1 X70.05 Y75.447 E32.53904
G1 X70.06 Y74.754 E32.56209
G1 X70.108 Y74.25 E32.57893
G1 X70.233 Y73.761 E32.59571
G1 X70.435 Y73.297 E32.61255
G1 X70.707 Y72.871 E32.62936
G1 X71.19 Y72.36 E32.65274
G1 F1800 E25.65274
G1 F300 Z0.4
;MESH:clock-frame.stl
G0 F3000 X80.15 Y77.933 Z0.4
;TYPE:WALL-INNER
G1 F300 Z0.2
G1 F1800 E32.65274
G1 F1200 X80.15 Y90.715 E33.07787
G1 X85.15 Y98.215 E33.37768
G1 X85.15 Y149.065 E35.06895
G1 X134.85 Y149.065 E36.72198
G1 X134.85 Y98.215 E38.41326
G1 X139.85 Y90.715 E38.71306
G1 X139.85 Y77.933 E39.13819
G1 X120.133 Y77.933 E39.79398
G1 X114.1 Y74.2 E40.02995
G1 X114.1 Y71.015 E40.13588
G1 X114.056 Y70.42 E40.15573
G1 X113.918 Y69.822 E40.17614
G1 X113.694 Y69.253 E40.19648
G1 X113.389 Y68.722 E40.21685
G1 X113.007 Y68.243 E40.23722
G1 X112.557 Y67.826 E40.25763
G1 X112.05 Y67.481 E40.27803
G1 X111.497 Y67.216 E40.29842
G1 X110.912 Y67.035 E40.31879
G1 X110.317 Y66.946 E40.3388
G1 X110.093 Y66.933 E40.34626
G1 X109.489 Y66.963 E40.36637
G1 X108.888 Y67.085 E40.38677
G1 X108.313 Y67.296 E40.40714
G1 X107.775 Y67.588 E40.4275
G1 X107.287 Y67.958 E40.44787
G1 X106.859 Y68.396 E40.46824
G1 X106.5 Y68.895 E40.48869
G1 X106.221 Y69.44 E40.50905
G1 X106.025 Y70.021 E40.52944
G1 X105.92 Y70.62 E40.54967
G1 X105.9 Y71.021 E40.56302
G1 X105.9 Y74.2 E40.66876
G1 X99.867 Y77.933 E40.90472
G1 X80.15 Y77.933 E41.56051
G0 F3000 X80.55 Y78.333
;TYPE:WALL-OUTER
G1 F1200 X80.55 Y90.594 E41.96832
G1 X85.55 Y98.093 E42.26809
G1 X85.55 Y148.665 E43.95012
G1 X134.45 Y148.665 E45.57654
G1 X134.45 Y98.093 E47.25857
G1 X139.45 Y90.594 E47.55835
G1 X139.45 Y78.333 E47.96615
G1 X120.02 Y78.333 E48.6124
G1 X113.7 Y74.422 E48.85959
G1 X113.7 Y71.03 E48.97241
G1 X113.659 Y70.48 E48.99076
G1 X113.535 Y69.941 E49.00915
G1 X113.333 Y69.427 E49.02752
G1 X113.057 Y68.948 E49.04591
G1 X112.713 Y68.516 E49.06427
G1 X112.307 Y68.14 E49.08268
G1 X111.85 Y67.829 E49.10107
G1 X111.351 Y67.589 E49.11948
G1 X110.823 Y67.426 E49.13786
G1 X110.276 Y67.344 E49.15626
G1 X110.092 Y67.334 E49.16239
G1 X109.539 Y67.361 E49.1808
G1 X108.997 Y67.471 E49.1992
G1 X108.478 Y67.661 E49.21758
G1 X107.993 Y67.925 E49.23594
G1 X107.552 Y68.259 E49.25434
G1 X107.166 Y68.654 E49.27271
G1 X106.842 Y69.104 E49.29116
G1 X106.591 Y69.596 E49.30953
G1 X106.414 Y70.12 E49.32792
G1 X106.318 Y70.665 E49.34633
G1 X106.3 Y71.031 E49.35852
G1 X106.3 Y74.422 E49.4713
G1 X99.98 Y78.333 E49.7185
G1 X80.55 Y78.333 E50.36474
G0 F3000 X80.55 Y78.533
G0 X80.11 Y78.533
G1 F1800 E43.36474
G1 F300 Z0.4
G0 F3000 X79.95 Y78.533 Z0.4
G0 X141.15 Y97.433
;TYPE:WALL-INNER
G1 F300 Z0.2
G1 F1800 E50.36474
G1 F1200 X141.15 Y155.365 E52.29157
G1 X78.85 Y155.365 E54.36368
G1 X78.85 Y97.433 E56.2905
G1 X73.85 Y97.433 E56.4568
G1 X73.85 Y75.071 E57.20057
G1 X75.221 Y73.951 E57.25945
G1 X76.864 Y72.703 E57.32807
G1 X78.381 Y71.633 E57.38981
G1 X103.585 Y71.632 E58.2281
G1 X103.609 Y70.711 E58.25875
G1 X103.671 Y70.082 E58.27977
G1 X103.799 Y69.449 E58.30125
G1 X103.988 Y68.841 E58.32242
G1 X104.235 Y68.254 E58.34361
G1 X104.534 Y67.704 E58.36443
G1 X104.896 Y67.172 E58.38583
