;FLAVOR:Marlin
;TIME:3932
;Filament used: 1.72696m
;Layer height: 0.2
;MINX:85.325
;MINY:67.235
;MINZ:0.2
;MAXX:134.674
;MAXY:152.763
;MAXZ:3.2
;Generated with Cura_SteamEngine master
M82 ;absolute extrusion mode
;Sliced at: Sun 04-12-2022 01:25:58
;Basic settings: Layer height: 0.2 Walls: 0.8 Fill: 30.0
G21 ;metric values
G90 ;absolute positioning
M82 ;set extruder to absolute mode
M107 ;start with the fan off
M117 Start heating ...
M104 S200
M117 Homing X/Y ...
G28 X0 Y0 ;move X/Y to min endstops
M117 Homing Z ...
G28 Z0 ;move Z to min endstops
G1 Z15.0 F100 ;move the platform down 15mm
M117 Heating ...
M109 S200
M117 Start cleaning ...
G92 E0 ;zero the extruded length
G1 F200 E10 ;extrude 10mm of feed stock
G92 E0 ;zero the extruded length again
M117 Intro line ...
G1 Z2.0 F3000 ; Move Z Axis up little to prevent scratching of Heat Bed
G1 X0.1 Y20 Z0.2 F5000.0 ; Move to start position
G1 X0.1 Y200.0 Z0.2 F1500.0 E15 ; Draw the first line
G1 X0.4 Y200.0 Z0.2 F5000.0 ; Move to side a little
G1 X0.4 Y20 Z0.3 F1500.0 E30 ; Draw the second line
G92 E0 ; Reset Extruder
G1 E-1 F500 ; Retract filiment by 1 mm
G1 Z2.0 F3000 ; Move Z Axis up little to prevent scratching of Heat Bed
G1 X5 Y20 Z0.3 F100 ; Move over to prevent blob squish
G1 F100
G92 E0 ; Reset Extruder
M117 Printing...

G92 E0
G92 E0
G1 F1800 E-7
;LAYER_COUNT:15
;LAYER:0
M107
G1 F300 Z0.4
G0 F3000 X90.615 Y74.694 Z0.4
;TYPE:SKIRT
G1 F300 Z0.2
G1 F1800 E0
G1 F1200 X91.243 Y73.989 E0.0314
G1 X91.673 Y73.537 E0.05215
G1 X92.087 Y73.131 E0.07144
G1 X92.189 Y73.035 E0.0761
G1 X92.902 Y72.389 E0.1081
G1 X93.38 Y71.989 E0.12883
G1 X93.956 Y71.545 E0.15302
G1 X94.109 Y71.433 E0.15932
G1 X94.781 Y70.966 E0.18654
G1 X94.942 Y70.862 E0.19292
G1 X95.566 Y70.472 E0.21739
G1 X95.721 Y70.38 E0.22339
G1 X96.37 Y70.014 E0.24817
G1 X96.54 Y69.923 E0.25458
G1 X97.253 Y69.565 E0.28112
G1 X97.417 Y69.487 E0.28716
G1 X98.089 Y69.187 E0.31163
G1 X98.256 Y69.117 E0.31766
G1 X98.874 Y68.874 E0.33974
G1 X99.063 Y68.806 E0.34642
G1 X100.312 Y68.386 E0.39025
G1 X100.895 Y68.211 E0.4105
G1 X101.057 Y68.167 E0.41608
G1 X101.919 Y67.952 E0.44563
G1 X102.231 Y67.883 E0.45626
G1 X103.185 Y67.692 E0.48862
G1 X103.361 Y67.661 E0.49456
G1 X104.422 Y67.499 E0.53026
G1 X104.769 Y67.456 E0.54189
G1 X105.695 Y67.358 E0.57286
G1 X106.278 Y67.313 E0.59231
G1 X107.309 Y67.256 E0.62665
G1 X107.755 Y67.243 E0.64149
G1 X109.314 Y67.235 E0.69334
G1 X109.845 Y67.246 E0.71101
G1 X110.912 Y67.298 E0.74654
G1 X111.044 Y67.307 E0.75094
G1 X112.139 Y67.398 E0.78749
G1 X112.282 Y67.412 E0.79226
G1 X113.321 Y67.536 E0.82707
G1 X113.468 Y67.557 E0.83201
G1 X114.365 Y67.698 E0.86221
G1 X114.517 Y67.724 E0.86734
G1 X115.614 Y67.94 E0.90452
G1 X115.778 Y67.976 E0.91011
G1 X116.94 Y68.256 E0.94986
G1 X117.075 Y68.291 E0.9545
G1 X117.6 Y68.437 E0.97262
G1 X117.762 Y68.486 E0.97825
G1 X118.659 Y68.777 E1.00962
G1 X118.821 Y68.834 E1.01533
G1 X119.691 Y69.158 E1.04621
G1 X119.863 Y69.226 E1.05236
G1 X120.626 Y69.551 E1.07994
G1 X120.926 Y69.688 E1.09091
G1 X121.745 Y70.085 E1.12118
G1 X121.905 Y70.167 E1.12716
G1 X122.703 Y70.601 E1.15738
G1 X122.881 Y70.704 E1.16422
G1 X123.575 Y71.125 E1.19122
G1 X123.83 Y71.289 E1.2013
G1 X124.529 Y71.761 E1.22935
G1 X124.692 Y71.879 E1.23604
G1 X125.412 Y72.416 E1.26592
G1 X125.562 Y72.533 E1.27225
G1 X126.126 Y72.997 E1.29654
G1 X126.45 Y73.279 E1.31082
G1 X126.944 Y73.727 E1.333
G1 X127.108 Y73.885 E1.34058
G1 X127.905 Y74.695 E1.37837
G1 X128.014 Y74.81 E1.38364
G1 X128.711 Y75.577 E1.41811
G1 X129.057 Y75.982 E1.43583
G1 X129.167 Y76.118 E1.44165
G1 X129.73 Y76.849 E1.47234
G1 X129.86 Y77.027 E1.47967
G1 X130.361 Y77.746 E1.50882
G1 X130.461 Y77.897 E1.51484
G1 X130.94 Y78.658 E1.54475
G1 X131.07 Y78.879 E1.55328
G1 X131.519 Y79.678 E1.58376
G1 X131.604 Y79.837 E1.58976
G1 X131.995 Y80.615 E1.61872
G1 X132.09 Y80.815 E1.62608
G1 X132.465 Y81.655 E1.65668
G1 X132.534 Y81.82 E1.66262
G1 X132.874 Y82.683 E1.69348
G1 X132.936 Y82.853 E1.69949
G1 X133.246 Y83.758 E1.73131
G1 X133.296 Y83.915 E1.73679
G1 X133.558 Y84.797 E1.76739
G1 X133.605 Y84.968 E1.77329
G1 X133.884 Y86.09 E1.81175
G1 X133.978 Y86.522 E1.82645
G1 X134.164 Y87.473 E1.85868
G1 X134.232 Y87.869 E1.87204
G1 X134.385 Y88.899 E1.90668
G1 X134.442 Y89.373 E1.92256
G1 X134.548 Y90.422 E1.95762
G1 X134.586 Y90.945 E1.97507
G1 X134.645 Y91.988 E2.00981
G1 X134.665 Y92.635 E2.03134
G1 X134.674 Y94.243 E2.08482
G1 X134.661 Y94.784 E2.10282
G1 X134.611 Y95.795 E2.13649
G1 X134.603 Y95.918 E2.14059
G1 X134.524 Y96.883 E2.17279
G1 X134.463 Y97.447 E2.19166
G1 X134.335 Y98.371 E2.22269
G1 X134.317 Y98.489 E2.22666
G1 X134.182 Y99.27 E2.25302
G1 X134.028 Y100.026 E2.27868
G1 X133.522 Y102.708 E2.36946
G1 X133.098 Y105.373 E2.45921
G1 X132.744 Y108.076 E2.54988
G1 X132.471 Y110.76 E2.63961
G1 X132.273 Y113.465 E2.72982
G1 X132.15 Y116.206 E2.82108
G1 X132.104 Y118.88 E2.91003
G1 X132.136 Y121.615 E3.001
G1 X132.255 Y124.532 E3.0981
G1 X132.331 Y125.893 E3.14344
G1 X132.351 Y126.593 E3.16673
G1 X132.36 Y128.068 E3.21579
G1 X132.351 Y128.55 E3.23183
G1 X132.312 Y129.578 E3.26604
G1 X132.223 Y130.954 E3.3119
G1 X132.211 Y131.092 E3.31651
G1 X132.085 Y132.36 E3.35889
G1 X132.068 Y132.504 E3.36371
G1 X131.911 Y133.657 E3.40242
G1 X131.89 Y133.796 E3.40709
G1 X131.691 Y134.951 E3.44607
G1 X131.664 Y135.093 E3.45088
G1 X131.476 Y135.99 E3.48136
G1 X131.303 Y136.715 E3.50615
G1 X131.273 Y136.834 E3.51024
G1 X131.094 Y137.49 E3.53285
G1 X131.061 Y137.604 E3.5368
G1 X130.828 Y138.368 E3.56337
G1 X130.791 Y138.483 E3.56738
G1 X130.606 Y139.03 E3.58659
G1 X130.562 Y139.153 E3.59093
G1 X130.207 Y140.095 E3.62442
G1 X129.977 Y140.643 E3.64418
G1 X129.59 Y141.49 E3.67516
G1 X129.367 Y141.945 E3.69201
G1 X129.298 Y142.077 E3.69696
G1 X128.861 Y142.882 E3.72743
G1 X128.526 Y143.449 E3.74933
G1 X128.456 Y143.562 E3.75375
G1 X128.115 Y144.091 E3.77469
G1 X128.024 Y144.226 E3.7801
G1 X127.599 Y144.83 E3.80467
G1 X127.508 Y144.955 E3.80981
G1 X127.073 Y145.525 E3.83366
G1 X126.745 Y145.928 E3.85094
G1 X126.651 Y146.038 E3.85575
G1 X126.317 Y146.416 E3.87253
G1 X126.229 Y146.512 E3.87686
G1 X125.709 Y147.063 E3.90206
G1 X125.322 Y147.45 E3.92026
G1 X125.198 Y147.567 E3.92593
G1 X124.759 Y147.966 E3.94566
G1 X124.242 Y148.4 E3.96811
G1 X124.08 Y148.527 E3.97496
G1 X123.081 Y149.269 E4.01635
G1 X122.787 Y149.466 E4.02812
G1 X121.771 Y150.088 E4.06774
G1 X121.278 Y150.365 E4.08655
G1 X120.665 Y150.671 E4.10934
G1 X119.825 Y151.044 E4.13991
G1 X119.674 Y151.107 E4.14535
G1 X118.792 Y151.456 E4.1769
G1 X118.173 Y151.673 E4.19872
G1 X118.048 Y151.712 E4.20307
G1 X117.276 Y151.94 E4.22984
G1 X117.098 Y151.988 E4.23598
G1 X116.329 Y152.177 E4.26231
G1 X116.151 Y152.217 E4.26838
G1 X115.313 Y152.383 E4.2968
G1 X115.129 Y152.415 E4.30301
G1 X114.221 Y152.551 E4.33354
G1 X114.05 Y152.573 E4.33928
G1 X113.267 Y152.656 E4.36547
G1 X112.721 Y152.699 E4.38368
G1 X111.735 Y152.752 E4.41653
G1 X111.537 Y152.758 E4.42311
G1 X110.005 Y152.763 E4.47407
G1 X109.405 Y152.746 E4.49403
G1 X108.427 Y152.692 E4.52661
G1 X107.355 Y152.602 E4.56239
G1 X107.223 Y152.589 E4.5668
G1 X106.606 Y152.515 E4.58747
G1 X105.827 Y152.402 E4.61365
G1 X105.698 Y152.381 E4.618
G1 X104.942 Y152.246 E4.64354
G1 X104.27 Y152.106 E4.66637
G1 X104.139 Y152.076 E4.67084
G1 X103.431 Y151.902 E4.69509
G1 X103.301 Y151.868 E4.69956
G1 X102.655 Y151.686 E4.72188
G1 X102.522 Y151.646 E4.7265
G1 X101.956 Y151.465 E4.74627
G1 X101.819 Y151.418 E4.75108
G1 X101.122 Y151.167 E4.77572
G1 X100.983 Y151.114 E4.78067
G1 X100.459 Y150.903 E4.79946
G1 X100.317 Y150.843 E4.80459
G1 X99.681 Y150.558 E4.82777
G1 X99.54 Y150.492 E4.83294
G1 X99.062 Y150.255 E4.85069
G1 X98.921 Y150.181 E4.85599
G1 X98.178 Y149.775 E4.88415
G1 X98.033 Y149.692 E4.8897
G1 X97.419 Y149.321 E4.91356
G1 X97.076 Y149.096 E4.92721
G1 X96.32 Y148.552 E4.95819
G1 X96.192 Y148.456 E4.96351
G1 X95.784 Y148.137 E4.98073
G1 X95.66 Y148.036 E4.98605
G1 X95.139 Y147.594 E5.00878
G1 X95.019 Y147.488 E5.0141
G1 X94.594 Y147.097 E5.03331
G1 X94.468 Y146.976 E5.03912
G1 X93.928 Y146.434 E5.06457
G1 X93.541 Y146.02 E5.08342
G1 X93.182 Y145.605 E5.10167
G1 X92.764 Y145.093 E5.12365
G1 X92.678 Y144.984 E5.12827
G1 X92.368 Y144.575 E5.14534
G1 X92.261 Y144.427 E5.15141
G1 X91.857 Y143.84 E5.17511
G1 X91.76 Y143.691 E5.18103
G1 X91.447 Y143.19 E5.20067
G1 X91.344 Y143.017 E5.20737
G1 X90.762 Y141.972 E5.24715
G1 X90.459 Y141.377 E5.26936
G1 X90.083 Y140.554 E5.29946
G1 X90.01 Y140.386 E5.30555
G1 X89.727 Y139.683 E5.33076
G1 X89.576 Y139.275 E5.34522
G1 X89.281 Y138.419 E5.37534
G1 X89.227 Y138.25 E5.38124
G1 X88.958 Y137.335 E5.41296
G1 X88.894 Y137.098 E5.42113
G1 X88.684 Y136.25 E5.45018
G1 X88.559 Y135.681 E5.46956
G1 X88.387 Y134.795 E5.49958
G1 X88.29 Y134.22 E5.51897
G1 X88.132 Y133.119 E5.55597
G1 X88.084 Y132.698 E5.57006
G1 X87.982 Y131.664 E5.60462
G1 X87.934 Y130.979 E5.62746
G1 X87.877 Y129.885 E5.66389
G1 X87.853 Y128.873 E5.69756
G1 X87.84 Y127.704 E5.73644
G1 X87.84 Y127.237 E5.75198
G1 X87.85 Y126.569 E5.7742
G1 X87.86 Y126.35 E5.78149
G1 X87.9 Y125.778 E5.80056
G1 X88.057 Y123.92 E5.86258
G1 X88.21 Y121.185 E5.95369
G1 X88.285 Y118.51 E6.04269
G1 X88.283 Y115.766 E6.13396
G1 X88.206 Y113.061 E6.22396
G1 X88.05 Y110.354 E6.31415
G1 X87.82 Y107.657 E6.40418
G1 X87.513 Y104.97 E6.49413
G1 X87.122 Y102.245 E6.58569
G1 X86.664 Y99.578 E6.67569
G1 X86.129 Y96.919 E6.7659
G1 X85.83 Y95.578 E6.8116
G1 X85.529 Y94.274 E6.85611
G1 X85.441 Y93.721 E6.87474
G1 X85.411 Y93.37 E6.88645
G1 X85.359 Y92.59 E6.91245
G1 X85.347 Y92.361 E6.92008
G1 X85.33 Y91.85 E6.93709
G1 X85.325 Y90.828 E6.97108
G1 X85.351 Y89.86 E7.00329
G1 X85.356 Y89.744 E7.00715
G1 X85.408 Y88.842 E7.0372
G1 X85.418 Y88.705 E7.04177
G1 X85.544 Y87.339 E7.08739
G1 X85.56 Y87.194 E7.09225
G1 X85.678 Y86.288 E7.12263
G1 X85.802 Y85.507 E7.14894
G1 X85.928 Y84.835 E7.17168
G1 X85.95 Y84.724 E7.17544
G1 X86.122 Y83.938 E7.2022
G1 X86.152 Y83.812 E7.20651
G1 X86.317 Y83.16 E7.22888
G1 X86.35 Y83.037 E7.23311
G1 X86.543 Y82.365 E7.25637
G1 X86.583 Y82.236 E7.26086
G1 X86.812 Y81.529 E7.28558
G1 X86.856 Y81.401 E7.29008
G1 X87.089 Y80.762 E7.3127
G1 X87.373 Y80.052 E7.33813
G1 X87.433 Y79.911 E7.34323
G1 X87.693 Y79.327 E7.36449
G1 X87.754 Y79.196 E7.3693
G1 X88.053 Y78.585 E7.39192
G1 X88.123 Y78.448 E7.39704
G1 X88.414 Y77.907 E7.41747
G1 X88.49 Y77.773 E7.4226
G1 X88.822 Y77.209 E7.44436
G1 X88.897 Y77.086 E7.44916
G1 X89.241 Y76.547 E7.47042
G1 X89.33 Y76.414 E7.47575
G1 X89.735 Y75.832 E7.49933
G1 X89.825 Y75.708 E7.50442
G1 X90.27 Y75.118 E7.529
G1 X90.615 Y74.694 E7.54719
G0 F3000 X90.914 Y74.96
G1 F1200 X91.542 Y74.255 E7.57859
G1 X91.962 Y73.814 E7.59884
G1 X92.366 Y73.417 E7.61768
G1 X92.458 Y73.331 E7.62187
G1 X93.161 Y72.694 E7.65342
G1 X93.624 Y72.306 E7.67352
G1 X94.2 Y71.862 E7.6977
G1 X94.338 Y71.761 E7.70339
G1 X94.999 Y71.301 E7.73018
G1 X95.154 Y71.201 E7.73631
G1 X95.778 Y70.811 E7.76079
G1 X95.918 Y70.728 E7.7662
G1 X96.567 Y70.362 E7.79098
G1 X96.72 Y70.281 E7.79674
G1 X97.433 Y69.923 E7.82328
G1 X97.58 Y69.853 E7.82869
G1 X98.252 Y69.553 E7.85317
G1 X98.403 Y69.49 E7.85861
G1 X99.021 Y69.247 E7.8807
G1 X99.191 Y69.185 E7.88671
G1 X100.44 Y68.765 E7.93054
G1 X101.008 Y68.595 E7.95026
G1 X101.154 Y68.555 E7.9553
G1 X102.016 Y68.34 E7.98485
G1 X102.309 Y68.275 E7.99483
G1 X103.263 Y68.084 E8.02719
G1 X103.422 Y68.056 E8.03256
G1 X104.377 Y67.909 E8.06469
G1 X104.811 Y67.853 E8.07925
G1 X105.726 Y67.757 E8.10985
G1 X106.3 Y67.713 E8.129
G1 X107.322 Y67.656 E8.16304
G1 X107.758 Y67.643 E8.17755
G1 X109.317 Y67.635 E8.2294
G1 X109.835 Y67.646 E8.24664
G1 X109.927 Y67.649 E8.2497
G1 X110.892 Y67.697 E8.28183
G1 X111.011 Y67.705 E8.2858
G1 X112.106 Y67.796 E8.32234
G1 X112.235 Y67.809 E8.32666
G1 X113.274 Y67.933 E8.36146
G1 X113.406 Y67.952 E8.3659
G1 X114.303 Y68.093 E8.3961
G1 X114.439 Y68.117 E8.40069
G1 X115.536 Y68.333 E8.43788
G1 X115.684 Y68.365 E8.44291
G1 X116.846 Y68.645 E8.48267
G1 X116.968 Y68.677 E8.48686
G1 X117.493 Y68.823 E8.50499
G1 X117.639 Y68.867 E8.51006
G1 X118.536 Y69.158 E8.54142
G1 X118.681 Y69.208 E8.54652
G1 X119.551 Y69.532 E8.5774
G1 X119.706 Y69.594 E8.58295
G1 X120.55 Y69.955 E8.61349
G1 X120.751 Y70.048 E8.62085
G1 X121.57 Y70.445 E8.65112
G1 X121.715 Y70.519 E8.65654
G1 X122.503 Y70.947 E8.68636
G1 X122.673 Y71.046 E8.69291
G1 X123.453 Y71.521 E8.72328
G1 X123.606 Y71.621 E8.72936
G1 X124.297 Y72.087 E8.75708
G1 X124.453 Y72.199 E8.76347
G1 X125.173 Y72.736 E8.79334
G1 X125.308 Y72.842 E8.79905
G1 X125.872 Y73.306 E8.82334
G1 X126.181 Y73.575 E8.83697
G1 X126.675 Y74.023 E8.85915
G1 X126.823 Y74.165 E8.86597
G1 X127.62 Y74.975 E8.90377
G1 X127.718 Y75.079 E8.90852
G1 X128.415 Y75.846 E8.94299
G1 X128.751 Y76.24 E8.96021
G1 X128.85 Y76.363 E8.96546
G1 X129.409 Y77.087 E8.99589
G1 X129.532 Y77.256 E9.00284
G1 X130.033 Y77.975 E9.03199
G1 X130.123 Y78.11 E9.03738
G1 X130.545 Y78.778 E9.06366
G1 X130.721 Y79.075 E9.07515
G1 X131.17 Y79.874 E9.10563
G1 X131.246 Y80.017 E9.11101
G1 X131.634 Y80.788 E9.13972
G1 X131.724 Y80.978 E9.14672
G1 X132.099 Y81.818 E9.17731
G1 X132.161 Y81.966 E9.18265
G1 X132.501 Y82.829 E9.2135
G1 X132.558 Y82.982 E9.21893
G1 X132.868 Y83.887 E9.25075
G1 X132.913 Y84.029 E9.2557
G1 X133.175 Y84.911 E9.2863
G1 X133.217 Y85.064 E9.29158
G1 X133.493 Y86.176 E9.32969
G1 X133.585 Y86.599 E9.34409
G1 X133.77 Y87.541 E9.37602
G1 X133.836 Y87.928 E9.38907
G1 X133.989 Y88.958 E9.42371
G1 X134.044 Y89.413 E9.43895
G1 X134.149 Y90.451 E9.47365
G1 X134.187 Y90.968 E9.49089
G1 X134.246 Y92.003 E9.52537
G1 X134.265 Y92.644 E9.5467
G1 X134.274 Y94.245 E9.59995
G1 X134.262 Y94.764 E9.61722
G1 X134.212 Y95.775 E9.65089
G1 X134.135 Y96.742 E9.68315
G1 X134.065 Y97.404 E9.70529
G1 X134.051 Y97.517 E9.70908
G1 X133.923 Y98.422 E9.73948
G1 X133.811 Y99.078 E9.76161
G1 X133.79 Y99.191 E9.76544
G1 X133.636 Y99.947 E9.7911
G1 X133.128 Y102.643 E9.88234
G1 X132.705 Y105.294 E9.97163
G1 X132.349 Y108.02 E10.06307
G1 X132.07 Y110.761 E10.15471
G1 X131.873 Y113.452 E10.24445
G1 X131.75 Y116.181 E10.33531
G1 X131.704 Y118.878 E10.42502
G1 X131.736 Y121.635 E10.51673
G1 X131.856 Y124.567 E10.61433
G1 X131.936 Y126.015 E10.66256
G1 X131.951 Y126.596 E10.68189
G1 X131.96 Y128.062 E10.73065
G1 X131.952 Y128.535 E10.74639
G1 X131.918 Y129.453 E10.77694
G1 X131.823 Y130.928 E10.8261
G1 X131.813 Y131.052 E10.83024
G1 X131.687 Y132.32 E10.87262
G1 X131.672 Y132.45 E10.87697
G1 X131.515 Y133.603 E10.91568
G1 X131.496 Y133.728 E10.91988
G1 X131.297 Y134.883 E10.95886
G1 X131.084 Y135.907 E10.99365
G1 X131.061 Y136.01 E10.99716
G1 X130.887 Y136.729 E11.02176
G1 X130.708 Y137.385 E11.04438
G1 X130.445 Y138.251 E11.07448
G1 X130.412 Y138.354 E11.07808
G1 X130.188 Y139.012 E11.1012
G1 X129.88 Y139.833 E11.13036
G1 X129.667 Y140.354 E11.14908
G1 X129.613 Y140.477 E11.15355
G1 X129.178 Y141.427 E11.1883
G1 X128.947 Y141.887 E11.20542
G1 X128.51 Y142.692 E11.23589
G1 X128.183 Y143.244 E11.25723
G1 X128.12 Y143.345 E11.26119
G1 X127.779 Y143.874 E11.28212
G1 X127.697 Y143.996 E11.28701
G1 X127.272 Y144.6 E11.31157
G1 X127.19 Y144.712 E11.31619
G1 X126.755 Y145.282 E11.34004
G1 X126.436 Y145.674 E11.35685
G1 X126.352 Y145.773 E11.36117
G1 X126.018 Y146.151 E11.37794
G1 X125.418 Y146.789 E11.40707
G1 X125.04 Y147.166 E11.42483
G1 X124.929 Y147.271 E11.42991
G1 X124.49 Y147.67 E11.44964
G1 X123.987 Y148.091 E11.47146
G1 X123.841 Y148.206 E11.47764
G1 X122.851 Y148.942 E11.51867
G1 X122.578 Y149.125 E11.5296
G1 X121.562 Y149.747 E11.56923
G1 X121.096 Y150.009 E11.58701
G1 X120.503 Y150.305 E11.60905
G1 X119.663 Y150.678 E11.63962
G1 X119.527 Y150.735 E11.64452
G1 X118.645 Y151.084 E11.67607
G1 X118.048 Y151.293 E11.69711
G1 X117.935 Y151.329 E11.70105
G1 X117.163 Y151.557 E11.72783
G1 X117.002 Y151.6 E11.73337
G1 X116.233 Y151.789 E11.75971
G1 X116.074 Y151.824 E11.76512
G1 X115.236 Y151.99 E11.79354
G1 X115.069 Y152.019 E11.79917
G1 X114.161 Y152.155 E11.82971
G1 X114.007 Y152.175 E11.83488
G1 X113.131 Y152.267 E11.86417
G1 X112.699 Y152.3 E11.87858
G1 X111.713 Y152.353 E11.91143
G1 X111.535 Y152.358 E11.91735
G1 X110.015 Y152.363 E11.9679
