;FLAVOR:Marlin
;TIME:5787
;Filament used: 1.0297m
;Layer height: 0.1
;MINX:31.492
;MINY:29.139
;MINZ:0.1
;MAXX:190.862
;MAXY:188.491
;MAXZ:2.6
;Generated with Cura_SteamEngine master
M82 ;absolute extrusion mode
;Sliced at: Sun 15-01-2023 14:17:26
;Basic settings: Layer height: 0.1 Walls: 0.8 Fill: 100.0
G21 ;metric values
G90 ;absolute positioning
M82 ;set extruder to absolute mode
M107 ;start with the fan off
M117 Start heating ...
M104 S200
M117 Homing X/Y ...
G28 X0 Y0 ;move X/Y to min endstops
M117 Homing Z ...
G28 Z0 ;move Z to min endstops
G1 Z15.0 F50 ;move the platform down 15mm
M117 Heating ...
M109 S200
M117 Start cleaning ...
G92 E0 ;zero the extruded length
G1 F200 E10 ;extrude 10mm of feed stock
G92 E0 ;zero the extruded length again
M117 Intro line ...
G1 Z2.0 F3000 ; Move Z Axis up little to prevent scratching of Heat Bed
G1 X0.1 Y20 Z0.1 F5000.0 ; Move to start position
G1 X0.1 Y200.0 Z0.1 F1500.0 E15 ; Draw the first line
G1 X0.4 Y200.0 Z0.1 F5000.0 ; Move to side a little
G1 X0.4 Y20 Z0.3 F1500.0 E30 ; Draw the second line
G92 E0 ; Reset Extruder
G1 E-1 F500 ; Retract filiment by 1 mm
G1 Z2.0 F3000 ; Move Z Axis up little to prevent scratching of Heat Bed
G1 X5 Y20 Z0.3 F50 ; Move over to prevent blob squish
G1 F50
G92 E0 ; Reset Extruder
M117 Printing...

G92 E0
G92 E0
G1 F1800 E-7
;LAYER_COUNT:24
;LAYER:0
M107
G1 F300 Z0.3
G0 F1500 X149.203 Y57.002 Z0.3
;TYPE:SKIRT
G1 F300 Z0.1
G1 F1800 E0
G1 F900 X150.297 Y55.878 E0.02608
G1 X152.363 Y53.813 E0.07466
G1 X154.248 Y51.875 E0.11962
G1 X156.108 Y49.852 E0.16532
G1 X157.868 Y47.824 E0.20998
G1 X159.588 Y45.725 E0.25511
G1 X161.252 Y43.573 E0.30035
G1 X162.851 Y41.38 E0.34548
G1 X164.397 Y39.128 E0.39091
G1 X165.871 Y36.848 E0.43606
G1 X166.749 Y35.406 E0.46413
G1 X166.823 Y35.289 E0.46644
G1 X167.146 Y34.798 E0.47621
G1 X167.512 Y34.288 E0.48665
G1 X167.898 Y33.803 E0.49696
G1 X168.329 Y33.314 E0.5078
G1 X168.752 Y32.876 E0.51792
G1 X169.212 Y32.443 E0.52843
G1 X169.74 Y31.998 E0.53991
G1 X170.252 Y31.607 E0.55063
G1 X170.758 Y31.258 E0.56085
G1 X171.336 Y30.901 E0.57215
G1 X171.886 Y30.599 E0.58258
G1 X172.48 Y30.31 E0.59357
G1 X173.122 Y30.038 E0.60516
G1 X173.684 Y29.83 E0.61513
G1 X174.318 Y29.633 E0.62617
G1 X174.966 Y29.467 E0.63729
G1 X175.588 Y29.34 E0.64785
G1 X176.194 Y29.246 E0.65805
G1 X176.842 Y29.179 E0.66888
G1 X177.509 Y29.143 E0.67999
G1 X177.704 Y29.139 E0.68323
G1 X178.329 Y29.145 E0.69363
G1 X178.94 Y29.182 E0.70381
G1 X179.45 Y29.235 E0.71233
G1 X180.088 Y29.329 E0.72306
G1 X180.732 Y29.458 E0.73398
G1 X181.386 Y29.623 E0.7452
G1 X181.986 Y29.808 E0.75564
G1 X182.56 Y30.014 E0.76578
G1 X183.172 Y30.269 E0.77681
G1 X183.757 Y30.549 E0.78759
G1 X184.338 Y30.863 E0.79858
G1 X184.884 Y31.193 E0.80919
G1 X185.42 Y31.556 E0.81995
G1 X185.852 Y31.88 E0.82893
G1 X186.462 Y32.388 E0.84213
G1 X186.918 Y32.809 E0.85245
G1 X187.35 Y33.247 E0.86268
G1 X187.819 Y33.776 E0.87444
G1 X188.17 Y34.211 E0.88374
G1 X188.583 Y34.781 E0.89544
G1 X188.943 Y35.336 E0.90644
G1 X189.278 Y35.915 E0.91757
G1 X189.562 Y36.468 E0.92791
G1 X189.835 Y37.071 E0.93891
G1 X190.061 Y37.639 E0.94908
G1 X190.285 Y38.305 E0.96077
G1 X190.449 Y38.883 E0.97076
G1 X190.599 Y39.531 E0.98182
G1 X190.714 Y40.18 E0.99278
G1 X190.797 Y40.845 E1.00392
G1 X190.844 Y41.457 E1.01413
G1 X190.862 Y42.103 E1.02488
G1 X190.849 Y42.687 E1.03459
G1 X190.796 Y43.434 E1.04705
G1 X190.723 Y44.027 E1.05698
G1 X190.635 Y44.545 E1.06572
G1 X190.455 Y45.352 E1.07947
G1 X190.281 Y45.97 E1.09015
G1 X190.087 Y46.551 E1.10033
G1 X189.866 Y47.118 E1.11045
G1 X189.576 Y47.763 E1.12222
G1 X189.293 Y48.319 E1.13259
G1 X188.954 Y48.906 E1.14386
G1 X188.606 Y49.446 E1.15455
G1 X188.233 Y49.965 E1.16518
G1 X187.828 Y50.474 E1.17599
G1 X187.387 Y50.972 E1.18706
G1 X186.938 Y51.43 E1.19772
G1 X186.478 Y51.859 E1.20818
G1 X185.959 Y52.294 E1.21944
G1 X185.449 Y52.68 E1.23008
G1 X184.964 Y53.013 E1.23986
G1 X184.83 Y53.099 E1.24251
G1 X182.514 Y54.531 E1.28779
G1 X180.247 Y56.02 E1.3329
G1 X177.999 Y57.59 E1.3785
G1 X175.822 Y59.204 E1.42357
G1 X173.7 Y60.872 E1.46845
G1 X171.605 Y62.618 E1.51381
G1 X169.575 Y64.407 E1.5588
G1 X167.6 Y66.251 E1.60374
G1 X166.164 Y67.659 E1.63718
G1 X164.049 Y69.774 E1.68693
G1 X162.992 Y70.804 E1.71147
G1 X40.407 Y186.691 E4.51682
G1 X39.909 Y187.149 E4.52808
G1 X39.246 Y187.662 E4.54202
G1 X38.765 Y187.959 E4.55142
G1 X38.247 Y188.185 E4.56082
G1 X37.421 Y188.403 E4.57502
G1 X36.862 Y188.491 E4.58443
G1 X36.061 Y188.478 E4.59776
G1 X35.699 Y188.436 E4.60382
G1 X35.143 Y188.332 E4.61322
G1 X34.608 Y188.15 E4.62262
G1 X34.13 Y187.915 E4.63148
G1 X33.581 Y187.574 E4.64223
G1 X33.007 Y187.113 E4.65447
G1 X32.974 Y187.081 E4.65523
G1 X32.597 Y186.659 E4.66464
G1 X32.195 Y186.064 E4.67659
G1 X31.922 Y185.569 E4.68599
G1 X31.722 Y185.04 E4.69539
G1 X31.567 Y184.362 E4.70696
G1 X31.492 Y183.802 E4.71635
G1 X31.52 Y183.015 E4.72945
G1 X31.558 Y182.735 E4.73415
G1 X31.674 Y182.182 E4.74355
G1 X31.901 Y181.56 E4.75456
G1 X32.139 Y181.076 E4.76353
G1 X32.24 Y180.901 E4.76689
G1 X32.694 Y180.266 E4.77987
G1 X32.85 Y180.089 E4.78379
G1 X33.222 Y179.687 E4.7929
G1 X149.203 Y57.002 E7.60054
G0 F1500 X149.489 Y57.281
G1 F900 X150.58 Y56.161 E7.62654
G1 X152.646 Y54.096 E7.67512
G1 X154.547 Y52.142 E7.72045
G1 X156.389 Y50.138 E7.76572
G1 X158.178 Y48.076 E7.81112
G1 X159.904 Y45.971 E7.85639
G1 X161.572 Y43.813 E7.90174
G1 X163.176 Y41.612 E7.94704
G1 X164.741 Y39.333 E7.99301
G1 X166.198 Y37.079 E8.03764
G1 X167.09 Y35.615 E8.06615
G1 X167.157 Y35.508 E8.06825
G1 X167.48 Y35.017 E8.07803
G1 X167.835 Y34.524 E8.08813
G1 X168.209 Y34.054 E8.09812
G1 X168.627 Y33.582 E8.1086
G1 X169.038 Y33.155 E8.11846
G1 X169.484 Y32.737 E8.12863
G1 X169.996 Y32.305 E8.13977
G1 X170.492 Y31.927 E8.15014
G1 X170.983 Y31.589 E8.16005
G1 X171.543 Y31.243 E8.171
G1 X172.076 Y30.951 E8.1811
G1 X172.653 Y30.671 E8.19177
G1 X173.275 Y30.408 E8.203
G1 X173.82 Y30.207 E8.21266
G1 X174.433 Y30.016 E8.22334
G1 X175.063 Y29.855 E8.23415
G1 X175.665 Y29.733 E8.24437
G1 X176.253 Y29.642 E8.25426
G1 X176.88 Y29.577 E8.26474
G1 X177.528 Y29.543 E8.27554
G1 X177.703 Y29.539 E8.27845
G1 X178.308 Y29.545 E8.28851
G1 X178.899 Y29.58 E8.29835
G1 X179.409 Y29.633 E8.30688
G1 X180.027 Y29.724 E8.31727
G1 X180.651 Y29.849 E8.32785
G1 X181.285 Y30.01 E8.33873
G1 X181.865 Y30.189 E8.34882
G1 X182.423 Y30.389 E8.35868
G1 X183.015 Y30.637 E8.36936
G1 X183.582 Y30.908 E8.37981
G1 X184.145 Y31.213 E8.39046
G1 X184.675 Y31.534 E8.40076
G1 X185.192 Y31.885 E8.41115
G1 X185.61 Y32.199 E8.41985
G1 X186.202 Y32.691 E8.43265
G1 X186.645 Y33.101 E8.44269
G1 X187.063 Y33.525 E8.45259
G1 X187.517 Y34.039 E8.46399
G1 X187.857 Y34.46 E8.47299
G1 X188.257 Y35.013 E8.48434
G1 X188.606 Y35.551 E8.49501
G1 X188.93 Y36.112 E8.50578
G1 X189.205 Y36.648 E8.5158
G1 X189.469 Y37.233 E8.52647
G1 X189.689 Y37.785 E8.53635
G1 X189.905 Y38.429 E8.54765
G1 X190.064 Y38.989 E8.55733
G1 X190.208 Y39.618 E8.56806
G1 X190.32 Y40.247 E8.57869
G1 X190.4 Y40.892 E8.58949
G1 X190.445 Y41.484 E8.59937
G1 X190.462 Y42.111 E8.6098
G1 X190.449 Y42.674 E8.61916
G1 X190.398 Y43.401 E8.63128
G1 X190.327 Y43.975 E8.6409
G1 X190.241 Y44.474 E8.64932
G1 X190.066 Y45.259 E8.6627
G1 X189.897 Y45.859 E8.67306
G1 X189.709 Y46.421 E8.68292
G1 X189.494 Y46.97 E8.69272
G1 X189.213 Y47.595 E8.70412
G1 X188.938 Y48.136 E8.71421
G1 X188.61 Y48.703 E8.72511
G1 X188.271 Y49.227 E8.73548
G1 X187.91 Y49.729 E8.74577
G1 X187.517 Y50.222 E8.75625
G1 X187.09 Y50.704 E8.76696
G1 X186.655 Y51.148 E8.7773
G1 X186.207 Y51.564 E8.78747
G1 X185.704 Y51.985 E8.79837
G1 X185.21 Y52.36 E8.80869
G1 X184.741 Y52.681 E8.81814
G1 X184.62 Y52.759 E8.82053
G1 X182.306 Y54.189 E8.86577
G1 X180.003 Y55.702 E8.91159
G1 X177.778 Y57.257 E8.95674
G1 X175.583 Y58.884 E9.00217
G1 X173.443 Y60.567 E9.04745
G1 X171.348 Y62.312 E9.09279
G1 X169.304 Y64.114 E9.13811
G1 X167.309 Y65.976 E9.18349
G1 X165.908 Y67.351 E9.21614
G1 X163.77 Y69.487 E9.26639
G1 X162.717 Y70.513 E9.29084
G1 X40.136 Y186.397 E12.09612
G1 X39.638 Y186.855 E12.10737
G1 X39.012 Y187.337 E12.12051
G1 X38.554 Y187.617 E12.12943
G1 X38.061 Y187.827 E12.13834
G1 X37.331 Y188.013 E12.15087
G1 X36.801 Y188.094 E12.15979
G1 X36.107 Y188.081 E12.17133
G1 X35.745 Y188.039 E12.17739
G1 X35.218 Y187.938 E12.18632
G1 X34.48 Y187.647 E12.19951
G1 X34.007 Y187.377 E12.20857
G1 X33.802 Y187.241 E12.21266
G1 X33.286 Y186.825 E12.22368
G1 X33.253 Y186.793 E12.22444
G1 X32.897 Y186.392 E12.23336
G1 X32.531 Y185.847 E12.24428
G1 X32.274 Y185.376 E12.2532
G1 X32.028 Y184.62 E12.26642
G1 X31.958 Y184.281 E12.27218
G1 X31.889 Y183.749 E12.2811
G1 X31.917 Y183.069 E12.29242
G1 X31.955 Y182.789 E12.29712
G1 X32.066 Y182.264 E12.30604
G1 X32.271 Y181.712 E12.31583
G1 X32.586 Y181.1 E12.32728
G1 X32.995 Y180.529 E12.33896
G1 X33.144 Y180.361 E12.3427
G1 X33.513 Y179.962 E12.35173
G1 X149.489 Y57.281 E15.15926
G0 F1500 X149.776 Y57.56
G1 F900 X150.863 Y56.444 E15.18517
G1 X152.898 Y54.41 E15.23302
G1 X154.835 Y52.419 E15.27922
G1 X156.702 Y50.388 E15.32509
G1 X158.473 Y48.346 E15.37004
G1 X160.225 Y46.209 E15.416
G1 X161.896 Y44.048 E15.46143
G1 X163.514 Y41.829 E15.5071
G1 X165.063 Y39.572 E15.55262
G1 X166.543 Y37.282 E15.59797
G1 X167.432 Y35.823 E15.62638
G1 X167.492 Y35.728 E15.62825
G1 X167.815 Y35.237 E15.63802
G1 X168.159 Y34.759 E15.64781
G1 X168.52 Y34.305 E15.65746
G1 X168.924 Y33.849 E15.66759
G1 X169.325 Y33.434 E15.67719
G1 X169.755 Y33.031 E15.68699
G1 X170.252 Y32.613 E15.69779
G1 X170.733 Y32.247 E15.70784
G1 X171.207 Y31.92 E15.71742
G1 X171.751 Y31.586 E15.72803
G1 X172.266 Y31.303 E15.73781
G1 X172.825 Y31.032 E15.74814
G1 X173.428 Y30.777 E15.75902
G1 X173.956 Y30.583 E15.76838
G1 X174.549 Y30.399 E15.7787
G1 X175.159 Y30.243 E15.78917
G1 X175.741 Y30.126 E15.79905
G1 X176.312 Y30.038 E15.80866
G1 X176.918 Y29.975 E15.81879
G1 X177.546 Y29.942 E15.82925
G1 X177.702 Y29.939 E15.83184
G1 X178.288 Y29.944 E15.84159
G1 X178.858 Y29.978 E15.85108
G1 X179.368 Y30.031 E15.85961
G1 X179.966 Y30.12 E15.86966
G1 X180.57 Y30.241 E15.87991
G1 X181.184 Y30.397 E15.89044
G1 X181.745 Y30.57 E15.90021
G1 X182.285 Y30.765 E15.90975
G1 X182.858 Y31.005 E15.92008
G1 X183.406 Y31.268 E15.93019
G1 X183.952 Y31.564 E15.94052
G1 X184.466 Y31.875 E15.95051
G1 X184.964 Y32.214 E15.96053
G1 X185.367 Y32.517 E15.96892
G1 X185.942 Y32.995 E15.98135
G1 X186.372 Y33.393 E15.99109
G1 X186.776 Y33.804 E16.00068
G1 X187.215 Y34.302 E16.01172
G1 X187.544 Y34.709 E16.02042
G1 X187.931 Y35.245 E16.03142
G1 X188.268 Y35.766 E16.04173
G1 X188.582 Y36.31 E16.05218
G1 X188.848 Y36.828 E16.06186
G1 X189.103 Y37.395 E16.0722
G1 X189.316 Y37.93 E16.08178
G1 X189.525 Y38.552 E16.09269
G1 X189.678 Y39.096 E16.10209
G1 X189.818 Y39.705 E16.11248
G1 X189.925 Y40.314 E16.12276
G1 X190.003 Y40.939 E16.13324
G1 X190.046 Y41.512 E16.14279
G1 X190.062 Y42.119 E16.15289
G1 X190.049 Y42.661 E16.16191
G1 X189.999 Y43.367 E16.17368
G1 X189.93 Y43.923 E16.183
G1 X189.834 Y44.474 E16.1923
G1 X189.677 Y45.166 E16.2041
G1 X189.512 Y45.748 E16.21416
G1 X189.33 Y46.291 E16.22368
G1 X189.123 Y46.821 E16.23314
G1 X188.85 Y47.427 E16.2442
G1 X188.582 Y47.952 E16.254
G1 X188.265 Y48.5 E16.26453
G1 X187.937 Y49.008 E16.27458
G1 X187.587 Y49.493 E16.28453
G1 X187.205 Y49.971 E16.29471
G1 X186.792 Y50.437 E16.30506
G1 X186.371 Y50.867 E16.31507
G1 X185.937 Y51.27 E16.32492
G1 X185.45 Y51.677 E16.33547
G1 X184.97 Y52.039 E16.34547
G1 X184.517 Y52.35 E16.35461
G1 X184.41 Y52.419 E16.35673
G1 X182.082 Y53.858 E16.40224
G1 X179.776 Y55.373 E16.44812
G1 X177.557 Y56.923 E16.49314
G1 X175.343 Y58.564 E16.53897
G1 X173.185 Y60.261 E16.58462
G1 X171.073 Y62.021 E16.63034
G1 X169.03 Y63.822 E16.67563
G1 X167.039 Y65.68 E16.72092
G1 X165.625 Y67.068 E16.75387
G1 X163.491 Y69.201 E16.80405
G1 X162.442 Y70.222 E16.82839
G1 X39.865 Y186.102 E19.63357
G1 X39.367 Y186.56 E19.64482
G1 X38.778 Y187.013 E19.65718
G1 X38.346 Y187.275 E19.66558
G1 X37.877 Y187.466 E19.674
G1 X37.241 Y187.623 E19.6849
G1 X36.741 Y187.698 E19.69331
G1 X36.153 Y187.684 E19.70309
G1 X35.791 Y187.642 E19.70915
G1 X35.295 Y187.544 E19.71756
G1 X34.667 Y187.293 E19.7288
G1 X34.228 Y187.044 E19.7372
G1 X34.023 Y186.908 E19.74129
G1 X33.564 Y186.538 E19.75109
G1 X33.531 Y186.506 E19.75186
G1 X33.072 Y185.947 E19.76388
G1 X32.867 Y185.63 E19.77016
G1 X32.627 Y185.185 E19.77857
G1 X32.42 Y184.539 E19.78985
G1 X32.35 Y184.2 E19.79561
G1 X32.287 Y183.698 E19.80402
G1 X32.313 Y183.123 E19.81359
G1 X32.351 Y182.843 E19.81829
G1 X32.458 Y182.349 E19.8267
G1 X32.641 Y181.863 E19.83533
G1 X32.932 Y181.3 E19.84587
G1 X33.296 Y180.793 E19.85625
G1 X33.438 Y180.632 E19.85982
G1 X33.804 Y180.237 E19.86878
G1 X149.776 Y57.56 E22.67622
G1 F1800 E15.67622
G1 F300 Z0.3
G0 F1500 X152.735 Y59.379 Z0.3
;TYPE:SUPPORT
G1 F300 Z0.1
G1 F1800 E22.67622
G1 F900 X168.062 Y44.055 E23.03665
G1 X168.248 Y44.858 E23.05036
G1 X168.562 Y45.784 E23.06662
G1 X168.958 Y46.667 E23.08271
G1 X169.436 Y47.504 E23.09874
G1 X170.005 Y48.305 E23.11508
G1 X170.642 Y49.042 E23.13128
G1 X171.31 Y49.676 E23.14659
G1 X171.352 Y49.712 E23.14751
G1 X172.085 Y50.287 E23.16301
G1 X172.89 Y50.801 E23.17889
G1 X172.942 Y50.831 E23.17989
G1 X173.781 Y51.255 E23.19552
G1 X173.835 Y51.279 E23.1965
G1 X174.716 Y51.619 E23.21221
G1 X174.774 Y51.637 E23.21322
G1 X175.677 Y51.886 E23.2288
G1 X175.946 Y51.935 E23.23334
G1 X160.615 Y67.271 E23.59396
G1 X37.054 Y184.082 E26.42167
G1 X36.798 Y184.255 E26.42681
G1 X36.466 Y184.326 E26.43245
G1 X36.182 Y184.266 E26.43728
G1 X35.903 Y184.086 E26.4428
G1 X35.724 Y183.804 E26.44836
G1 X35.674 Y183.54 E26.45282
G1 X35.717 Y183.268 E26.4574
G1 X35.862 Y183.008 E26.46235
G1 X152.735 Y59.379 E29.29159
G1 F1800 E22.29159
G1 F300 Z0.3
G0 F1500 X149.657 Y66.639 Z0.3
G1 F300 Z0.1
G1 F1800 E29.29159
G1 F900 X149.098 Y66.675 E29.30091
G1 X148.551 Y66.789 E29.3102
G1 X148.039 Y66.984 E29.31931
G1 X147.532 Y67.267 E29.32896
G1 X147.088 Y67.617 E29.33837
G1 X146.719 Y68 E29.34721
G1 X146.377 Y68.486 E29.35709
G1 X146.137 Y68.975 E29.36615
G1 X145.963 Y69.532 E29.37586
G1 X145.88 Y70.036 E29.38435
G1 X145.872 Y70.635 E29.39431
G1 X145.944 Y71.175 E29.40337
G1 X146.102 Y71.713 E29.4127
G1 X146.33 Y72.21 E29.42179
G1 X146.661 Y72.702 E29.43165
G1 X147.022 Y73.103 E29.44063
G1 X147.468 Y73.463 E29.45016
G1 X147.945 Y73.75 E29.45942
G1 X148.467 Y73.958 E29.46876
G1 X149.01 Y74.092 E29.47806
G1 X149.596 Y74.138 E29.48784
G1 X150.107 Y74.103 E29.49635
G1 X150.658 Y73.989 E29.50571
G1 X151.192 Y73.792 E29.51518
G1 X151.682 Y73.512 E29.52456
G1 X152.133 Y73.165 E29.53403
G1 X152.517 Y72.758 E29.54333
G1 X152.825 Y72.32 E29.55224
G1 X153.091 Y71.793 E29.56205
G1 X153.261 Y71.237 E29.57172
G1 X153.347 Y70.738 E29.58014
G1 X153.353 Y70.14 E29.59009
G1 X153.282 Y69.6 E29.59914
G1 X153.111 Y69.05 E29.60872
G1 X152.897 Y68.581 E29.6173
G1 X152.565 Y68.071 E29.62742
G1 X152.188 Y67.67 E29.63657
G1 X151.767 Y67.323 E29.64564
G1 X151.278 Y67.026 E29.65516
G1 X150.749 Y66.815 E29.66463
G1 X150.22 Y66.691 E29.67366
G1 X149.657 Y66.639 E29.68307
G0 F1500 X149.352 Y66.458
G1 F900 X149.352 Y63.247 E29.73647
G0 F1500 X148.633 Y64.008
G1 F900 X163.593 Y64.008 E29.98525
G0 F1500 X162.687 Y64.917
G1 F900 X162.687 Y49.71 E30.23814
G0 F1500 X161.724 Y50.673
G1 F900 X172.32 Y50.673 E30.41436
G0 F1500 X173.355 Y51.264
G1 F900 X173.355 Y54.245 E30.46393
G0 F1500 X174.258 Y53.34
G1 F900 X159.057 Y53.34 E30.71673
G0 F1500 X160.02 Y52.377
G1 F900 X160.02 Y67.559 E30.9692
G0 F1500 X160.927 Y66.675
G1 F900 X150.939 Y66.675 E31.1353
G0 F1500 X152.019 Y67.272
G1 F900 X152.019 Y60.426 E31.24915
G0 F1500 X151.154 Y61.341
G1 F900 X166.26 Y61.341 E31.50037
G0 F1500 X165.354 Y62.249
G1 F900 X165.354 Y47.044 E31.75323
G0 F1500 X164.392 Y48.006
G1 F900 X169.548 Y48.006 E31.83897
G1 F1800 E24.83897
G1 F300 Z0.3
G0 F1500 X170.688 Y49.362 Z0.3
G1 F300 Z0.1
G1 F1800 E31.83897
G1 F900 X170.688 Y56.913 E31.96455
G0 F1500 X171.592 Y56.007
G1 F900 X156.389 Y56.007 E32.21737
G0 F1500 X157.353 Y55.043
G1 F900 X157.353 Y70.081 E32.46746
G0 F1500 X158.132 Y69.342
G1 F900 X153.411 Y69.342 E32.54597
G1 F1800 E25.54597
G1 F300 Z0.3
