;FLAVOR:Marlin
;TIME:16213
;Filament used: 11.1088m
;Layer height: 0.2
;MINX:19.848
;MINY:56.186
;MINZ:0.2
;MAXX:202.979
;MAXY:202.1
;MAXZ:5.2
;Generated with Cura_SteamEngine master
M82 ;absolute extrusion mode
;Sliced at: Mon 17-07-2023 18:56:01
;Basic settings: Layer height: 0.2 Walls: 0.8 Fill: 20
G21 ;metric values
G90 ;absolute positioning
M82 ;set extruder to absolute mode
M107 ;start with the fan off
M117 Start heating ...
M104 S200
M117 Homing X/Y ...
G28 X0 Y0 ;move X/Y to min endstops
M117 Homing Z ...
G28 Z0 ;move Z to min endstops
G1 Z15.0 F100 ;move the platform down 15mm
M117 Heating ...
M109 S200
M117 Start cleaning ...
G92 E0 ;zero the extruded length
G1 F200 E10 ;extrude 10mm of feed stock
G92 E0 ;zero the extruded length again
M117 Intro line ...
G1 Z2.0 F3000 ; Move Z Axis up little to prevent scratching of Heat Bed
G1 X0.1 Y20 Z0.2 F5000.0 ; Move to start position
G1 X0.1 Y200.0 Z0.2 F1500.0 E15 ; Draw the first line
G1 X0.4 Y200.0 Z0.2 F5000.0 ; Move to side a little
G1 X0.4 Y20 Z0.3 F1500.0 E30 ; Draw the second line
G92 E0 ; Reset Extruder
G1 E-1 F500 ; Retract filiment by 1 mm
G1 Z2.0 F3000 ; Move Z Axis up little to prevent scratching of Heat Bed
G1 X5 Y20 Z0.3 F100 ; Move over to prevent blob squish
G1 F100
G92 E0 ; Reset Extruder
M117 Printing...

G92 E0
G92 E0
G1 F1800 E-7
;LAYER_COUNT:25
;LAYER:0
M107
G1 F300 Z0.4
G0 F3000 X31.75 Y59.178 Z0.4
;TYPE:SKIRT
G1 F300 Z0.2
G1 F1800 E0
G1 F1200 X32.454 Y58.816 E0.02633
G1 X32.753 Y58.673 E0.03735
G1 X33.517 Y58.327 E0.06525
G1 X33.678 Y58.258 E0.07107
G1 X34.511 Y57.925 E0.10091
G1 X34.702 Y57.855 E0.10768
G1 X35.593 Y57.548 E0.13902
G1 X35.766 Y57.493 E0.14506
G1 X36.649 Y57.233 E0.17568
G1 X36.814 Y57.188 E0.18136
G1 X37.767 Y56.951 E0.21403
G1 X37.939 Y56.912 E0.21989
G1 X38.933 Y56.711 E0.25362
G1 X39.334 Y56.641 E0.26716
G1 X40.404 Y56.477 E0.30316
G1 X40.762 Y56.432 E0.31517
G1 X41.84 Y56.319 E0.35122
G1 X42.425 Y56.274 E0.37073
G1 X43.388 Y56.218 E0.40281
G1 X44.095 Y56.198 E0.42634
G1 X45.524 Y56.186 E0.47387
G1 X46.232 Y56.2 E0.49742
G1 X47.091 Y56.237 E0.52602
G1 X47.209 Y56.244 E0.52995
G1 X48.473 Y56.337 E0.5721
G1 X48.607 Y56.349 E0.57658
G1 X49.61 Y56.457 E0.61013
G1 X49.758 Y56.476 E0.6151
G1 X50.913 Y56.644 E0.65392
G1 X51.057 Y56.667 E0.65877
G1 X52.013 Y56.842 E0.69109
G1 X52.162 Y56.872 E0.69615
G1 X53.196 Y57.102 E0.73138
G1 X53.349 Y57.14 E0.73662
G1 X54.495 Y57.443 E0.77605
G1 X55.079 Y57.615 E0.7963
G1 X55.274 Y57.678 E0.80311
G1 X56.291 Y58.039 E0.839
G1 X58.884 Y58.917 E0.93006
G1 X61.482 Y59.717 E1.02047
G1 X64.099 Y60.442 E1.11079
G1 X66.745 Y61.096 E1.20145
G1 X69.407 Y61.671 E1.29203
G1 X72.04 Y62.166 E1.38113
G1 X74.74 Y62.593 E1.47205
G1 X77.422 Y62.94 E1.562
G1 X80.127 Y63.213 E1.65243
G1 X82.857 Y63.41 E1.74346
G1 X85.533 Y63.529 E1.83255
G1 X88.471 Y63.572 E1.93028
G1 X89.954 Y63.572 E1.97961
G1 X90.652 Y63.582 E2.00283
G1 X91.132 Y63.61 E2.01882
G1 X93.608 Y63.819 E2.10146
G1 X96.343 Y63.972 E2.19257
G1 X99.019 Y64.047 E2.28161
G1 X101.759 Y64.045 E2.37274
G1 X104.434 Y63.967 E2.46175
G1 X107.218 Y63.809 E2.5545
G1 X108.769 Y63.684 E2.60625
G1 X109.756 Y63.597 E2.63921
G1 X110.258 Y63.575 E2.65592
G1 X110.387 Y63.573 E2.66021
G1 X150.414 Y63.572 E3.99151
G1 X151.119 Y63.582 E4.01496
G1 X154.335 Y63.763 E4.1221
G1 X157.009 Y63.839 E4.21107
G1 X159.753 Y63.839 E4.30234
G1 X162.421 Y63.764 E4.39111
G1 X165.166 Y63.607 E4.48256
G1 X167.901 Y63.374 E4.57385
G1 X170.555 Y63.073 E4.66269
G1 X171.983 Y62.875 E4.71064
G1 X172.57 Y62.803 E4.73031
G1 X173.505 Y62.706 E4.76158
G1 X174.148 Y62.656 E4.78303
G1 X175.126 Y62.601 E4.81561
G1 X175.582 Y62.588 E4.83078
G1 X177.136 Y62.584 E4.88247
G1 X177.281 Y62.586 E4.88729
G1 X177.994 Y62.61 E4.91102
G1 X178.137 Y62.618 E4.91578
G1 X178.956 Y62.675 E4.94309
G1 X179.102 Y62.688 E4.94796
G1 X180.078 Y62.792 E4.98061
G1 X180.238 Y62.812 E4.98597
G1 X181.092 Y62.938 E5.01468
G1 X181.248 Y62.964 E5.01994
G1 X182.146 Y63.133 E5.05034
G1 X182.322 Y63.17 E5.05632
G1 X183.415 Y63.427 E5.09366
G1 X183.953 Y63.57 E5.11218
G1 X184.123 Y63.62 E5.11807
G1 X184.956 Y63.885 E5.14715
G1 X185.123 Y63.943 E5.15303
G1 X185.89 Y64.225 E5.18021
G1 X186.06 Y64.292 E5.18628
G1 X186.833 Y64.617 E5.21417
G1 X187.004 Y64.693 E5.2204
G1 X187.751 Y65.049 E5.24792
G1 X187.906 Y65.127 E5.25369
G1 X188.586 Y65.488 E5.2793
G1 X188.747 Y65.579 E5.28545
G1 X189.51 Y66.031 E5.31494
G1 X189.655 Y66.123 E5.32066
G1 X190.378 Y66.598 E5.34943
G1 X190.534 Y66.706 E5.35574
G1 X191.186 Y67.18 E5.38255
G1 X191.329 Y67.289 E5.38853
G1 X191.988 Y67.815 E5.41657
G1 X192.122 Y67.927 E5.42238
G1 X192.756 Y68.48 E5.45036
G1 X192.894 Y68.605 E5.45656
G1 X193.417 Y69.106 E5.48065
G1 X193.557 Y69.247 E5.48725
G1 X194.54 Y70.287 E5.53485
G1 X194.948 Y70.748 E5.55533
G1 X195.053 Y70.873 E5.56076
G1 X195.611 Y71.564 E5.5903
G1 X195.742 Y71.735 E5.59746
G1 X196.616 Y72.945 E5.64711
G1 X196.706 Y73.076 E5.65239
G1 X197.285 Y73.949 E5.68724
G1 X197.354 Y74.056 E5.69147
G1 X197.719 Y74.649 E5.71463
G1 X197.902 Y74.97 E5.72692
G1 X198.384 Y75.838 E5.75994
G1 X198.589 Y76.231 E5.77468
G1 X199.013 Y77.085 E5.8064
G1 X199.24 Y77.577 E5.82442
G1 X199.664 Y78.546 E5.8596
G1 X199.818 Y78.925 E5.8732
G1 X200.222 Y79.968 E5.91041
G1 X200.421 Y80.531 E5.93027
G1 X200.763 Y81.553 E5.96611
G1 X200.993 Y82.316 E5.99262
G1 X201.284 Y83.338 E6.02796
G1 X201.348 Y83.588 E6.03654
G1 X201.518 Y84.275 E6.06008
G1 X201.761 Y85.318 E6.0957
G1 X201.982 Y86.423 E6.13318
G1 X202.159 Y87.385 E6.16571
G1 X202.222 Y87.771 E6.17872
G1 X202.393 Y88.911 E6.21706
G1 X202.528 Y89.904 E6.2504
G1 X202.543 Y90.033 E6.25471
G1 X202.699 Y91.556 E6.30563
G1 X202.794 Y92.635 E6.34166
G1 X202.869 Y93.888 E6.38341
G1 X202.953 Y96.021 E6.45441
G1 X202.974 Y97.139 E6.4916
G1 X202.979 Y98.594 E6.53999
G1 X202.963 Y99.407 E6.56704
G1 X202.902 Y100.884 E6.61621
G1 X202.888 Y101.112 E6.62381
G1 X202.754 Y102.936 E6.68464
G1 X202.742 Y103.074 E6.68924
G1 X202.594 Y104.44 E6.73494
G1 X202.58 Y104.554 E6.73876
G1 X202.436 Y105.601 E6.77391
G1 X202.417 Y105.723 E6.77802
G1 X202.206 Y106.961 E6.81979
G1 X201.987 Y108.051 E6.85677
G1 X201.957 Y108.185 E6.86133
G1 X201.715 Y109.207 E6.89627
G1 X201.681 Y109.341 E6.90086
G1 X201.406 Y110.346 E6.93552
G1 X201.367 Y110.481 E6.94019
G1 X201.051 Y111.494 E6.97549
G1 X201.003 Y111.638 E6.98054
G1 X200.671 Y112.576 E7.01363
G1 X200.548 Y112.891 E7.02488
G1 X199.548 Y115.499 E7.11778
G1 X198.66 Y118.025 E7.20683
G1 X197.822 Y120.647 E7.29839
G1 X197.079 Y123.215 E7.3873
G1 X196.393 Y125.868 E7.47844
G1 X195.79 Y128.496 E7.56812
G1 X195.244 Y131.249 E7.66147
G1 X194.805 Y133.834 E7.74868
G1 X194.425 Y136.535 E7.8394
G1 X194.12 Y139.245 E7.9301
G1 X193.897 Y141.932 E8.01978
G1 X193.747 Y144.636 E8.10986
G1 X193.668 Y147.825 E8.21595
G1 X193.658 Y149.024 E8.25583
G1 X193.613 Y149.587 E8.27462
G1 X193.489 Y150.139 E8.29344
G1 X193.289 Y150.668 E8.31225
G1 X193.016 Y151.163 E8.33105
G1 X192.676 Y151.614 E8.34983
G1 X192.276 Y152.014 E8.36865
G1 X191.823 Y152.352 E8.38745
G1 X191.122 Y152.711 E8.41364
G1 X190.142 Y153.097 E8.44867
G1 X187.556 Y154.156 E8.54162
G1 X185.104 Y155.242 E8.63081
G1 X182.64 Y156.416 E8.72159
G1 X180.212 Y157.661 E8.81235
G1 X177.848 Y158.957 E8.90201
G1 X175.529 Y160.315 E8.9914
G1 X173.17 Y161.788 E9.0839
G1 X170.954 Y163.26 E9.17238
G1 X168.7 Y164.852 E9.26416
G1 X166.555 Y166.459 E9.35331
G1 X164.42 Y168.155 E9.44399
G1 X162.334 Y169.91 E9.53466
G1 X160.335 Y171.692 E9.62373
G1 X158.333 Y173.58 E9.71526
G1 X156.403 Y175.507 E9.80597
G1 X154.564 Y177.449 E9.89493
G1 X152.733 Y179.496 E9.98627
G1 X152.167 Y180.162 E10.01534
G1 X151.81 Y180.57 E10.03337
G1 X151.466 Y180.918 E10.04965
G1 X151.02 Y181.266 E10.06846
G1 X150.742 Y181.436 E10.0793
G1 X150.051 Y181.822 E10.10563
G1 X135.422 Y189.697 E10.65821
G1 X134.497 Y190.177 E10.69287
G1 X132.963 Y190.915 E10.74949
G1 X132.547 Y191.111 E10.76478
G1 X128.735 Y192.886 E10.90464
G1 X127.404 Y193.481 E10.95313
G1 X124.226 Y194.853 E11.06827
G1 X122.872 Y195.414 E11.11701
G1 X120.446 Y196.378 E11.20384
G1 X119.026 Y196.916 E11.25434
G1 X116.873 Y197.696 E11.33051
G1 X115.272 Y198.247 E11.38682
G1 X113.411 Y198.85 E11.45189
G1 X111.65 Y199.388 E11.51313
G1 X110.34 Y199.762 E11.55844
G1 X108.71 Y200.198 E11.61456
G1 X108.019 Y200.372 E11.63826
G1 X106.569 Y200.712 E11.6878
G1 X106.017 Y200.833 E11.70659
G1 X104.293 Y201.182 E11.7651
G1 X103.936 Y201.247 E11.77717
G1 X102.153 Y201.545 E11.83729
G1 X101.966 Y201.573 E11.84358
G1 X100.169 Y201.807 E11.90385
G1 X100.008 Y201.824 E11.90924
G1 X98.025 Y202.001 E11.97545
G1 X97.882 Y202.011 E11.98022
G1 X96.756 Y202.071 E12.01773
G1 X96.631 Y202.076 E12.02189
G1 X96.025 Y202.089 E12.04205
G1 X94.42 Y202.1 E12.09543
G1 X93.348 Y202.079 E12.13109
G1 X91.841 Y202.013 E12.18126
G1 X91.242 Y201.978 E12.20122
G1 X89.662 Y201.858 E12.25392
G1 X89.543 Y201.847 E12.2579
G1 X88.241 Y201.709 E12.30145
G1 X88.126 Y201.695 E12.3053
G1 X86.85 Y201.522 E12.34813
G1 X85.333 Y201.268 E12.39929
G1 X85.204 Y201.244 E12.40365
G1 X84.004 Y201.001 E12.44437
G1 X83.877 Y200.973 E12.4487
G1 X82.656 Y200.684 E12.49043
G1 X82.51 Y200.647 E12.49544
G1 X81.303 Y200.313 E12.53709
G1 X81.156 Y200.269 E12.5422
G1 X79.957 Y199.887 E12.58405
G1 X79.81 Y199.838 E12.5892
G1 X78.541 Y199.379 E12.63409
G1 X78.411 Y199.329 E12.63872
G1 X77.699 Y199.043 E12.66424
G1 X77.548 Y198.978 E12.66971
G1 X76.484 Y198.498 E12.70853
G1 X76.313 Y198.415 E12.71485
G1 X75.366 Y197.936 E12.75015
G1 X75.147 Y197.818 E12.75842
G1 X74.287 Y197.333 E12.79126
G1 X73.952 Y197.132 E12.80426
G1 X73.148 Y196.626 E12.83585
G1 X72.933 Y196.483 E12.84444
G1 X72.2 Y195.973 E12.87414
G1 X71.868 Y195.728 E12.88787
G1 X71.218 Y195.226 E12.91518
G1 X70.784 Y194.864 E12.93398
G1 X70.113 Y194.267 E12.96385
G1 X69.998 Y194.161 E12.96905
G1 X69.096 Y193.289 E13.01078
G1 X68.753 Y192.928 E13.02734
G1 X67.869 Y191.917 E13.07201
G1 X67.514 Y191.487 E13.09056
G1 X67.397 Y191.337 E13.09688
G1 X67.022 Y190.832 E13.1178
G1 X66.915 Y190.681 E13.12396
G1 X66.182 Y189.592 E13.16762
G1 X65.889 Y189.125 E13.18596
G1 X65.8 Y188.975 E13.19176
G1 X65.479 Y188.404 E13.21355
G1 X65.387 Y188.23 E13.22009
G1 X64.79 Y187.034 E13.26455
G1 X64.533 Y186.476 E13.28498
G1 X63.414 Y183.816 E13.38097
G1 X62.298 Y181.358 E13.47075
G1 X61.102 Y178.906 E13.56149
G1 X59.836 Y176.49 E13.65221
G1 X58.519 Y174.141 E13.74178
G1 X57.119 Y171.803 E13.83242
G1 X55.644 Y169.489 E13.92369
G1 X54.151 Y167.288 E14.01215
G1 X52.539 Y165.05 E14.10388
G1 X50.903 Y162.908 E14.19353
G1 X49.194 Y160.797 E14.28386
G1 X47.42 Y158.731 E14.37444
G1 X45.588 Y156.712 E14.46511
G1 X43.717 Y154.764 E14.55495
G1 X41.789 Y152.869 E14.64486
G1 X39.799 Y151.019 E14.73523
G1 X37.737 Y149.211 E14.82644
G1 X35.662 Y147.49 E14.91611
G1 X33.528 Y145.82 E15.00624
G1 X31.935 Y144.636 E15.07225
G1 X31.516 Y144.327 E15.08957
G1 X31.012 Y143.928 E15.11095
G1 X30.882 Y143.82 E15.11657
G1 X30.327 Y143.341 E15.14095
G1 X29.866 Y142.918 E15.16176
G1 X29.749 Y142.805 E15.16717
G1 X29.186 Y142.239 E15.19372
G1 X29.078 Y142.126 E15.19892
G1 X28.653 Y141.664 E15.2198
G1 X28.5 Y141.487 E15.22758
G1 X27.865 Y140.71 E15.26096
G1 X27.508 Y140.246 E15.28043
G1 X27.396 Y140.091 E15.28679
G1 X26.901 Y139.372 E15.31582
G1 X26.801 Y139.218 E15.32193
G1 X26.395 Y138.566 E15.34748
G1 X26.303 Y138.412 E15.35344
G1 X25.872 Y137.645 E15.38271
G1 X25.779 Y137.468 E15.38936
G1 X25.382 Y136.671 E15.41897
G1 X25.309 Y136.518 E15.42461
G1 X24.969 Y135.756 E15.45236
G1 X24.906 Y135.605 E15.4578
G1 X24.588 Y134.806 E15.48641
G1 X24.526 Y134.64 E15.4923
G1 X24.16 Y133.586 E15.52941
G1 X24.096 Y133.385 E15.53643
G1 X23.79 Y132.342 E15.57258
G1 X23.74 Y132.152 E15.57911
G1 X23.497 Y131.17 E15.61276
G1 X23.43 Y130.862 E15.62324
G1 X23.19 Y129.654 E15.66421
G1 X23.133 Y129.318 E15.67554
G1 X22.967 Y128.227 E15.71225
G1 X22.889 Y127.588 E15.73366
G1 X22.782 Y126.579 E15.76741
G1 X22.758 Y126.294 E15.77692
G1 X22.712 Y125.644 E15.79859
G1 X22.653 Y124.628 E15.83244
G1 X22.641 Y124.264 E15.84455
G1 X22.614 Y123.124 E15.88248
G1 X22.602 Y122.042 E15.91847
G1 X22.602 Y121.438 E15.93856
G1 X22.612 Y120.74 E15.96178
G1 X22.631 Y120.407 E15.97287
G1 X22.746 Y119.238 E16.01194
G1 X22.979 Y116.484 E16.10387
G1 X23.133 Y113.746 E16.19508
G1 X23.208 Y111.075 E16.28395
G1 X23.206 Y108.331 E16.37521
G1 X23.129 Y105.654 E16.46429
G1 X22.973 Y102.889 E16.5564
G1 X22.745 Y100.222 E16.64543
G1 X22.436 Y97.519 E16.73592
G1 X22.052 Y94.823 E16.82649
G1 X21.593 Y92.155 E16.91653
G1 X21.061 Y89.499 E17.00662
G1 X20.448 Y86.846 E17.09719
G1 X20.081 Y85.394 E17.147
G1 X19.972 Y84.74 E17.16905
G1 X19.954 Y84.517 E17.17649
G1 X19.88 Y83.438 E17.21247
G1 X19.857 Y82.887 E17.23081
G1 X19.854 Y82.75 E17.23537
G1 X19.848 Y81.562 E17.27488
G1 X19.86 Y81.005 E17.29341
G1 X19.91 Y79.916 E17.32967
G1 X19.918 Y79.785 E17.33403
G1 X20.017 Y78.529 E17.37594
G1 X20.031 Y78.384 E17.38078
G1 X20.183 Y77.069 E17.42481
G1 X20.325 Y76.116 E17.45686
G1 X20.344 Y76.001 E17.46074
G1 X20.492 Y75.187 E17.48825
G1 X20.652 Y74.425 E17.51415
G1 X20.828 Y73.691 E17.53925
G1 X20.859 Y73.57 E17.54341
G1 X21.076 Y72.781 E17.57063
G1 X21.329 Y71.952 E17.59945
G1 X21.371 Y71.821 E17.60403
G1 X21.566 Y71.255 E17.62394
G1 X21.611 Y71.131 E17.62833
G1 X21.899 Y70.377 E17.65517
G1 X21.949 Y70.252 E17.65965
G1 X22.236 Y69.57 E17.68426
G1 X22.473 Y69.05 E17.70327
G1 X22.538 Y68.916 E17.70822
G1 X22.994 Y68.015 E17.74181
G1 X23.273 Y67.503 E17.7612
G1 X23.349 Y67.371 E17.76627
G1 X23.702 Y66.783 E17.78908
G1 X23.777 Y66.662 E17.79381
G1 X24.191 Y66.025 E17.81908
G1 X24.28 Y65.895 E17.82432
G1 X24.604 Y65.437 E17.84298
G1 X24.69 Y65.32 E17.84781
G1 X25.174 Y64.686 E17.87434
G1 X25.273 Y64.56 E17.87967
G1 X25.68 Y64.069 E17.90088
G1 X26.08 Y63.616 E17.92098
G1 X26.183 Y63.505 E17.92602
G1 X26.765 Y62.899 E17.95396
G1 X26.884 Y62.78 E17.95956
G1 X27.349 Y62.335 E17.98097
G1 X27.462 Y62.231 E17.98608
G1 X27.98 Y61.772 E18.00909
G1 X28.101 Y61.669 E18.01438
G1 X28.835 Y61.069 E18.04591
G1 X29.259 Y60.75 E18.06356
G1 X30.382 Y59.982 E18.10881
G1 X30.849 Y59.69 E18.12713
G1 X31.594 Y59.263 E18.15569
G1 X31.75 Y59.178 E18.1616
G0 F3000 X31.933 Y59.533
G1 F1200 X32.544 Y59.218 E18.18446
G1 X32.918 Y59.038 E18.19827
G1 X33.682 Y58.692 E18.22616
G1 X33.827 Y58.63 E18.23141
G1 X34.652 Y58.3 E18.26096
G1 X34.832 Y58.233 E18.26735
G1 X35.723 Y57.926 E18.29869
G1 X35.879 Y57.877 E18.30413
G1 X36.762 Y57.617 E18.33475
G1 X36.91 Y57.576 E18.33985
G1 X37.863 Y57.339 E18.37252
G1 X38.018 Y57.304 E18.3778
G1 X39.012 Y57.103 E18.41153
G1 X39.395 Y57.036 E18.42446
G1 X40.359 Y56.887 E18.45691
G1 X40.805 Y56.83 E18.47186
G1 X41.872 Y56.718 E18.50755
G1 X42.449 Y56.673 E18.52679
G1 X43.402 Y56.618 E18.55854
G1 X44.105 Y56.598 E18.58194
G1 X45.527 Y56.586 E18.62923
G1 X46.224 Y56.6 E18.65242
G1 X47.074 Y56.636 E18.68072
G1 X48.443 Y56.736 E18.72637
G1 X48.564 Y56.747 E18.73041
G1 X49.567 Y56.855 E18.76397
G1 X49.7 Y56.871 E18.76842
G1 X50.855 Y57.039 E18.80724
G1 X50.985 Y57.061 E18.81163
G1 X51.941 Y57.236 E18.84395
G1 X52.075 Y57.263 E18.8485
G1 X53.109 Y57.493 E18.88373
G1 X53.247 Y57.527 E18.88846
G1 X54.501 Y57.86 E18.93161
G1 X55.14 Y58.055 E18.95383
G1 X56.176 Y58.422 E18.99039
G1 X58.775 Y59.303 E19.08166
G1 X61.331 Y60.09 E19.17061
G1 X64.001 Y60.829 E19.26276
G1 X66.669 Y61.489 E19.35417
G1 X69.32 Y62.062 E19.44438
G1 X71.97 Y62.559 E19.53405
G1 X74.698 Y62.991 E19.62592
G1 X77.371 Y63.337 E19.71556
G1 X80.088 Y63.611 E19.80639
G1 X82.849 Y63.811 E19.89846
G1 X85.509 Y63.928 E19.98702
G1 X88.465 Y63.972 E20.08535
G1 X89.949 Y63.972 E20.1347
G1 X90.647 Y63.982 E20.15792
G1 X91.098 Y64.009 E20.17295
G1 X93.586 Y64.219 E20.256
G1 X96.274 Y64.37 E20.34554
G1 X99.044 Y64.447 E20.43771
G1 X101.771 Y64.445 E20.52841
G1 X104.468 Y64.367 E20.61815
G1 X107.185 Y64.212 E20.70866
G1 X108.833 Y64.08 E20.76365
G1 X109.791 Y63.996 E20.79563
G1 X110.387 Y63.973 E20.81547
G1 X150.408 Y63.972 E22.14658
G1 X151.113 Y63.982 E22.17003
G1 X154.265 Y64.161 E22.27503
G1 X157.034 Y64.239 E22.36717
G1 X159.728 Y64.239 E22.45677
G1 X162.491 Y64.161 E22.5487
G1 X165.187 Y64.007 E22.63852
