;FLAVOR:Marlin
;TIME:1882
;Filament used: 0.381399m
;Layer height: 0.1
;MINX:97.013
;MINY:69.84
;MINZ:0.1
;MAXX:122.987
;MAXY:150.168
;MAXZ:4
;Generated with Cura_SteamEngine master
M82 ;absolute extrusion mode
;Sliced at: Sat 03-12-2022 17:57:09
;Basic settings: Layer height: 0.1 Walls: 0.8 Fill: 100.0
G21 ;metric values
G90 ;absolute positioning
M82 ;set extruder to absolute mode
M107 ;start with the fan off
M117 Start heating ...
M104 S200
M117 Homing X/Y ...
G28 X0 Y0 ;move X/Y to min endstops
M117 Homing Z ...
G28 Z0 ;move Z to min endstops
G1 Z15.0 F50 ;move the platform down 15mm
M117 Heating ...
M109 S200
M117 Start cleaning ...
G92 E0 ;zero the extruded length
G1 F200 E10 ;extrude 10mm of feed stock
G92 E0 ;zero the extruded length again
M117 Intro line ...
G1 Z2.0 F3000 ; Move Z Axis up little to prevent scratching of Heat Bed
G1 X0.1 Y20 Z0.1 F5000.0 ; Move to start position
G1 X0.1 Y200.0 Z0.1 F1500.0 E15 ; Draw the first line
G1 X0.4 Y200.0 Z0.1 F5000.0 ; Move to side a little
G1 X0.4 Y20 Z0.3 F1500.0 E30 ; Draw the second line
G92 E0 ; Reset Extruder
G1 E-1 F500 ; Retract filiment by 1 mm
G1 Z2.0 F3000 ; Move Z Axis up little to prevent scratching of Heat Bed
G1 X5 Y20 Z0.3 F50 ; Move over to prevent blob squish
G1 F50
G92 E0 ; Reset Extruder
M117 Printing...

G92 E0
G92 E0
G1 F1800 E-7
;LAYER_COUNT:38
;LAYER:0
M107
G1 F300 Z0.3
G0 F1500 X99.541 Y75.128 Z0.3
;TYPE:SKIRT
G1 F300 Z0.1
G1 F1800 E0
G1 F900 X99.911 Y74.655 E0.00999
G1 X100.381 Y74.113 E0.02192
G1 X100.558 Y73.922 E0.02625
G1 X101.071 Y73.405 E0.03836
G1 X101.49 Y73.016 E0.04787
G1 X102.202 Y72.448 E0.06301
G1 X102.404 Y72.302 E0.06716
G1 X103.016 Y71.888 E0.07945
G1 X103.642 Y71.501 E0.09169
G1 X104.053 Y71.283 E0.09942
G1 X104.554 Y71.038 E0.1087
G1 X105.014 Y70.836 E0.11705
G1 X105.58 Y70.619 E0.12713
G1 X105.827 Y70.536 E0.13147
G1 X106.699 Y70.272 E0.14662
G1 X107.39 Y70.104 E0.15844
G1 X108.162 Y69.972 E0.17147
G1 X108.7 Y69.909 E0.18048
G1 X108.874 Y69.895 E0.18338
G1 X109.591 Y69.851 E0.19533
G1 X109.973 Y69.84 E0.20168
G1 X110.79 Y69.863 E0.21527
G1 X111.398 Y69.917 E0.22542
G1 X111.976 Y69.997 E0.23513
G1 X112.22 Y70.04 E0.23925
G1 X113.061 Y70.215 E0.25353
G1 X113.638 Y70.36 E0.26343
G1 X114.468 Y70.638 E0.27798
G1 X114.699 Y70.728 E0.28211
G1 X115.49 Y71.065 E0.29641
G1 X115.995 Y71.306 E0.30571
G1 X116.784 Y71.759 E0.32084
G1 X116.995 Y71.894 E0.32501
G1 X117.698 Y72.377 E0.33919
G1 X118.145 Y72.712 E0.34848
G1 X118.544 Y73.049 E0.35717
G1 X118.979 Y73.444 E0.36694
G1 X119.346 Y73.809 E0.37555
G1 X119.462 Y73.932 E0.37836
G1 X119.842 Y74.354 E0.3878
G1 X120.17 Y74.75 E0.39635
G1 X120.529 Y75.232 E0.40635
G1 X120.673 Y75.441 E0.41057
G1 X121.169 Y76.215 E0.42586
G1 X121.364 Y76.555 E0.43237
G1 X121.76 Y77.331 E0.44686
G1 X121.984 Y77.82 E0.45581
G1 X122.151 Y78.252 E0.46351
G1 X122.375 Y78.908 E0.47504
G1 X122.45 Y79.152 E0.47928
G1 X122.606 Y79.726 E0.48917
G1 X122.708 Y80.181 E0.49693
G1 X122.861 Y81.07 E0.51193
G1 X122.933 Y81.624 E0.52122
G1 X122.965 Y82.072 E0.52869
G1 X122.987 Y82.629 E0.53796
G1 X122.983 Y83.198 E0.54742
G1 X122.977 Y83.37 E0.55028
G1 X122.939 Y83.995 E0.5607
G1 X122.859 Y84.668 E0.57197
G1 X122.758 Y85.273 E0.58217
G1 X122.646 Y85.784 E0.59087
G1 X122.562 Y86.112 E0.5965
G1 X121.886 Y88.658 E0.64031
G1 X121.249 Y91.355 E0.68639
G1 X120.718 Y93.942 E0.73031
G1 X120.241 Y96.644 E0.77594
G1 X119.846 Y99.321 E0.82094
G1 X119.525 Y102.015 E0.86606
G1 X119.279 Y104.743 E0.91161
G1 X119.114 Y107.416 E0.95615
G1 X119.023 Y110.154 E1.0017
G1 X119.008 Y112.865 E1.04679
G1 X119.07 Y115.569 E1.09177
G1 X119.212 Y118.314 E1.13748
G1 X119.425 Y120.974 E1.18186
G1 X119.721 Y123.704 E1.22752
G1 X120.088 Y126.387 E1.27256
G1 X120.533 Y129.065 E1.3177
G1 X120.903 Y131.005 E1.35055
G1 X120.988 Y131.706 E1.36229
G1 X121 Y132.16 E1.36984
G1 X121 Y139.618 E1.49387
G1 X120.99 Y140.319 E1.50553
G1 X120.909 Y141.064 E1.51799
G1 X120.86 Y141.288 E1.5218
G1 X120.717 Y141.881 E1.53195
G1 X119.859 Y145.234 E1.58951
G1 X119.839 Y145.342 E1.59133
G1 X119.685 Y145.955 E1.60184
G1 X119.372 Y147.111 E1.62176
G1 X119.186 Y147.645 E1.63116
G1 X118.926 Y148.147 E1.64057
G1 X118.599 Y148.608 E1.64996
G1 X118.042 Y149.162 E1.66303
G1 X117.938 Y149.247 E1.66526
G1 X117.476 Y149.573 E1.67467
G1 X116.973 Y149.831 E1.68407
G1 X116.439 Y150.015 E1.69346
G1 X115.883 Y150.122 E1.70288
G1 X115.483 Y150.149 E1.70954
G1 X114.456 Y150.168 E1.72663
G1 X105.241 Y150.168 E1.87987
G1 X104.553 Y150.158 E1.89131
G1 X103.99 Y150.109 E1.90071
G1 X103.439 Y149.982 E1.91012
G1 X102.911 Y149.779 E1.91952
G1 X102.234 Y149.375 E1.93263
G1 X102.123 Y149.293 E1.93493
G1 X101.693 Y148.926 E1.94433
G1 X101.32 Y148.502 E1.95372
G1 X101.009 Y148.029 E1.96314
G1 X100.769 Y147.518 E1.97252
G1 X100.644 Y147.14 E1.97915
G1 X100.35 Y146.069 E1.99761
G1 X99.3 Y141.94 E2.06847
G1 X99.123 Y141.21 E2.08096
G1 X99.013 Y140.412 E2.09435
G1 X99.006 Y140.205 E2.0978
G1 X99 Y139.702 E2.10616
G1 X99 Y132.475 E2.22635
G1 X99.011 Y131.769 E2.23809
G1 X99.078 Y131.1 E2.24927
G1 X99.318 Y129.812 E2.27106
G1 X99.36 Y129.602 E2.27462
G1 X99.817 Y126.944 E2.31947
G1 X100.204 Y124.235 E2.36498
G1 X100.51 Y121.545 E2.41001
G1 X100.738 Y118.878 E2.45452
G1 X100.896 Y116.105 E2.50071
G1 X100.973 Y113.432 E2.54518
G1 X100.975 Y110.689 E2.5908
G1 X100.9 Y108.017 E2.63525
G1 X100.746 Y105.276 E2.6809
G1 X100.518 Y102.579 E2.72592
G1 X100.21 Y99.857 E2.77147
G1 X99.832 Y97.194 E2.8162
G1 X99.371 Y94.496 E2.86172
G1 X98.847 Y91.874 E2.90619
G1 X98.231 Y89.198 E2.95185
G1 X97.738 Y87.27 E2.98495
G1 X97.455 Y86.21 E3.00319
G1 X97.354 Y85.744 E3.01112
G1 X97.234 Y85.189 E3.02056
G1 X97.173 Y84.825 E3.0267
G1 X97.064 Y83.926 E3.04176
G1 X97.022 Y83.381 E3.05085
G1 X97.013 Y82.92 E3.05852
G1 X97.021 Y82.339 E3.06818
G1 X97.066 Y81.665 E3.07942
G1 X97.154 Y80.96 E3.09123
G1 X97.289 Y80.198 E3.1041
G1 X97.457 Y79.454 E3.11679
G1 X97.607 Y78.949 E3.12555
G1 X97.787 Y78.406 E3.13506
G1 X98.056 Y77.75 E3.14685
G1 X98.324 Y77.16 E3.15763
G1 X98.609 Y76.602 E3.16805
G1 X98.871 Y76.133 E3.17698
G1 X99.205 Y75.607 E3.18734
G1 X99.541 Y75.128 E3.19707
G0 F1500 X99.869 Y75.358
G1 F900 X100.213 Y74.917 E3.20637
G1 X100.683 Y74.375 E3.2183
G1 X100.843 Y74.203 E3.22221
G1 X101.348 Y73.694 E3.23413
G1 X101.747 Y73.322 E3.24321
G1 X102.446 Y72.765 E3.25807
G1 X102.628 Y72.633 E3.26181
G1 X103.24 Y72.219 E3.2741
G1 X103.833 Y71.853 E3.28569
G1 X104.228 Y71.642 E3.29313
G1 X104.729 Y71.397 E3.30241
G1 X105.316 Y71.146 E3.31302
G1 X105.943 Y70.918 E3.32412
G1 X106.815 Y70.654 E3.33927
G1 X107.462 Y70.497 E3.35034
G1 X108.226 Y70.367 E3.36323
G1 X108.742 Y70.307 E3.37187
G1 X108.898 Y70.294 E3.37447
G1 X109.615 Y70.25 E3.38642
G1 X109.97 Y70.24 E3.39233
G1 X110.775 Y70.263 E3.40572
G1 X111.357 Y70.315 E3.41544
G1 X111.919 Y70.393 E3.42487
G1 X112.138 Y70.431 E3.42857
G1 X112.979 Y70.606 E3.44285
G1 X113.522 Y70.743 E3.45217
G1 X114.335 Y71.015 E3.46642
G1 X114.542 Y71.096 E3.47012
G1 X115.333 Y71.433 E3.48442
G1 X115.805 Y71.658 E3.49311
G1 X116.579 Y72.102 E3.50795
G1 X116.769 Y72.224 E3.51171
G1 X117.472 Y72.707 E3.52589
G1 X117.89 Y73.02 E3.53458
G1 X118.275 Y73.345 E3.54295
G1 X118.71 Y73.74 E3.55273
G1 X119.165 Y74.2 E3.56349
G1 X119.545 Y74.622 E3.57293
G1 X119.964 Y75.138 E3.58398
G1 X120.336 Y75.657 E3.5946
G1 X120.832 Y76.431 E3.60989
G1 X121.008 Y76.737 E3.61576
G1 X121.404 Y77.513 E3.63025
G1 X121.613 Y77.969 E3.63859
G1 X121.773 Y78.382 E3.64596
G1 X121.997 Y79.038 E3.65748
G1 X122.064 Y79.257 E3.66129
G1 X122.22 Y79.831 E3.67119
G1 X122.314 Y80.248 E3.67829
G1 X122.467 Y81.137 E3.6933
G1 X122.534 Y81.655 E3.70198
G1 X122.565 Y82.088 E3.7092
G1 X122.587 Y82.645 E3.71847
G1 X122.583 Y83.191 E3.72755
G1 X122.577 Y83.345 E3.73011
G1 X122.539 Y83.97 E3.74053
G1 X122.463 Y84.612 E3.75128
G1 X122.364 Y85.206 E3.76129
G1 X122.185 Y85.972 E3.77437
G1 X121.504 Y88.535 E3.81848
G1 X120.863 Y91.248 E3.86484
G1 X120.318 Y93.905 E3.90994
G1 X119.848 Y96.569 E3.95493
G1 X119.451 Y99.253 E4.00005
G1 X119.124 Y102.003 E4.0461
G1 X118.883 Y104.681 E4.09082
G1 X118.713 Y107.414 E4.13636
G1 X118.623 Y110.139 E4.1817
G1 X118.608 Y112.872 E4.22715
G1 X118.671 Y115.598 E4.2725
G1 X118.81 Y118.294 E4.31739
G1 X119.03 Y121.051 E4.36338
G1 X119.321 Y123.73 E4.4082
G1 X119.696 Y126.47 E4.45419
G1 X120.137 Y129.127 E4.49898
G1 X120.51 Y131.072 E4.53192
G1 X120.588 Y131.718 E4.54274
G1 X120.6 Y132.16 E4.55009
G1 X120.6 Y139.612 E4.67402
G1 X120.59 Y140.313 E4.68568
G1 X120.517 Y140.983 E4.69688
G1 X120.472 Y141.194 E4.70047
G1 X120.33 Y141.781 E4.71052
G1 X119.461 Y145.176 E4.76879
G1 X119.451 Y145.245 E4.76995
G1 X119.298 Y145.853 E4.78038
G1 X118.986 Y147.006 E4.80024
G1 X118.807 Y147.512 E4.80917
G1 X118.556 Y147.986 E4.81809
G1 X118.237 Y148.417 E4.82701
G1 X117.789 Y148.852 E4.83739
G1 X117.685 Y148.937 E4.83963
G1 X117.246 Y149.245 E4.84854
G1 X116.766 Y149.484 E4.85746
G1 X116.255 Y149.649 E4.86639
G1 X115.475 Y149.749 E4.87947
G1 X114.456 Y149.768 E4.89642
G1 X105.247 Y149.768 E5.04956
G1 X104.559 Y149.758 E5.06101
G1 X104.025 Y149.71 E5.06992
G1 X103.503 Y149.583 E5.07886
G1 X103.007 Y149.381 E5.08776
G1 X102.472 Y149.054 E5.09819
G1 X102.361 Y148.972 E5.10049
G1 X101.955 Y148.622 E5.1094
G1 X101.605 Y148.215 E5.11833
G1 X101.319 Y147.761 E5.12725
G1 X101.03 Y147.033 E5.14028
G1 X100.737 Y145.971 E5.1586
G1 X99.688 Y141.845 E5.2294
G1 X99.511 Y141.115 E5.24189
G1 X99.412 Y140.398 E5.25392
G1 X99.406 Y140.2 E5.25722
G1 X99.4 Y139.697 E5.26558
G1 X99.4 Y132.481 E5.38559
G1 X99.411 Y131.775 E5.39733
G1 X99.472 Y131.173 E5.40739
G1 X99.71 Y129.89 E5.42909
G1 X99.754 Y129.67 E5.43282
G1 X100.213 Y127.002 E5.47784
G1 X100.599 Y124.296 E5.5233
G1 X100.907 Y121.592 E5.56856
G1 X101.14 Y118.864 E5.61409
G1 X101.294 Y116.174 E5.6589
G1 X101.373 Y113.408 E5.70492
G1 X101.375 Y110.714 E5.74972
G1 X101.298 Y107.947 E5.79575
G1 X101.146 Y105.255 E5.84059
G1 X100.917 Y102.537 E5.88595
G1 X100.609 Y99.822 E5.93139
G1 X100.229 Y97.147 E5.97632
G1 X99.764 Y94.422 E6.02229
G1 X99.24 Y91.805 E6.06668
G1 X98.618 Y89.096 E6.1129
G1 X98.115 Y87.13 E6.14665
G1 X97.842 Y86.107 E6.16426
G1 X97.734 Y85.607 E6.17277
G1 X97.625 Y85.105 E6.18131
G1 X97.57 Y84.777 E6.18684
G1 X97.461 Y83.878 E6.2019
G1 X97.422 Y83.37 E6.21037
G1 X97.413 Y82.925 E6.21777
G1 X97.421 Y82.344 E6.22744
G1 X97.463 Y81.711 E6.23799
G1 X97.548 Y81.029 E6.24942
G1 X97.66 Y80.389 E6.26022
G1 X97.771 Y79.845 E6.26945
G1 X97.95 Y79.193 E6.2807
G1 X98.131 Y78.638 E6.29041
G1 X98.425 Y77.907 E6.30351
G1 X98.688 Y77.326 E6.31411
G1 X98.964 Y76.787 E6.32419
G1 X99.22 Y76.33 E6.3329
G1 X99.533 Y75.837 E6.34261
G1 X99.869 Y75.358 E6.35234
G0 F1500 X100.196 Y75.587
G1 F900 X100.515 Y75.18 E6.36094
G1 X100.985 Y74.638 E6.37287
G1 X101.127 Y74.484 E6.37635
G1 X101.624 Y73.983 E6.38809
G1 X102.005 Y73.628 E6.39675
G1 X102.69 Y73.081 E6.41133
G1 X102.852 Y72.964 E6.41465
G1 X103.464 Y72.55 E6.42694
G1 X104.023 Y72.205 E6.43786
G1 X104.404 Y72.001 E6.44505
G1 X104.905 Y71.756 E6.45432
G1 X105.457 Y71.52 E6.46431
G1 X106.059 Y71.301 E6.47496
G1 X106.931 Y71.037 E6.49011
G1 X107.535 Y70.89 E6.50045
G1 X108.291 Y70.762 E6.5132
G1 X108.923 Y70.693 E6.52377
G1 X109.742 Y70.644 E6.53742
G1 X110.285 Y70.644 E6.54645
G1 X110.966 Y70.677 E6.55779
G1 X111.862 Y70.789 E6.5728
G1 X112.057 Y70.823 E6.57609
G1 X112.898 Y70.998 E6.59038
G1 X113.406 Y71.126 E6.59909
G1 X114.201 Y71.392 E6.61303
G1 X114.385 Y71.464 E6.61632
G1 X115.176 Y71.801 E6.63062
G1 X115.878 Y72.152 E6.64367
G1 X116.373 Y72.445 E6.65323
G1 X116.542 Y72.554 E6.65658
G1 X117.335 Y73.1 E6.67259
G1 X117.899 Y73.548 E6.68457
G1 X118.006 Y73.641 E6.68693
G1 X118.441 Y74.036 E6.6967
G1 X118.868 Y74.468 E6.7068
G1 X119.248 Y74.89 E6.71624
G1 X119.642 Y75.374 E6.72662
G1 X119.999 Y75.872 E6.73681
G1 X120.495 Y76.646 E6.7521
G1 X120.651 Y76.918 E6.75731
G1 X121.047 Y77.694 E6.7718
G1 X121.335 Y78.352 E6.78375
G1 X121.394 Y78.511 E6.78657
G1 X121.618 Y79.167 E6.7981
G1 X121.678 Y79.362 E6.80149
G1 X121.859 Y80.034 E6.81306
G1 X121.92 Y80.316 E6.81786
G1 X122.073 Y81.205 E6.83286
G1 X122.158 Y81.98 E6.84583
G1 X122.166 Y82.104 E6.84789
G1 X122.188 Y82.661 E6.85716
G1 X122.184 Y83.183 E6.86584
G1 X122.178 Y83.321 E6.86814
G1 X122.14 Y83.946 E6.87855
G1 X122.067 Y84.556 E6.88877
G1 X121.969 Y85.139 E6.8986
G1 X121.797 Y85.874 E6.91116
G1 X121.103 Y88.489 E6.95615
G1 X120.477 Y91.141 E7.00146
G1 X119.926 Y93.827 E7.04706
G1 X119.454 Y96.497 E7.09215
G1 X119.053 Y99.214 E7.13783
G1 X118.727 Y101.956 E7.18375
G1 X118.484 Y104.656 E7.22883
G1 X118.313 Y107.411 E7.27473
G1 X118.223 Y110.122 E7.31984
G1 X118.208 Y112.879 E7.36569
G1 X118.271 Y115.594 E7.41086
G1 X118.413 Y118.346 E7.45668
G1 X118.632 Y121.089 E7.50244
G1 X118.925 Y123.795 E7.54771
G1 X119.294 Y126.484 E7.59285
G1 X119.748 Y129.221 E7.63898
G1 X120.119 Y131.156 E7.67175
G1 X120.189 Y131.73 E7.68137
G1 X120.2 Y132.16 E7.68852
G1 X120.2 Y139.607 E7.81236
G1 X120.19 Y140.308 E7.82402
G1 X120.125 Y140.903 E7.83398
G1 X120.083 Y141.1 E7.83733
G1 X119.942 Y141.682 E7.84728
G1 X119.086 Y145.026 E7.90469
G1 X119.063 Y145.148 E7.90675
G1 X118.911 Y145.751 E7.91709
G1 X118.6 Y146.902 E7.93692
G1 X118.429 Y147.378 E7.94533
G1 X118.186 Y147.821 E7.95374
G1 X117.876 Y148.22 E7.96214
G1 X117.432 Y148.628 E7.97217
G1 X117.017 Y148.916 E7.98057
G1 X116.561 Y149.135 E7.98898
G1 X116.076 Y149.279 E7.99739
G1 X115.468 Y149.349 E8.00757
G1 X114.456 Y149.368 E8.0244
G1 X105.252 Y149.368 E8.17747
G1 X104.564 Y149.358 E8.18891
G1 X104.061 Y149.31 E8.19731
G1 X103.572 Y149.184 E8.20571
G1 X103.108 Y148.983 E8.21412
G1 X102.599 Y148.65 E8.22423
G1 X102.217 Y148.318 E8.23265
G1 X101.892 Y147.931 E8.24106
G1 X101.633 Y147.497 E8.24946
G1 X101.415 Y146.927 E8.25961
G1 X101.125 Y145.873 E8.27779
G1 X100.077 Y141.751 E8.34852
G1 X99.9 Y141.021 E8.36101
G1 X99.812 Y140.383 E8.37172
G1 X99.806 Y140.195 E8.37485
G1 X99.8 Y139.692 E8.38321
G1 X99.8 Y132.487 E8.50303
G1 X99.811 Y131.781 E8.51478
G1 X99.865 Y131.246 E8.52372
G1 X100.094 Y130.014 E8.54456
G1 X100.142 Y129.774 E8.54863
G1 X100.609 Y127.055 E8.59451
G1 X100.998 Y124.331 E8.64027
G1 X101.305 Y121.635 E8.68539
G1 X101.538 Y118.92 E8.73071
G1 X101.694 Y116.174 E8.77645
G1 X101.773 Y113.42 E8.82227
G1 X101.775 Y110.702 E8.86747
G1 X101.698 Y107.951 E8.91323
G1 X101.545 Y105.233 E8.95851
G1 X101.314 Y102.494 E9.00422
G1 X101.004 Y99.757 E9.05002
G1 X100.621 Y97.061 E9.09531
G1 X100.164 Y94.383 E9.14049
G1 X99.629 Y91.709 E9.18584
G1 X98.999 Y88.969 E9.23259
G1 X98.511 Y87.063 E9.26531
G1 X98.228 Y86.003 E9.28356
G1 X98.016 Y85.02 E9.30028
G1 X97.967 Y84.729 E9.30519
G1 X97.858 Y83.83 E9.32025
G1 X97.814 Y83.061 E9.33306
G1 X97.813 Y82.931 E9.33522
G1 X97.821 Y82.35 E9.34488
G1 X97.861 Y81.757 E9.35477
G1 X97.942 Y81.098 E9.36581
G1 X98.054 Y80.458 E9.37661
G1 X98.163 Y79.926 E9.38565
G1 X98.333 Y79.305 E9.39635
G1 X98.51 Y78.763 E9.40583
G1 X98.793 Y78.063 E9.41839
G1 X99.052 Y77.492 E9.42882
G1 X99.318 Y76.973 E9.43852
G1 X99.568 Y76.526 E9.44703
G1 X99.86 Y76.066 E9.45609
G1 X100.196 Y75.587 E9.46582
G1 F1800 E2.46582
G1 F300 Z0.3
G0 F1500 X102.962 Y77.55 Z0.3
;TYPE:SUPPORT
G1 F300 Z0.1
G1 F1800 E9.46582
G1 F900 X102.992 Y77.508 E9.46668
G1 X103.493 Y76.912 E9.47963
G1 X103.548 Y76.851 E9.481
G1 X104.207 Y76.207 E9.49632
G1 X104.851 Y75.696 E9.50999
G1 X105.625 Y75.193 E9.52534
G1 X106.388 Y74.804 E9.53959
G1 X107.212 Y74.483 E9.55429
G1 X108.056 Y74.246 E9.56887
G1 X108.839 Y74.107 E9.5821
G1 X109.838 Y74.033 E9.59875
G1 X110.628 Y74.05 E9.6119
G1 X111.549 Y74.168 E9.62734
G1 X112.409 Y74.366 E9.64201
G1 X113.2 Y74.634 E9.6559
G1 X113.94 Y74.967 E9.6694
G1 X114.011 Y74.997 E9.67068
G1 X114.774 Y75.439 E9.68534
G1 X115.485 Y75.949 E9.69989
G1 X116.156 Y76.54 E9.71476
G1 X116.726 Y77.154 E9.7287
G1 X117.266 Y77.868 E9.74358
G1 X117.732 Y78.631 E9.75845
G1 X118.1 Y79.39 E9.77248
G1 X118.423 Y80.287 E9.78833
G1 X118.624 Y81.082 E9.80197
G1 X118.755 Y81.953 E9.81662
G1 X118.8 Y82.791 E9.83057
G1 X118.757 Y83.73 E9.84621
G1 X118.625 Y84.574 E9.86041
G1 X118.361 Y85.569 E9.87753
G1 X118.106 Y86.263 E9.88983
G1 X117.745 Y87.007 E9.90358
