;FLAVOR:Marlin
;TIME:4875
;Filament used: 0.836889m
;Layer height: 0.1
;MINX:31.507
;MINY:29.493
;MINZ:0.1
;MAXX:190.507
;MAXY:188.487
;MAXZ:2.6
;Generated with Cura_SteamEngine master
M82 ;absolute extrusion mode
;Sliced at: Sat 03-12-2022 17:52:49
;Basic settings: Layer height: 0.1 Walls: 0.8 Fill: 100.0
G21 ;metric values
G90 ;absolute positioning
M82 ;set extruder to absolute mode
M107 ;start with the fan off
M117 Start heating ...
M104 S200
M117 Homing X/Y ...
G28 X0 Y0 ;move X/Y to min endstops
M117 Homing Z ...
G28 Z0 ;move Z to min endstops
G1 Z15.0 F50 ;move the platform down 15mm
M117 Heating ...
M109 S200
M117 Start cleaning ...
G92 E0 ;zero the extruded length
G1 F200 E10 ;extrude 10mm of feed stock
G92 E0 ;zero the extruded length again
M117 Intro line ...
G1 Z2.0 F3000 ; Move Z Axis up little to prevent scratching of Heat Bed
G1 X0.1 Y20 Z0.1 F5000.0 ; Move to start position
G1 X0.1 Y200.0 Z0.1 F1500.0 E15 ; Draw the first line
G1 X0.4 Y200.0 Z0.1 F5000.0 ; Move to side a little
G1 X0.4 Y20 Z0.3 F1500.0 E30 ; Draw the second line
G92 E0 ; Reset Extruder
G1 E-1 F500 ; Retract filiment by 1 mm
G1 Z2.0 F3000 ; Move Z Axis up little to prevent scratching of Heat Bed
G1 X5 Y20 Z0.3 F50 ; Move over to prevent blob squish
G1 F50
G92 E0 ; Reset Extruder
M117 Printing...

G92 E0
G92 E0
G1 F1800 E-7
;LAYER_COUNT:24
;LAYER:0
M107
G1 F300 Z0.3
G0 F1500 X148.79 Y57.417 Z0.3
;TYPE:SKIRT
G1 F300 Z0.1
G1 F1800 E0
G1 F900 X149.271 Y56.922 E0.01148
G1 X149.874 Y56.335 E0.02547
G1 X150.855 Y55.409 E0.04791
G1 X152.787 Y53.479 E0.09332
G1 X154.626 Y51.537 E0.1378
G1 X156.445 Y49.503 E0.18318
G1 X158.203 Y47.421 E0.22849
G1 X159.877 Y45.321 E0.27316
G1 X161.541 Y43.109 E0.31919
G1 X163.092 Y40.919 E0.36382
G1 X164.596 Y38.664 E0.40889
G1 X166.419 Y35.722 E0.46645
G1 X166.792 Y35.152 E0.47778
G1 X167.155 Y34.647 E0.48812
G1 X167.543 Y34.158 E0.4985
G1 X167.956 Y33.687 E0.50892
G1 X168.404 Y33.224 E0.51963
G1 X168.852 Y32.803 E0.52986
G1 X169.39 Y32.346 E0.5416
G1 X169.889 Y31.966 E0.55203
G1 X170.432 Y31.594 E0.56297
G1 X170.991 Y31.251 E0.57388
G1 X171.515 Y30.961 E0.58384
G1 X172.136 Y30.659 E0.59532
G1 X172.755 Y30.397 E0.6065
G1 X173.311 Y30.192 E0.61636
G1 X173.96 Y29.989 E0.62766
G1 X174.564 Y29.833 E0.63804
G1 X175.213 Y29.698 E0.64906
G1 X175.78 Y29.609 E0.65861
G1 X176.519 Y29.531 E0.67096
G1 X177.143 Y29.498 E0.68136
G1 X177.342 Y29.493 E0.68467
G1 X177.975 Y29.5 E0.69519
G1 X178.642 Y29.542 E0.70631
G1 X179.301 Y29.615 E0.71733
G1 X179.923 Y29.716 E0.72781
G1 X180.58 Y29.858 E0.73899
G1 X181.196 Y30.024 E0.7496
G1 X181.798 Y30.218 E0.76012
G1 X182.415 Y30.451 E0.77109
G1 X183.001 Y30.706 E0.78172
G1 X183.582 Y30.996 E0.79252
G1 X184.167 Y31.324 E0.80367
G1 X184.687 Y31.65 E0.81388
G1 X185.226 Y32.027 E0.82481
G1 X185.749 Y32.433 E0.83582
G1 X186.241 Y32.857 E0.84663
G1 X186.728 Y33.322 E0.85782
G1 X187.143 Y33.759 E0.86785
G1 X187.531 Y34.208 E0.87771
G1 X187.865 Y34.631 E0.88668
G1 X188.236 Y35.144 E0.89721
G1 X188.537 Y35.603 E0.90633
G1 X188.646 Y35.783 E0.90983
G1 X188.92 Y36.261 E0.919
G1 X189.207 Y36.815 E0.92937
G1 X189.482 Y37.422 E0.94045
G1 X189.713 Y38.008 E0.95093
G1 X189.933 Y38.664 E0.96244
G1 X190.103 Y39.267 E0.97285
G1 X190.245 Y39.881 E0.98333
G1 X190.362 Y40.543 E0.99451
G1 X190.434 Y41.096 E1.00379
G1 X190.492 Y41.847 E1.01631
G1 X190.507 Y42.369 E1.025
G1 X190.494 Y43.109 E1.03731
G1 X190.445 Y43.772 E1.04836
G1 X190.361 Y44.432 E1.05943
G1 X190.247 Y45.071 E1.07022
G1 X190.105 Y45.692 E1.08082
G1 X189.931 Y46.312 E1.09152
G1 X189.733 Y46.905 E1.10192
G1 X189.497 Y47.509 E1.11271
G1 X189.223 Y48.115 E1.12377
G1 X188.939 Y48.674 E1.13419
G1 X188.612 Y49.242 E1.14509
G1 X188.241 Y49.815 E1.15644
G1 X187.874 Y50.323 E1.16687
G1 X187.463 Y50.841 E1.17786
G1 X187.056 Y51.304 E1.18811
G1 X186.577 Y51.793 E1.1995
G1 X186.125 Y52.213 E1.20976
G1 X185.592 Y52.659 E1.22132
G1 X185.125 Y53.014 E1.23107
G1 X184.545 Y53.409 E1.24274
G1 X181.873 Y55.059 E1.29497
G1 X179.642 Y56.525 E1.33936
G1 X177.382 Y58.105 E1.38522
G1 X175.241 Y59.693 E1.42955
G1 X173.085 Y61.388 E1.47516
G1 X170.993 Y63.132 E1.52045
G1 X168.951 Y64.933 E1.56573
G1 X166.99 Y66.763 E1.61034
G1 X165.03 Y68.702 E1.65619
G1 X163.991 Y69.775 E1.68103
G1 X163.346 Y70.452 E1.69658
G1 X163.252 Y70.548 E1.69881
G1 X162.385 Y71.398 E1.719
G1 X40.125 Y186.974 E4.51687
G1 X39.626 Y187.432 E4.52814
G1 X39.183 Y187.784 E4.53755
G1 X38.696 Y188.07 E4.54694
G1 X38.173 Y188.284 E4.55634
G1 X37.624 Y188.423 E4.56576
G1 X37.003 Y188.487 E4.57614
G1 X36.438 Y188.482 E4.58553
G1 X35.879 Y188.397 E4.59494
G1 X35.337 Y188.234 E4.60435
G1 X34.824 Y187.997 E4.61375
G1 X34.35 Y187.689 E4.62315
G1 X33.985 Y187.378 E4.63112
G1 X33.33 Y186.748 E4.64624
G1 X33.11 Y186.528 E4.65141
G1 X32.646 Y186.052 E4.66246
G1 X32.281 Y185.62 E4.67187
G1 X31.98 Y185.142 E4.68126
G1 X31.75 Y184.625 E4.69067
G1 X31.595 Y184.081 E4.70008
G1 X31.512 Y183.382 E4.71179
G1 X31.507 Y183.218 E4.71452
G1 X31.53 Y182.653 E4.72392
G1 X31.632 Y182.097 E4.73332
G1 X31.811 Y181.561 E4.74272
G1 X32.065 Y181.056 E4.75212
G1 X32.552 Y180.398 E4.76573
G1 X33.158 Y179.735 E4.78067
G1 X148.79 Y57.417 E7.57988
G0 F1500 X149.077 Y57.696
G1 F900 X149.632 Y57.127 E7.5931
G1 X150.149 Y56.626 E7.60507
G1 X151.13 Y55.7 E7.62751
G1 X153.059 Y53.773 E7.67285
G1 X154.915 Y51.813 E7.71774
G1 X156.766 Y49.743 E7.76392
G1 X158.506 Y47.683 E7.80876
G1 X160.208 Y45.548 E7.85417
G1 X161.84 Y43.377 E7.89934
G1 X163.424 Y41.142 E7.94489
G1 X164.94 Y38.869 E7.99033
G1 X166.81 Y35.852 E8.04936
G1 X167.126 Y35.371 E8.05893
G1 X167.477 Y34.883 E8.06893
G1 X167.855 Y34.408 E8.07902
G1 X168.254 Y33.953 E8.08909
G1 X168.689 Y33.505 E8.09947
G1 X169.124 Y33.096 E8.1094
G1 X169.647 Y32.653 E8.1208
G1 X170.128 Y32.287 E8.13085
G1 X170.656 Y31.926 E8.14149
G1 X171.198 Y31.593 E8.15207
G1 X171.706 Y31.313 E8.16171
G1 X172.307 Y31.021 E8.17282
G1 X172.908 Y30.767 E8.18367
G1 X173.438 Y30.572 E8.19307
G1 X174.076 Y30.372 E8.20419
G1 X174.661 Y30.221 E8.21423
G1 X175.292 Y30.09 E8.22495
G1 X175.838 Y30.005 E8.23414
G1 X176.556 Y29.93 E8.24615
G1 X177.162 Y29.897 E8.25624
G1 X177.342 Y29.893 E8.25923
G1 X177.953 Y29.899 E8.26939
G1 X178.601 Y29.939 E8.28019
G1 X179.24 Y30.01 E8.29088
G1 X179.842 Y30.108 E8.30103
G1 X180.479 Y30.245 E8.31186
G1 X181.076 Y30.405 E8.32214
G1 X181.66 Y30.593 E8.33234
G1 X182.258 Y30.819 E8.34297
G1 X182.826 Y31.066 E8.35327
G1 X183.389 Y31.346 E8.36373
G1 X183.957 Y31.665 E8.37456
G1 X184.46 Y31.98 E8.38443
G1 X184.983 Y32.345 E8.39504
G1 X185.49 Y32.738 E8.40571
G1 X185.967 Y33.149 E8.41618
G1 X186.44 Y33.599 E8.42704
G1 X186.843 Y34.023 E8.43676
G1 X187.224 Y34.464 E8.44646
G1 X187.551 Y34.878 E8.45523
G1 X187.91 Y35.376 E8.46544
G1 X188.201 Y35.82 E8.47427
G1 X188.299 Y35.982 E8.47742
G1 X188.573 Y36.46 E8.48658
G1 X188.85 Y36.996 E8.49661
G1 X189.116 Y37.584 E8.50734
G1 X189.339 Y38.152 E8.51749
G1 X189.553 Y38.789 E8.52867
G1 X189.717 Y39.372 E8.53874
G1 X189.854 Y39.968 E8.54891
G1 X189.968 Y40.61 E8.55975
G1 X190.037 Y41.144 E8.56871
G1 X190.093 Y41.873 E8.58087
G1 X190.107 Y42.377 E8.58925
G1 X190.094 Y43.097 E8.60123
G1 X190.046 Y43.739 E8.61193
G1 X189.965 Y44.378 E8.62264
G1 X189.854 Y44.998 E8.63312
G1 X189.716 Y45.6 E8.64339
G1 X189.547 Y46.201 E8.65377
G1 X189.355 Y46.775 E8.66384
G1 X189.125 Y47.36 E8.67429
G1 X188.86 Y47.948 E8.68502
G1 X188.584 Y48.491 E8.69515
G1 X188.268 Y49.039 E8.70567
G1 X187.907 Y49.595 E8.71669
G1 X187.551 Y50.086 E8.72678
G1 X187.151 Y50.59 E8.73748
G1 X186.758 Y51.037 E8.74738
G1 X186.293 Y51.511 E8.75842
G1 X185.854 Y51.918 E8.76837
G1 X185.337 Y52.351 E8.77959
G1 X184.886 Y52.693 E8.789
G1 X184.322 Y53.077 E8.80035
G1 X181.673 Y54.711 E8.85211
G1 X179.415 Y56.196 E8.89705
G1 X177.161 Y57.771 E8.94278
G1 X174.979 Y59.39 E8.98796
G1 X172.827 Y61.081 E9.03348
G1 X170.738 Y62.823 E9.07871
G1 X168.697 Y64.624 E9.12398
G1 X166.719 Y66.47 E9.16897
G1 X164.744 Y68.423 E9.21516
G1 X163.704 Y69.497 E9.24003
G1 X163.056 Y70.177 E9.25565
G1 X162.972 Y70.262 E9.25764
G1 X162.11 Y71.107 E9.27771
G1 X39.854 Y186.679 E12.07549
G1 X39.355 Y187.137 E12.08675
G1 X38.934 Y187.469 E12.09567
G1 X38.469 Y187.735 E12.10458
G1 X37.969 Y187.929 E12.1135
G1 X37.445 Y188.047 E12.12243
G1 X36.978 Y188.088 E12.13023
G1 X36.442 Y188.081 E12.13914
G1 X35.913 Y187.994 E12.14806
G1 X35.403 Y187.83 E12.15696
G1 X34.922 Y187.592 E12.16589
G1 X34.482 Y187.285 E12.17481
G1 X34.262 Y187.09 E12.1797
G1 X33.557 Y186.411 E12.19598
G1 X33.396 Y186.249 E12.19978
G1 X32.932 Y185.773 E12.21083
G1 X32.587 Y185.362 E12.21975
G1 X32.308 Y184.905 E12.22866
G1 X32.099 Y184.411 E12.23758
G1 X31.966 Y183.891 E12.2465
G1 X31.912 Y183.37 E12.25522
G1 X31.907 Y183.206 E12.25794
G1 X31.93 Y182.67 E12.26687
G1 X32.033 Y182.144 E12.27578
G1 X32.213 Y181.638 E12.28471
G1 X32.466 Y181.166 E12.29362
G1 X32.847 Y180.668 E12.30404
G1 X33.449 Y180.01 E12.31888
G1 X149.077 Y57.696 E15.118
G0 F1500 X149.364 Y57.975
G1 F900 X149.911 Y57.414 E15.13103
G1 X150.423 Y56.917 E15.14289
G1 X151.404 Y55.991 E15.16533
G1 X153.349 Y54.048 E15.21105
G1 X155.238 Y52.053 E15.25674
G1 X157.036 Y50.043 E15.30158
G1 X158.847 Y47.898 E15.34827
G1 X160.511 Y45.809 E15.39268
G1 X162.171 Y43.603 E15.4386
G1 X163.751 Y41.373 E15.48405
G1 X165.267 Y39.1 E15.52948
G1 X167.099 Y36.143 E15.58733
G1 X167.461 Y35.591 E15.59831
G1 X167.8 Y35.12 E15.60796
G1 X168.166 Y34.659 E15.61775
G1 X168.553 Y34.219 E15.62749
G1 X168.974 Y33.785 E15.63755
G1 X169.396 Y33.39 E15.64716
G1 X169.903 Y32.96 E15.65822
G1 X170.368 Y32.607 E15.66793
G1 X170.879 Y32.258 E15.67822
G1 X171.405 Y31.935 E15.68848
G1 X171.897 Y31.664 E15.69782
G1 X172.479 Y31.382 E15.70858
G1 X173.061 Y31.136 E15.71908
G1 X173.564 Y30.951 E15.728
G1 X174.192 Y30.754 E15.73894
G1 X174.757 Y30.61 E15.74864
G1 X175.371 Y30.482 E15.75907
G1 X175.897 Y30.4 E15.76792
G1 X176.593 Y30.328 E15.77956
G1 X177.181 Y30.297 E15.78935
G1 X177.341 Y30.293 E15.79201
G1 X177.931 Y30.299 E15.80183
G1 X178.559 Y30.337 E15.81229
G1 X179.179 Y30.406 E15.82266
G1 X179.761 Y30.5 E15.83247
G1 X180.377 Y30.632 E15.84294
G1 X180.957 Y30.787 E15.85293
G1 X181.521 Y30.968 E15.86278
G1 X182.101 Y31.187 E15.87309
G1 X182.65 Y31.426 E15.88305
G1 X183.195 Y31.696 E15.89316
G1 X183.747 Y32.005 E15.90368
G1 X184.233 Y32.309 E15.91321
G1 X184.74 Y32.663 E15.9235
G1 X185.232 Y33.043 E15.93383
G1 X185.694 Y33.44 E15.94396
G1 X186.151 Y33.876 E15.95447
G1 X186.542 Y34.287 E15.9639
G1 X186.916 Y34.72 E15.97342
G1 X187.236 Y35.125 E15.982
G1 X187.584 Y35.608 E15.9919
G1 X187.865 Y36.037 E16.00043
G1 X187.952 Y36.181 E16.00323
G1 X188.226 Y36.659 E16.01239
G1 X188.493 Y37.177 E16.02208
G1 X188.75 Y37.746 E16.03246
G1 X188.966 Y38.296 E16.04229
G1 X189.173 Y38.914 E16.05313
G1 X189.331 Y39.477 E16.06285
G1 X189.464 Y40.055 E16.07272
G1 X189.573 Y40.676 E16.0832
G1 X189.64 Y41.193 E16.09187
G1 X189.694 Y41.9 E16.10366
G1 X189.708 Y42.451 E16.11283
G1 X189.694 Y43.084 E16.12336
G1 X189.647 Y43.707 E16.13375
G1 X189.568 Y44.325 E16.14411
G1 X189.461 Y44.925 E16.15425
G1 X189.327 Y45.508 E16.16419
G1 X189.163 Y46.091 E16.17427
G1 X188.977 Y46.645 E16.18398
G1 X188.754 Y47.211 E16.1941
G1 X188.496 Y47.781 E16.20451
G1 X188.228 Y48.307 E16.21432
G1 X187.923 Y48.837 E16.22449
G1 X187.573 Y49.375 E16.23517
G1 X187.229 Y49.85 E16.24492
G1 X186.839 Y50.34 E16.25533
G1 X186.46 Y50.771 E16.26488
G1 X186.01 Y51.228 E16.27554
G1 X185.584 Y51.623 E16.28521
G1 X185.083 Y52.042 E16.29607
G1 X184.646 Y52.373 E16.30518
G1 X184.099 Y52.745 E16.31619
G1 X181.465 Y54.37 E16.36765
G1 X179.172 Y55.878 E16.41329
G1 X176.939 Y57.438 E16.45859
G1 X174.721 Y59.084 E16.50453
G1 X172.586 Y60.762 E16.54969
G1 X170.463 Y62.532 E16.59565
G1 X168.422 Y64.332 E16.64091
G1 X166.43 Y66.192 E16.68623
G1 X164.482 Y68.119 E16.7318
G1 X163.435 Y69.2 E16.75683
G1 X162.767 Y69.901 E16.77293
G1 X162.692 Y69.977 E16.7747
G1 X161.879 Y70.775 E16.79365
G1 X39.584 Y186.385 E19.59233
G1 X39.085 Y186.843 E19.6036
G1 X38.687 Y187.154 E19.612
G1 X38.244 Y187.399 E19.62042
G1 X37.769 Y187.571 E19.62882
G1 X37.117 Y187.679 E19.63981
G1 X36.954 Y187.689 E19.64252
G1 X36.448 Y187.68 E19.65094
G1 X35.951 Y187.591 E19.65934
G1 X35.473 Y187.426 E19.66775
G1 X35.028 Y187.187 E19.67615
G1 X34.54 Y186.801 E19.68649
G1 X33.84 Y186.128 E19.70264
G1 X33.683 Y185.97 E19.70635
G1 X33.219 Y185.494 E19.7174
G1 X32.895 Y185.105 E19.72582
G1 X32.637 Y184.67 E19.73423
G1 X32.451 Y184.2 E19.74264
G1 X32.341 Y183.707 E19.75104
G1 X32.306 Y183.194 E19.75959
G1 X32.331 Y182.689 E19.768
G1 X32.435 Y182.194 E19.77641
G1 X32.615 Y181.721 E19.78482
G1 X32.868 Y181.283 E19.79324
G1 X33.142 Y180.938 E19.80056
G1 X33.74 Y180.285 E19.81529
G1 X149.364 Y57.975 E22.61431
G1 F1800 E15.61431
G1 F300 Z0.3
G0 F1500 X152.222 Y59.9 Z0.3
;TYPE:SUPPORT
G1 F300 Z0.1
G1 F1800 E22.61431
G1 F900 X154.962 Y62.642 E22.67878
G1 X155.526 Y62.642 E22.68816
G1 X169.59 Y48.573 E23.01898
G1 X169.687 Y48.702 E23.02166
G1 X170.27 Y49.375 E23.03647
G1 X170.312 Y49.417 E23.03746
G1 X170.957 Y50.03 E23.05226
G1 X170.999 Y50.066 E23.05318
G1 X171.431 Y50.405 E23.06231
G1 X157.358 Y64.475 E23.39325
G1 X157.358 Y65.039 E23.40263
G1 X160.1 Y67.778 E23.46708
G1 X36.832 Y184.308 E26.28803
G1 X35.692 Y183.172 E26.3148
G1 X152.222 Y59.9 E29.1358
G1 F1800 E22.1358
G1 F300 Z0.3
G0 F1500 X149.301 Y66.991 Z0.3
G1 F300 Z0.1
G1 F1800 E29.1358
G1 F900 X148.754 Y67.028 E29.14492
G1 X148.18 Y67.149 E29.15467
G1 X147.67 Y67.346 E29.16377
G1 X147.179 Y67.623 E29.17314
G1 X146.73 Y67.969 E29.18257
G1 X146.354 Y68.365 E29.19165
G1 X146.039 Y68.813 E29.20076
G1 X145.782 Y69.339 E29.21049
G1 X145.609 Y69.873 E29.21983
G1 X145.522 Y70.401 E29.22873
G1 X145.515 Y71.014 E29.23892
G1 X145.584 Y71.502 E29.24712
G1 X145.753 Y72.073 E29.25702
G1 X145.985 Y72.571 E29.26616
G1 X146.299 Y73.047 E29.27564
G1 X146.67 Y73.459 E29.28486
G1 X147.113 Y73.821 E29.29437
G1 X147.596 Y74.104 E29.30368
G1 X148.119 Y74.313 E29.31305
G1 X148.651 Y74.442 E29.32215
G1 X149.2 Y74.493 E29.33132
G1 X149.785 Y74.456 E29.34107
G1 X150.313 Y74.345 E29.35004
G1 X150.832 Y74.14 E29.35932
G1 X151.319 Y73.874 E29.36855
G1 X151.773 Y73.523 E29.37809
G1 X152.182 Y73.096 E29.38793
G1 X152.489 Y72.642 E29.39704
G1 X152.727 Y72.167 E29.40588
G1 X152.902 Y71.632 E29.41524
G1 X152.988 Y71.089 E29.42438
G1 X152.999 Y70.491 E29.43433
G1 X152.923 Y69.947 E29.44346
G1 X152.759 Y69.4 E29.45296
G1 X152.536 Y68.924 E29.4617
G1 X152.215 Y68.434 E29.47144
G1 X151.843 Y68.023 E29.48066
G1 X151.402 Y67.669 E29.49006
G1 X150.924 Y67.382 E29.49934
G1 X150.42 Y67.177 E29.50838
G1 X149.858 Y67.041 E29.518
G1 X149.301 Y66.991 E29.5273
G0 F1500 X149.352 Y66.794
G1 F900 X149.352 Y63.226 E29.58664
G0 F1500 X148.613 Y64.008
G1 F900 X157.541 Y64.008 E29.73511
G0 F1500 X157.353 Y64.198
G1 F900 X157.353 Y61.097 E29.78668
G0 F1500 X157.109 Y61.341
G1 F900 X160.208 Y61.341 E29.83822
G0 F1500 X160.02 Y61.531
G1 F900 X160.02 Y58.429 E29.8898
G0 F1500 X159.775 Y58.674
G1 F900 X162.876 Y58.674 E29.94137
G0 F1500 X162.687 Y58.865
G1 F900 X162.687 Y55.76 E29.99301
G0 F1500 X162.441 Y56.007
G1 F900 X165.544 Y56.007 E30.04461
G0 F1500 X165.354 Y56.199
G1 F900 X165.354 Y53.092 E30.09628
G0 F1500 X165.106 Y53.34
G1 F900 X168.212 Y53.34 E30.14793
G0 F1500 X168.021 Y53.533
G1 F900 X168.021 Y50.424 E30.19964
G0 F1500 X167.772 Y50.673
G1 F900 X170.879 Y50.673 E30.25131
G0 F1500 X170.688 Y50.866
G1 F900 X170.688 Y50.051 E30.26486
G1 F1800 E23.26486
G1 F300 Z0.3
G0 F1500 X157.353 Y65.317 Z0.3
G1 F300 Z0.1
G1 F1800 E30.26486
G1 F900 X157.353 Y70.101 E30.34442
G0 F1500 X158.154 Y69.342
G1 F900 X152.95 Y69.342 E30.43096
G1 F1800 E23.43096
G1 F300 Z0.3
G0 F1500 X152.019 Y67.918 Z0.3
G1 F300 Z0.1
G1 F1800 E30.43096
G1 F900 X152.019 Y60.404 E30.55592
G0 F1500 X151.134 Y61.341
G1 F900 X153.381 Y61.341 E30.59329
G1 F1800 E23.59329
G1 F300 Z0.3
G0 F1500 X154.686 Y62.649 Z0.3
G1 F300 Z0.1
G1 F1800 E30.59329
G1 F900 X154.686 Y72.622 E30.75914
G0 F1500 X155.333 Y72.009
G1 F900 X152.989 Y72.009 E30.79812
G1 F1800 E23.79812
G1 F300 Z0.3
G0 F1500 X152.019 Y73.555 Z0.3
G1 F300 Z0.1
G1 F1800 E30.79812
G1 F900 X152.019 Y75.143 E30.82453
