;FLAVOR:Marlin
;TIME:3321
;Filament used: 0.697411m
;Layer height: 0.1
;MINX:31.436
;MINY:29.493
;MINZ:0.1
;MAXX:190.508
;MAXY:188.571
;MAXZ:2.6
;Generated with Cura_SteamEngine master
M82 ;absolute extrusion mode
;Sliced at: Fri 11-11-2022 23:29:42
;Basic settings: Layer height: 0.1 Walls: 0.8 Fill: 100.0
G21 ;metric values
G90 ;absolute positioning
M82 ;set extruder to absolute mode
M107 ;start with the fan off
M117 Start heating ...
M104 S200
M117 Homing X/Y ...
G28 X0 Y0 ;move X/Y to min endstops
M117 Homing Z ...
G28 Z0 ;move Z to min endstops
G1 Z15.0 F50 ;move the platform down 15mm
M117 Heating ...
M109 S200
M117 Start cleaning ...
G92 E0 ;zero the extruded length
G1 F200 E10 ;extrude 10mm of feed stock
G92 E0 ;zero the extruded length again
M117 Intro line ...
G1 Z2.0 F3000 ; Move Z Axis up little to prevent scratching of Heat Bed
G1 X0.1 Y20 Z0.1 F5000.0 ; Move to start position
G1 X0.1 Y200.0 Z0.1 F1500.0 E15 ; Draw the first line
G1 X0.4 Y200.0 Z0.1 F5000.0 ; Move to side a little
G1 X0.4 Y20 Z0.3 F1500.0 E30 ; Draw the second line
G92 E0 ; Reset Extruder
G1 E-1 F500 ; Retract filiment by 1 mm
G1 Z2.0 F3000 ; Move Z Axis up little to prevent scratching of Heat Bed
G1 X5 Y20 Z0.3 F50 ; Move over to prevent blob squish
G1 F50
G92 E0 ; Reset Extruder
M117 Printing...

G92 E0
G92 E0
G1 F1800 E-7
;LAYER_COUNT:24
;LAYER:0
M107
G1 F300 Z0.3
G0 F1500 X148.873 Y57.33 Z0.3
;TYPE:SKIRT
G1 F300 Z0.1
G1 F1800 E0
G1 F900 X149.354 Y56.835 E0.01148
G1 X150.063 Y56.145 E0.02793
G1 X150.85 Y55.402 E0.04593
G1 X152.764 Y53.492 E0.0909
G1 X154.637 Y51.513 E0.13621
G1 X156.439 Y49.498 E0.18117
G1 X158.201 Y47.411 E0.22659
G1 X159.869 Y45.319 E0.27108
G1 X161.534 Y43.107 E0.31713
G1 X163.087 Y40.914 E0.36181
G1 X164.592 Y38.657 E0.40693
G1 X165.907 Y36.567 E0.44799
G1 X166.481 Y35.628 E0.46629
G1 X166.758 Y35.201 E0.47476
G1 X167.129 Y34.682 E0.48537
G1 X167.502 Y34.207 E0.49541
G1 X167.94 Y33.704 E0.5065
G1 X168.397 Y33.231 E0.51744
G1 X168.86 Y32.796 E0.52801
G1 X169.391 Y32.347 E0.53957
G1 X169.887 Y31.968 E0.54995
G1 X170.434 Y31.593 E0.56098
G1 X170.98 Y31.257 E0.57164
G1 X171.514 Y30.962 E0.58179
G1 X172.058 Y30.694 E0.59187
G1 X172.697 Y30.419 E0.60344
G1 X173.321 Y30.188 E0.61451
G1 X173.928 Y29.997 E0.62509
G1 X174.546 Y29.836 E0.63571
G1 X175.195 Y29.701 E0.64673
G1 X175.843 Y29.6 E0.65764
G1 X176.438 Y29.536 E0.66759
G1 X177.139 Y29.497 E0.67927
G1 X177.337 Y29.493 E0.68256
G1 X177.947 Y29.499 E0.6927
G1 X178.631 Y29.54 E0.7041
G1 X179.231 Y29.605 E0.71414
G1 X179.907 Y29.714 E0.72552
G1 X180.529 Y29.845 E0.73609
G1 X181.144 Y30.008 E0.74668
G1 X181.771 Y30.208 E0.75762
G1 X182.374 Y30.433 E0.76832
G1 X182.989 Y30.7 E0.77947
G1 X183.537 Y30.971 E0.78964
G1 X184.097 Y31.283 E0.8003
G1 X184.66 Y31.633 E0.81132
G1 X185.201 Y32.008 E0.82227
G1 X185.713 Y32.402 E0.83302
G1 X186.187 Y32.807 E0.84338
G1 X186.689 Y33.281 E0.85487
G1 X187.119 Y33.731 E0.86522
G1 X187.557 Y34.238 E0.87636
G1 X187.951 Y34.744 E0.88702
G1 X188.309 Y35.251 E0.89734
G1 X188.67 Y35.822 E0.90858
G1 X188.988 Y36.383 E0.9193
G1 X189.283 Y36.974 E0.93029
G1 X189.53 Y37.537 E0.94051
G1 X189.763 Y38.144 E0.95132
G1 X189.967 Y38.774 E0.96234
G1 X190.136 Y39.396 E0.97306
G1 X190.277 Y40.037 E0.98397
G1 X190.381 Y40.665 E0.99456
G1 X190.457 Y41.334 E1.00575
G1 X190.496 Y41.922 E1.01555
G1 X190.508 Y42.608 E1.02696
G1 X190.485 Y43.254 E1.03771
G1 X190.431 Y43.903 E1.04854
G1 X190.345 Y44.536 E1.05917
G1 X190.226 Y45.18 E1.07006
G1 X190.111 Y45.675 E1.07851
G1 X189.954 Y46.235 E1.08818
G1 X189.746 Y46.866 E1.09923
G1 X189.525 Y47.443 E1.10951
G1 X189.254 Y48.054 E1.12062
G1 X188.966 Y48.626 E1.13127
G1 X188.641 Y49.194 E1.14215
G1 X188.287 Y49.749 E1.1531
G1 X187.914 Y50.271 E1.16377
G1 X187.534 Y50.757 E1.17403
G1 X187.094 Y51.262 E1.18517
G1 X186.637 Y51.735 E1.19611
G1 X186.159 Y52.184 E1.20701
G1 X185.681 Y52.589 E1.21743
G1 X185.147 Y52.997 E1.22861
G1 X184.641 Y53.346 E1.23883
G1 X184.473 Y53.455 E1.24216
G1 X183.527 Y54.032 E1.26059
G1 X181.234 Y55.473 E1.30563
G1 X178.977 Y56.984 E1.35079
G1 X176.745 Y58.57 E1.39633
G1 X174.6 Y60.19 E1.44103
G1 X172.479 Y61.885 E1.48618
G1 X170.4 Y63.647 E1.5315
G1 X168.369 Y65.468 E1.57687
G1 X166.422 Y67.317 E1.62152
G1 X163.597 Y70.194 E1.68857
G1 X163.199 Y70.612 E1.69817
G1 X162.853 Y70.955 E1.70628
G1 X40.034 Y187.059 E4.51694
G1 X39.538 Y187.516 E4.52815
G1 X39.097 Y187.868 E4.53754
G1 X38.61 Y188.155 E4.54694
G1 X38.087 Y188.371 E4.55635
G1 X37.539 Y188.51 E4.56575
G1 X36.977 Y188.571 E4.57515
G1 X36.412 Y188.552 E4.58455
G1 X35.855 Y188.454 E4.59396
G1 X35.318 Y188.278 E4.60335
G1 X34.811 Y188.028 E4.61275
G1 X34.344 Y187.709 E4.62216
G1 X33.832 Y187.245 E4.63365
G1 X33.027 Y186.441 E4.65257
G1 X32.563 Y185.965 E4.66363
G1 X32.198 Y185.533 E4.67303
G1 X31.897 Y185.055 E4.68242
G1 X31.667 Y184.538 E4.69183
G1 X31.512 Y183.994 E4.70124
G1 X31.436 Y183.434 E4.71064
G1 X31.439 Y182.869 E4.72004
G1 X31.521 Y182.31 E4.72943
G1 X31.682 Y181.768 E4.73883
G1 X31.917 Y181.254 E4.74823
G1 X32.223 Y180.778 E4.75764
G1 X32.678 Y180.246 E4.76929
G1 X32.754 Y180.163 E4.77116
G1 X148.873 Y57.33 E7.58216
G0 F1500 X149.16 Y57.609
G1 F900 X149.715 Y57.04 E7.59538
G1 X150.338 Y56.436 E7.60981
G1 X151.125 Y55.693 E7.62781
G1 X153.037 Y53.785 E7.67273
G1 X154.926 Y51.789 E7.71843
G1 X156.76 Y49.739 E7.76417
G1 X158.486 Y47.694 E7.80867
G1 X160.216 Y45.525 E7.85481
G1 X161.835 Y43.372 E7.89961
G1 X163.419 Y41.137 E7.94517
G1 X164.942 Y38.854 E7.99081
G1 X166.271 Y36.74 E8.03233
G1 X166.879 Y35.748 E8.05168
G1 X167.197 Y35.27 E8.06123
G1 X167.545 Y34.796 E8.07101
G1 X167.939 Y34.309 E8.08143
G1 X168.369 Y33.83 E8.09213
G1 X168.799 Y33.398 E8.10227
G1 X169.28 Y32.959 E8.1131
G1 X169.785 Y32.545 E8.12396
G1 X170.277 Y32.182 E8.13412
G1 X170.807 Y31.829 E8.14471
G1 X171.333 Y31.515 E8.1549
G1 X171.854 Y31.237 E8.16472
G1 X172.405 Y30.976 E8.17486
G1 X173.025 Y30.72 E8.18602
G1 X173.629 Y30.507 E8.19667
G1 X174.213 Y30.333 E8.2068
G1 X174.822 Y30.184 E8.21723
G1 X175.45 Y30.063 E8.22786
G1 X176.07 Y29.975 E8.23828
G1 X176.669 Y29.92 E8.24828
G1 X177.336 Y29.893 E8.25938
G1 X177.926 Y29.899 E8.26919
G1 X178.591 Y29.938 E8.28027
G1 X179.17 Y30.001 E8.28996
G1 X179.827 Y30.105 E8.30102
G1 X180.43 Y30.233 E8.31127
G1 X181.025 Y30.39 E8.3215
G1 X181.635 Y30.584 E8.33215
G1 X182.218 Y30.802 E8.3425
G1 X182.814 Y31.059 E8.35329
G1 X183.346 Y31.323 E8.36317
G1 X183.888 Y31.624 E8.37348
G1 X184.435 Y31.963 E8.38418
G1 X184.96 Y32.327 E8.39481
G1 X185.456 Y32.708 E8.40521
G1 X185.914 Y33.1 E8.41523
G1 X186.402 Y33.559 E8.42637
G1 X186.819 Y33.996 E8.43642
G1 X187.243 Y34.485 E8.44718
G1 X187.626 Y34.977 E8.45755
G1 X187.972 Y35.467 E8.46753
G1 X188.323 Y36.022 E8.47845
G1 X188.631 Y36.565 E8.48883
G1 X188.918 Y37.137 E8.49947
G1 X189.158 Y37.683 E8.50939
G1 X189.383 Y38.271 E8.51986
G1 X189.582 Y38.881 E8.53053
G1 X189.746 Y39.486 E8.54096
G1 X189.883 Y40.106 E8.55152
G1 X189.984 Y40.713 E8.56175
G1 X190.058 Y41.363 E8.57263
G1 X190.096 Y41.932 E8.58211
G1 X190.108 Y42.597 E8.59317
G1 X190.087 Y43.224 E8.6036
G1 X190.034 Y43.852 E8.61409
G1 X189.951 Y44.467 E8.62441
G1 X189.837 Y45.09 E8.63494
G1 X189.706 Y45.641 E8.64436
G1 X189.569 Y46.126 E8.65274
G1 X189.367 Y46.738 E8.66346
G1 X189.153 Y47.296 E8.67339
G1 X188.889 Y47.889 E8.68419
G1 X188.61 Y48.443 E8.6945
G1 X188.296 Y48.992 E8.70502
G1 X187.951 Y49.531 E8.71567
G1 X187.59 Y50.036 E8.72599
G1 X187.221 Y50.508 E8.73595
G1 X186.794 Y50.997 E8.74675
G1 X186.352 Y51.454 E8.75732
G1 X185.887 Y51.891 E8.76793
G1 X185.425 Y52.282 E8.778
G1 X184.906 Y52.677 E8.78884
G1 X184.416 Y53.016 E8.79875
G1 X184.265 Y53.113 E8.80174
G1 X183.36 Y53.665 E8.81937
G1 X181.004 Y55.146 E8.86565
G1 X178.744 Y56.658 E8.91086
G1 X176.518 Y58.241 E8.95629
G1 X174.355 Y59.874 E9.00136
G1 X172.216 Y61.584 E9.0469
G1 X170.137 Y63.345 E9.09221
G1 X168.11 Y65.163 E9.13749
G1 X166.129 Y67.044 E9.18292
G1 X163.303 Y69.921 E9.24999
G1 X162.917 Y70.328 E9.25932
G1 X162.578 Y70.664 E9.26725
G1 X39.763 Y186.765 E12.07783
G1 X39.267 Y187.222 E12.08905
G1 X38.847 Y187.555 E12.09796
G1 X38.382 Y187.821 E12.10687
G1 X37.882 Y188.016 E12.1158
G1 X37.359 Y188.135 E12.12472
G1 X36.824 Y188.174 E12.13364
G1 X36.29 Y188.134 E12.14254
G1 X35.767 Y188.014 E12.15147
G1 X35.267 Y187.818 E12.1604
G1 X34.803 Y187.55 E12.16931
G1 X34.348 Y187.184 E12.17902
G1 X34.041 Y186.891 E12.18608
G1 X33.313 Y186.162 E12.20321
G1 X32.849 Y185.686 E12.21426
G1 X32.504 Y185.275 E12.22319
G1 X32.225 Y184.818 E12.23209
G1 X32.016 Y184.324 E12.24101
G1 X31.883 Y183.804 E12.24994
G1 X31.828 Y183.271 E12.25885
G1 X31.854 Y182.735 E12.26777
G1 X31.958 Y182.209 E12.27669
G1 X32.14 Y181.704 E12.28562
G1 X32.395 Y181.232 E12.29454
G1 X32.742 Y180.775 E12.30408
G1 X33.045 Y180.438 E12.31162
G1 X149.16 Y57.609 E15.12252
G0 F1500 X149.447 Y57.888
G1 F900 X149.994 Y57.327 E15.13555
G1 X150.612 Y56.727 E15.14988
G1 X151.417 Y55.967 E15.16829
G1 X153.327 Y54.061 E15.21316
G1 X155.232 Y52.048 E15.25925
G1 X157.03 Y50.038 E15.3041
G1 X158.82 Y47.918 E15.35024
G1 X160.52 Y45.786 E15.39559
G1 X162.166 Y43.598 E15.44112
G1 X163.746 Y41.368 E15.48657
G1 X165.263 Y39.093 E15.53205
G1 X166.609 Y36.953 E15.57409
G1 X167.214 Y35.966 E15.59334
G1 X167.52 Y35.505 E15.60254
G1 X167.858 Y35.045 E15.61204
G1 X168.238 Y34.574 E15.6221
G1 X168.654 Y34.11 E15.63246
G1 X169.071 Y33.691 E15.64229
G1 X169.536 Y33.267 E15.65276
G1 X170.026 Y32.865 E15.6633
G1 X170.501 Y32.513 E15.67313
G1 X171.014 Y32.171 E15.68338
G1 X171.524 Y31.867 E15.69326
G1 X172.029 Y31.597 E15.70278
G1 X172.56 Y31.344 E15.71256
G1 X173.161 Y31.096 E15.72338
G1 X173.746 Y30.889 E15.7337
G1 X174.311 Y30.721 E15.7435
G1 X174.901 Y30.576 E15.7536
G1 X175.509 Y30.459 E15.7639
G1 X176.11 Y30.373 E15.77399
G1 X176.688 Y30.32 E15.78365
G1 X177.335 Y30.293 E15.79442
G1 X177.906 Y30.298 E15.80391
G1 X178.552 Y30.336 E15.81467
G1 X179.11 Y30.396 E15.82401
G1 X179.747 Y30.497 E15.83473
G1 X180.33 Y30.62 E15.84464
G1 X180.906 Y30.772 E15.85455
G1 X181.498 Y30.96 E15.86488
G1 X182.062 Y31.17 E15.87489
G1 X182.639 Y31.419 E15.88534
G1 X183.154 Y31.674 E15.89489
G1 X183.68 Y31.965 E15.90489
G1 X184.209 Y32.294 E15.91525
G1 X184.718 Y32.646 E15.92554
G1 X185.198 Y33.014 E15.9356
G1 X185.642 Y33.393 E15.94531
G1 X186.114 Y33.837 E15.95609
G1 X186.519 Y34.261 E15.96584
G1 X186.929 Y34.733 E15.97623
G1 X187.301 Y35.21 E15.98629
G1 X187.635 Y35.683 E15.99592
G1 X187.977 Y36.222 E16.00654
G1 X188.275 Y36.748 E16.01659
G1 X188.553 Y37.3 E16.02687
G1 X188.785 Y37.829 E16.03648
G1 X189.004 Y38.398 E16.04662
G1 X189.197 Y38.988 E16.05694
G1 X189.356 Y39.575 E16.06705
G1 X189.489 Y40.174 E16.07726
G1 X189.587 Y40.762 E16.08717
G1 X189.659 Y41.392 E16.09772
G1 X189.696 Y41.942 E16.10688
G1 X189.708 Y42.586 E16.11759
G1 X189.688 Y43.193 E16.12769
G1 X189.637 Y43.802 E16.13786
G1 X189.557 Y44.397 E16.14784
G1 X189.447 Y45 E16.15803
G1 X189.319 Y45.541 E16.16728
G1 X189.139 Y46.162 E16.17803
G1 X188.934 Y46.758 E16.18851
G1 X188.717 Y47.3 E16.19822
G1 X188.456 Y47.867 E16.2086
G1 X188.174 Y48.406 E16.21872
G1 X187.868 Y48.925 E16.22874
G1 X187.522 Y49.449 E16.23918
G1 X187.183 Y49.911 E16.24871
G1 X186.796 Y50.392 E16.25898
G1 X186.38 Y50.856 E16.26934
G1 X185.963 Y51.274 E16.27916
G1 X185.485 Y51.712 E16.28994
G1 X185.044 Y52.073 E16.29942
G1 X184.545 Y52.444 E16.30976
G1 X184.056 Y52.772 E16.31955
G1 X183.11 Y53.349 E16.33798
G1 X180.791 Y54.807 E16.38353
G1 X178.52 Y56.327 E16.42898
G1 X176.29 Y57.912 E16.47448
G1 X174.087 Y59.576 E16.52039
G1 X171.974 Y61.264 E16.56536
G1 X169.875 Y63.043 E16.61112
G1 X167.833 Y64.875 E16.65674
G1 X165.851 Y66.756 E16.70219
G1 X163.01 Y69.649 E16.76962
G1 X162.635 Y70.045 E16.77869
G1 X162.303 Y70.373 E16.78645
G1 X39.492 Y186.47 E19.59693
G1 X38.996 Y186.927 E19.60815
G1 X38.599 Y187.24 E19.61655
G1 X38.157 Y187.485 E19.62496
G1 X37.682 Y187.658 E19.63337
G1 X37.185 Y187.754 E19.64178
G1 X36.68 Y187.771 E19.65019
G1 X36.178 Y187.707 E19.6586
G1 X35.693 Y187.566 E19.667
G1 X35.236 Y187.35 E19.67541
G1 X34.819 Y187.064 E19.68382
G1 X34.383 Y186.665 E19.69365
G1 X33.628 Y185.912 E19.71138
G1 X33.136 Y185.407 E19.7231
G1 X32.812 Y185.018 E19.73152
G1 X32.554 Y184.583 E19.73993
G1 X32.368 Y184.113 E19.74834
G1 X32.258 Y183.62 E19.75674
G1 X32.228 Y183.115 E19.76515
G1 X32.277 Y182.612 E19.77356
G1 X32.404 Y182.123 E19.78196
G1 X32.607 Y181.66 E19.79037
G1 X33.04 Y181.041 E19.80293
G1 X33.336 Y180.713 E19.81028
G1 X149.447 Y57.888 E22.62109
G1 F1800 E15.62109
G1 F300 Z0.3
G0 F1500 X171.852 Y45.665 Z0.3
;TYPE:SUPPORT
G1 F300 Z0.1
G1 F1800 E22.62109
G1 F900 X171.559 Y45.076 E22.63203
G1 X171.332 Y44.477 E22.64268
G1 X171.163 Y43.847 E22.65353
G1 X171.06 Y43.217 E22.66415
G1 X171.018 Y42.558 E22.67513
G1 X171.042 Y41.93 E22.68558
G1 X171.133 Y41.267 E22.69671
G1 X171.278 Y40.661 E22.70707
G1 X171.497 Y40.034 E22.71811
G1 X171.771 Y39.449 E22.72886
G1 X172.105 Y38.888 E22.73972
G1 X172.485 Y38.372 E22.75037
G1 X172.931 Y37.877 E22.76145
G1 X173.391 Y37.462 E22.77176
G1 X173.927 Y37.068 E22.78282
G1 X174.491 Y36.731 E22.79374
G1 X175.053 Y36.47 E22.80405
G1 X175.676 Y36.25 E22.81504
G1 X176.305 Y36.098 E22.8258
G1 X176.951 Y36.01 E22.83664
G1 X177.596 Y35.985 E22.84737
G1 X178.25 Y36.026 E22.85827
G1 X178.881 Y36.129 E22.8689
G1 X179.511 Y36.298 E22.87975
G1 X180.119 Y36.528 E22.89056
G1 X180.689 Y36.812 E22.90115
G1 X181.237 Y37.154 E22.9119
G1 X181.756 Y37.557 E22.92282
G1 X182.223 Y38.002 E22.93355
G1 X182.656 Y38.504 E22.94458
G1 X183.019 Y39.025 E22.95514
G1 X183.332 Y39.581 E22.96575
G1 X183.593 Y40.174 E22.97652
G1 X183.79 Y40.787 E22.98723
G1 X183.929 Y41.437 E22.99828
G1 X184.003 Y42.084 E23.00911
G1 X184.011 Y42.732 E23.01989
G1 X183.957 Y43.355 E23.03029
G1 X183.835 Y44.008 E23.04134
G1 X183.648 Y44.638 E23.05226
G1 X183.409 Y45.225 E23.0628
G1 X183.111 Y45.79 E23.07343
G1 X182.743 Y46.344 E23.08449
G1 X182.325 Y46.854 E23.09545
G1 X181.88 Y47.299 E23.10592
G1 X181.395 Y47.698 E23.11636
G1 X180.83 Y48.074 E23.12765
G1 X180.265 Y48.371 E23.13827
G1 X179.677 Y48.611 E23.14883
G1 X179.04 Y48.801 E23.15988
G1 X178.394 Y48.923 E23.17081
G1 X177.767 Y48.977 E23.18128
G1 X177.127 Y48.969 E23.19192
G1 X176.472 Y48.895 E23.20289
G1 X175.829 Y48.758 E23.21382
G1 X175.221 Y48.564 E23.22443
G1 X174.62 Y48.301 E23.23534
G1 X174.059 Y47.985 E23.24605
G1 X173.538 Y47.622 E23.25661
G1 X173.038 Y47.191 E23.26759
G1 X172.593 Y46.724 E23.27832
G1 X172.195 Y46.214 E23.28907
G1 X171.852 Y45.665 E23.29984
G0 F1500 X171.913 Y45.339
G1 F900 X183.122 Y45.339 E23.48625
G1 F1800 E16.48625
G1 F300 Z0.3
G0 F1500 X183.811 Y42.672 Z0.3
G1 F300 Z0.1
G1 F1800 E23.48625
G1 F900 X171.226 Y42.672 E23.69553
G1 F1800 E16.69553
G1 F300 Z0.3
G0 F1500 X171.731 Y40.005 Z0.3
G1 F300 Z0.1
G1 F1800 E23.69553
G1 F900 X183.301 Y40.005 E23.88794
G1 F1800 E16.88794
G1 F300 Z0.3
G0 F1500 X181.356 Y37.5 Z0.3
G1 F300 Z0.1
G1 F1800 E23.88794
G1 F900 X181.356 Y47.472 E24.05378
G0 F1500 X180.527 Y48.006
G1 F900 X174.504 Y48.006 E24.15394
G0 F1500 X173.355 Y47.2
G1 F900 X173.355 Y37.763 E24.31088
G0 F1500 X173.896 Y37.338
G1 F900 X181.149 Y37.338 E24.4315
G1 F1800 E17.4315
G1 F300 Z0.3
G0 F1500 X178.689 Y36.3 Z0.3
G1 F300 Z0.1
G1 F1800 E24.4315
G1 F900 X178.689 Y48.664 E24.63711
G1 F1800 E17.63711
G1 F300 Z0.3
G0 F1500 X176.022 Y48.593 Z0.3
G1 F300 Z0.1
G1 F1800 E24.63711
G1 F900 X176.022 Y36.372 E24.84035
G1 F1800 E17.84035
G1 F300 Z0.3
;MESH:clock-hourhand.stl
G0 F1500 X177.025 Y50.568 Z0.3
;TYPE:WALL-INNER
G1 F300 Z0.1
G1 F1800 E24.84035
G1 F900 X177.819 Y50.578 E24.85355
G1 X178.625 Y50.508 E24.86701
G1 X179.418 Y50.358 E24.88043
G1 X180.204 Y50.125 E24.89406
G1 X180.941 Y49.824 E24.9073
G1 X181.654 Y49.447 E24.92071
G1 X182.338 Y48.994 E24.93436
G1 X182.952 Y48.489 E24.94758
G1 X183.523 Y47.918 E24.96101
G1 X184.034 Y47.294 E24.97442
G1 X184.257 Y46.958 E24.98113
G1 X184.481 Y46.621 E24.98786
G1 X184.669 Y46.264 E24.99457
G1 X184.858 Y45.907 E25.00128
G1 X185.163 Y45.159 E25.01472
G1 X185.276 Y44.775 E25.02137
G1 X185.392 Y44.384 E25.02816
G1 X185.542 Y43.59 E25.04159
G1 X185.576 Y43.19 E25.04827
G1 X185.612 Y42.785 E25.05503
