;FLAVOR:Marlin
;TIME:6379
;Filament used: 2.84293m
;Layer height: 0.2
;MINX:79.242
;MINY:55.831
;MINZ:0.2
;MAXX:140.76
;MAXY:164.175
;MAXZ:3.2
;Generated with Cura_SteamEngine master
M82 ;absolute extrusion mode
;Sliced at: Sun 15-01-2023 14:24:01
;Basic settings: Layer height: 0.2 Walls: 0.8 Fill: 30.0
G21 ;metric values
G90 ;absolute positioning
M82 ;set extruder to absolute mode
M107 ;start with the fan off
M117 Start heating ...
M104 S200
M117 Homing X/Y ...
G28 X0 Y0 ;move X/Y to min endstops
M117 Homing Z ...
G28 Z0 ;move Z to min endstops
G1 Z15.0 F100 ;move the platform down 15mm
M117 Heating ...
M109 S200
M117 Start cleaning ...
G92 E0 ;zero the extruded length
G1 F200 E10 ;extrude 10mm of feed stock
G92 E0 ;zero the extruded length again
M117 Intro line ...
G1 Z2.0 F3000 ; Move Z Axis up little to prevent scratching of Heat Bed
G1 X0.1 Y20 Z0.2 F5000.0 ; Move to start position
G1 X0.1 Y200.0 Z0.2 F1500.0 E15 ; Draw the first line
G1 X0.4 Y200.0 Z0.2 F5000.0 ; Move to side a little
G1 X0.4 Y20 Z0.3 F1500.0 E30 ; Draw the second line
G92 E0 ; Reset Extruder
G1 E-1 F500 ; Retract filiment by 1 mm
G1 Z2.0 F3000 ; Move Z Axis up little to prevent scratching of Heat Bed
G1 X5 Y20 Z0.3 F100 ; Move over to prevent blob squish
G1 F100
G92 E0 ; Reset Extruder
M117 Printing...

G92 E0
G92 E0
G1 F1800 E-7
;LAYER_COUNT:15
;LAYER:0
M107
G1 F300 Z0.4
G0 F3000 X84.982 Y66.102 Z0.4
;TYPE:SKIRT
G1 F300 Z0.2
G1 F1800 E0
G1 F1200 X85.593 Y65.324 E0.0329
G1 X85.708 Y65.185 E0.0389
G1 X86.236 Y64.572 E0.06581
G1 X86.379 Y64.414 E0.0729
G1 X87.229 Y63.527 E0.11376
G1 X87.332 Y63.424 E0.11861
G1 X87.698 Y63.069 E0.13556
G1 X87.815 Y62.96 E0.14088
G1 X88.693 Y62.174 E0.18008
G1 X88.798 Y62.083 E0.1847
G1 X89.221 Y61.73 E0.20302
G1 X89.366 Y61.615 E0.20918
G1 X90.146 Y61.024 E0.24173
G1 X90.306 Y60.91 E0.24826
G1 X91.068 Y60.388 E0.27898
G1 X91.26 Y60.264 E0.28658
G1 X92.059 Y59.77 E0.31783
G1 X92.219 Y59.676 E0.324
G1 X93.041 Y59.219 E0.35528
G1 X93.194 Y59.138 E0.36104
G1 X94.001 Y58.734 E0.39106
G1 X94.166 Y58.656 E0.39713
G1 X94.973 Y58.297 E0.4265
G1 X95.16 Y58.22 E0.43323
G1 X96.612 Y57.66 E0.48499
G1 X97.177 Y57.461 E0.50491
G1 X97.578 Y57.333 E0.51891
G1 X98.656 Y57.017 E0.55628
G1 X98.977 Y56.932 E0.56732
G1 X99.994 Y56.684 E0.60214
G1 X100.479 Y56.58 E0.61864
G1 X101.436 Y56.394 E0.65106
G1 X101.919 Y56.313 E0.66735
G1 X102.915 Y56.165 E0.70084
G1 X103.554 Y56.088 E0.72225
G1 X104.537 Y55.986 E0.75512
G1 X105.497 Y55.915 E0.78714
G1 X106.55 Y55.858 E0.82221
G1 X107.355 Y55.837 E0.84899
G1 X109.027 Y55.831 E0.9046
G1 X109.159 Y55.833 E0.909
G1 X110.397 Y55.871 E0.95019
G1 X111.725 Y55.952 E0.99444
G1 X111.861 Y55.963 E0.99898
G1 X113.203 Y56.091 E1.04382
G1 X113.347 Y56.107 E1.04864
G1 X114.672 Y56.282 E1.09309
G1 X114.819 Y56.305 E1.09804
G1 X115.935 Y56.495 E1.13569
G1 X116.085 Y56.523 E1.14077
G1 X117.411 Y56.801 E1.18583
G1 X117.566 Y56.837 E1.19112
G1 X118.933 Y57.181 E1.238
G1 X119.07 Y57.218 E1.24272
G1 X119.904 Y57.461 E1.27162
G1 X120.149 Y57.54 E1.28018
G1 X121.127 Y57.869 E1.3145
G1 X121.286 Y57.926 E1.32012
G1 X122.465 Y58.38 E1.36214
G1 X122.658 Y58.461 E1.3691
G1 X123.545 Y58.849 E1.4013
G1 X123.864 Y58.998 E1.41301
G1 X124.802 Y59.46 E1.44779
G1 X124.956 Y59.539 E1.45354
G1 X125.873 Y60.041 E1.48831
G1 X126.214 Y60.241 E1.50146
G1 X127.058 Y60.758 E1.53438
G1 X127.373 Y60.963 E1.54688
G1 X128.17 Y61.506 E1.57896
G1 X128.442 Y61.701 E1.59009
G1 X129.179 Y62.255 E1.62075
G1 X129.528 Y62.531 E1.63555
G1 X130.31 Y63.18 E1.66935
G1 X130.446 Y63.299 E1.67536
G1 X131.238 Y64.02 E1.71099
G1 X131.483 Y64.253 E1.72223
G1 X132.138 Y64.909 E1.75307
G1 X132.279 Y65.058 E1.75989
G1 X133.366 Y66.265 E1.81391
G1 X133.46 Y66.373 E1.81868
G1 X133.847 Y66.837 E1.83877
G1 X134.096 Y67.15 E1.85207
G1 X134.66 Y67.891 E1.88305
G1 X134.868 Y68.18 E1.89489
G1 X135.407 Y68.962 E1.92648
G1 X135.622 Y69.293 E1.93961
G1 X136.173 Y70.18 E1.97434
G1 X136.301 Y70.399 E1.98277
G1 X136.829 Y71.342 E2.01872
G1 X136.945 Y71.562 E2.02699
G1 X137.414 Y72.496 E2.06175
G1 X137.547 Y72.78 E2.07218
G1 X137.997 Y73.794 E2.10908
G1 X138.06 Y73.943 E2.11446
G1 X138.473 Y74.985 E2.15174
G1 X138.608 Y75.354 E2.16481
G1 X138.926 Y76.28 E2.19737
G1 X139.081 Y76.772 E2.21453
G1 X139.359 Y77.715 E2.24723
G1 X139.532 Y78.373 E2.26986
G1 X139.766 Y79.332 E2.30269
G1 X139.923 Y80.063 E2.32756
G1 X140.146 Y81.227 E2.36698
G1 X140.248 Y81.865 E2.38847
G1 X140.401 Y82.923 E2.42402
G1 X140.481 Y83.594 E2.4465
G1 X140.604 Y84.84 E2.48814
G1 X140.663 Y85.673 E2.51592
G1 X140.724 Y86.776 E2.55266
G1 X140.731 Y86.995 E2.55995
G1 X140.752 Y87.925 E2.59089
G1 X140.76 Y89.512 E2.64367
G1 X140.747 Y90.139 E2.66453
G1 X140.694 Y91.298 E2.70312
G1 X140.686 Y91.422 E2.70725
G1 X140.585 Y92.711 E2.75026
G1 X140.57 Y92.86 E2.75524
G1 X140.429 Y94.076 E2.79595
G1 X140.409 Y94.224 E2.80092
G1 X140.219 Y95.457 E2.84241
G1 X140.195 Y95.599 E2.8472
G1 X140.017 Y96.523 E2.8785
G1 X139.626 Y98.29 E2.93869
G1 X139.209 Y100.157 E3.00232
G1 X138.694 Y102.81 E3.09221
G1 X138.257 Y105.471 E3.1819
G1 X137.885 Y108.205 E3.27367
G1 X137.601 Y110.86 E3.36248
G1 X137.387 Y113.593 E3.45365
G1 X137.251 Y116.301 E3.54384
G1 X137.192 Y119.007 E3.63386
G1 X137.21 Y121.713 E3.72386
G1 X137.306 Y124.461 E3.81532
G1 X137.518 Y127.689 E3.92291
G1 X137.617 Y128.881 E3.9627
G1 X137.661 Y129.48 E3.98267
G1 X137.718 Y130.456 E4.01519
G1 X137.732 Y130.877 E4.0292
G1 X137.749 Y131.584 E4.05272
G1 X137.759 Y133.326 E4.11066
G1 X137.758 Y133.444 E4.11459
G1 X137.728 Y134.64 E4.15438
G1 X137.653 Y136.119 E4.20363
G1 X137.631 Y136.446 E4.21453
G1 X137.474 Y138.28 E4.27576
G1 X137.46 Y138.421 E4.28047
G1 X137.288 Y139.838 E4.32794
G1 X137.108 Y141.028 E4.36797
G1 X137.088 Y141.149 E4.37205
G1 X136.879 Y142.287 E4.41054
G1 X136.855 Y142.407 E4.41461
G1 X136.616 Y143.516 E4.45234
G1 X136.586 Y143.645 E4.45674
G1 X136.342 Y144.619 E4.49014
G1 X136.308 Y144.746 E4.49451
G1 X136.004 Y145.81 E4.53132
G1 X135.961 Y145.95 E4.53619
G1 X135.62 Y146.997 E4.57281
G1 X135.573 Y147.132 E4.57757
G1 X135.228 Y148.075 E4.61096
G1 X135.17 Y148.225 E4.61631
G1 X134.772 Y149.191 E4.65106
G1 X134.708 Y149.339 E4.65643
G1 X134.288 Y150.252 E4.68985
G1 X134.221 Y150.39 E4.69495
G1 X133.78 Y151.259 E4.72737
G1 X133.699 Y151.41 E4.73307
G1 X133.109 Y152.459 E4.77309
G1 X132.835 Y152.915 E4.79079
G1 X132.718 Y153.096 E4.79796
G1 X131.858 Y154.354 E4.84864
G1 X131.542 Y154.787 E4.86647
G1 X131.41 Y154.957 E4.87363
G1 X130.641 Y155.89 E4.91384
G1 X130.539 Y156.009 E4.91906
G1 X130.075 Y156.529 E4.94224
G1 X129.97 Y156.642 E4.94737
G1 X129.298 Y157.339 E4.97957
G1 X128.844 Y157.776 E5.00053
G1 X127.723 Y158.756 E5.05005
G1 X127.246 Y159.14 E5.07042
G1 X126.614 Y159.609 E5.09659
G1 X126.477 Y159.707 E5.1022
G1 X125.929 Y160.079 E5.12422
G1 X125.757 Y160.188 E5.131
G1 X124.531 Y160.931 E5.17868
G1 X124.094 Y161.171 E5.19526
G1 X122.899 Y161.763 E5.23962
G1 X122.384 Y161.999 E5.25846
G1 X122.228 Y162.065 E5.26409
G1 X121.367 Y162.41 E5.29494
G1 X121.082 Y162.516 E5.30506
G1 X120.243 Y162.806 E5.33458
G1 X119.9 Y162.913 E5.34653
G1 X119.05 Y163.159 E5.37596
G1 X118.723 Y163.245 E5.38721
G1 X117.751 Y163.478 E5.42045
G1 X117.581 Y163.515 E5.42624
G1 X116.586 Y163.708 E5.45995
G1 X116.33 Y163.751 E5.46858
G1 X115.218 Y163.914 E5.50597
G1 X114.942 Y163.946 E5.51521
G1 X113.893 Y164.052 E5.55027
G1 X113.347 Y164.093 E5.56849
G1 X112.355 Y164.147 E5.60153
G1 X111.743 Y164.165 E5.62189
G1 X110.328 Y164.175 E5.66896
G1 X109.822 Y164.166 E5.68579
G1 X108.959 Y164.134 E5.71451
G1 X108.85 Y164.129 E5.71814
G1 X107.609 Y164.048 E5.7595
G1 X106.404 Y163.932 E5.79977
G1 X106.269 Y163.917 E5.80429
G1 X105.184 Y163.774 E5.84069
G1 X105.048 Y163.753 E5.84526
G1 X104.036 Y163.584 E5.87939
G1 X103.892 Y163.558 E5.88425
G1 X102.862 Y163.347 E5.91922
G1 X102.71 Y163.312 E5.92441
G1 X101.693 Y163.062 E5.95924
G1 X101.545 Y163.023 E5.96434
G1 X100.419 Y162.7 E6.0033
G1 X99.846 Y162.516 E6.02331
G1 X99.664 Y162.452 E6.02973
G1 X98.232 Y161.909 E6.08067
G1 X97.671 Y161.676 E6.10087
G1 X97.42 Y161.564 E6.11001
G1 X96.593 Y161.171 E6.14047
G1 X96.441 Y161.094 E6.14613
G1 X95.607 Y160.653 E6.17751
G1 X95.424 Y160.55 E6.1845
G1 X94.622 Y160.074 E6.21552
G1 X94.469 Y159.978 E6.22152
G1 X93.75 Y159.506 E6.25013
G1 X93.595 Y159.399 E6.25639
G1 X92.859 Y158.864 E6.28666
G1 X92.658 Y158.709 E6.2951
G1 X91.97 Y158.157 E6.32444
G1 X91.828 Y158.037 E6.33062
G1 X91.205 Y157.487 E6.35826
G1 X90.986 Y157.283 E6.36822
G1 X90.455 Y156.767 E6.39284
G1 X90.311 Y156.619 E6.39971
G1 X89.418 Y155.657 E6.44337
G1 X89.259 Y155.475 E6.45141
G1 X88.703 Y154.798 E6.48054
G1 X88.309 Y154.291 E6.5019
G1 X88.179 Y154.113 E6.50923
G1 X87.361 Y152.925 E6.5572
G1 X86.999 Y152.354 E6.57969
G1 X86.235 Y151.004 E6.63128
G1 X85.968 Y150.5 E6.65025
G1 X85.756 Y150.068 E6.66626
G1 X85.374 Y149.239 E6.69662
G1 X85.21 Y148.855 E6.71051
G1 X84.827 Y147.905 E6.74458
G1 X84.702 Y147.573 E6.75637
G1 X84.392 Y146.687 E6.78759
G1 X84.257 Y146.269 E6.8022
G1 X83.968 Y145.305 E6.83568
G1 X83.824 Y144.771 E6.85407
G1 X83.569 Y143.747 E6.88917
G1 X83.416 Y143.052 E6.91284
G1 X83.212 Y142.029 E6.94753
G1 X83.094 Y141.333 E6.97101
G1 X82.926 Y140.221 E7.00842
G1 X82.887 Y139.913 E7.01875
G1 X82.809 Y139.254 E7.04082
G1 X82.698 Y138.163 E7.07729
G1 X82.676 Y137.883 E7.08663
G1 X82.605 Y136.86 E7.12074
G1 X82.548 Y135.805 E7.15588
G1 X82.54 Y135.544 E7.16456
G1 X82.51 Y134.216 E7.20875
G1 X82.499 Y133.166 E7.24367
G1 X82.499 Y132.153 E7.27736
G1 X82.51 Y131.435 E7.30125
G1 X82.542 Y130.987 E7.31619
G1 X82.672 Y129.982 E7.34989
G1 X82.752 Y129.426 E7.36857
G1 X83.064 Y126.713 E7.4594
G1 X83.298 Y124.01 E7.54964
G1 X83.455 Y121.309 E7.63963
G1 X83.536 Y118.6 E7.72977
G1 X83.54 Y115.893 E7.81981
G1 X83.466 Y113.147 E7.91117
G1 X83.318 Y110.451 E8.00098
G1 X83.092 Y107.745 E8.09129
G1 X82.789 Y105.049 E8.18152
G1 X82.409 Y102.343 E8.27241
G1 X81.957 Y99.685 E8.36208
G1 X81.433 Y97.047 E8.45154
G1 X80.826 Y94.391 E8.54216
G1 X80.127 Y91.688 E8.63501
G1 X79.691 Y90.15 E8.68818
G1 X79.536 Y89.625 E8.70639
G1 X79.386 Y88.823 E8.73353
G1 X79.371 Y88.633 E8.73987
G1 X79.275 Y87.217 E8.78707
G1 X79.268 Y87.086 E8.79144
G1 X79.246 Y86.46 E8.81227
G1 X79.244 Y86.331 E8.81656
G1 X79.242 Y85.1 E8.8575
G1 X79.273 Y83.957 E8.89553
G1 X79.35 Y82.6 E8.94074
G1 X79.358 Y82.485 E8.94457
G1 X79.458 Y81.329 E8.98317
G1 X79.471 Y81.204 E8.98735
G1 X79.623 Y79.93 E9.03002
G1 X79.786 Y78.844 E9.06655
G1 X79.808 Y78.712 E9.071
G1 X80 Y77.671 E9.1062
G1 X80.027 Y77.539 E9.11069
G1 X80.273 Y76.419 E9.14883
G1 X80.308 Y76.272 E9.15385
G1 X80.549 Y75.344 E9.18574
G1 X80.586 Y75.211 E9.19033
G1 X80.883 Y74.21 E9.22506
G1 X80.933 Y74.056 E9.23045
G1 X81.27 Y73.069 E9.26513
G1 X81.322 Y72.924 E9.27026
G1 X81.694 Y71.958 E9.30469
G1 X81.76 Y71.797 E9.31047
G1 X82.241 Y70.693 E9.35053
G1 X82.482 Y70.181 E9.36935
G1 X82.573 Y70.004 E9.37597
G1 X83.282 Y68.69 E9.42563
G1 X83.601 Y68.139 E9.4468
G1 X83.756 Y67.887 E9.45664
G1 X84.277 Y67.088 E9.48837
G1 X84.373 Y66.948 E9.49402
G1 X84.873 Y66.248 E9.52263
G1 X84.982 Y66.102 E9.52869
G0 F3000 X85.297 Y66.349
G1 F1200 X85.908 Y65.571 E9.56159
G1 X86.011 Y65.446 E9.56698
G1 X86.539 Y64.833 E9.59388
G1 X86.668 Y64.691 E9.60027
G1 X87.518 Y63.804 E9.64113
G1 X87.611 Y63.711 E9.6455
G1 X87.977 Y63.356 E9.66246
G1 X88.082 Y63.258 E9.66724
G1 X88.96 Y62.472 E9.70643
G1 X89.054 Y62.39 E9.71058
G1 X89.477 Y62.037 E9.7289
G1 X89.608 Y61.933 E9.73447
G1 X90.38 Y61.349 E9.76666
G1 X90.532 Y61.24 E9.77289
G1 X91.286 Y60.723 E9.80329
G1 X91.471 Y60.604 E9.81061
G1 X92.27 Y60.11 E9.84185
G1 X92.414 Y60.026 E9.8474
G1 X93.236 Y59.569 E9.87868
G1 X93.373 Y59.496 E9.88384
G1 X94.18 Y59.092 E9.91386
G1 X94.329 Y59.022 E9.91933
G1 X95.136 Y58.663 E9.94871
G1 X95.304 Y58.593 E9.95476
G1 X96.756 Y58.033 E10.00652
G1 X97.309 Y57.839 E10.02602
G1 X97.691 Y57.716 E10.03936
G1 X98.759 Y57.403 E10.07638
G1 X99.072 Y57.321 E10.08714
G1 X100.079 Y57.075 E10.12162
G1 X100.556 Y56.972 E10.13785
G1 X101.502 Y56.788 E10.1699
G1 X101.978 Y56.709 E10.18595
G1 X102.966 Y56.562 E10.21918
G1 X103.6 Y56.485 E10.24042
G1 X104.687 Y56.374 E10.27676
G1 X105.519 Y56.314 E10.3045
G1 X106.478 Y56.261 E10.33645
G1 X107.363 Y56.237 E10.36589
G1 X109.029 Y56.231 E10.42131
G1 X110.26 Y56.266 E10.46227
G1 X110.372 Y56.271 E10.46599
G1 X111.823 Y56.361 E10.51435
G1 X113.165 Y56.489 E10.55919
G1 X113.294 Y56.504 E10.56351
G1 X114.619 Y56.679 E10.60796
G1 X114.752 Y56.699 E10.61243
G1 X115.868 Y56.889 E10.65008
G1 X116.003 Y56.915 E10.65466
G1 X117.329 Y57.193 E10.69972
G1 X117.469 Y57.225 E10.70449
G1 X118.836 Y57.569 E10.75138
G1 X118.958 Y57.602 E10.75558
G1 X119.783 Y57.842 E10.78416
G1 X120.022 Y57.919 E10.79251
G1 X121 Y58.248 E10.82683
G1 X121.142 Y58.299 E10.83185
G1 X122.223 Y58.714 E10.87036
G1 X122.498 Y58.827 E10.88025
G1 X123.378 Y59.213 E10.91221
G1 X123.688 Y59.356 E10.92357
G1 X124.626 Y59.818 E10.95834
G1 X124.764 Y59.89 E10.96352
G1 X125.681 Y60.392 E10.99829
G1 X126.006 Y60.582 E11.01081
G1 X126.759 Y61.042 E11.04016
G1 X127.148 Y61.294 E11.05558
G1 X128.013 Y61.884 E11.0904
G1 X128.202 Y62.021 E11.09816
G1 X128.932 Y62.569 E11.12852
G1 X129.272 Y62.839 E11.14296
G1 X130.054 Y63.488 E11.17676
G1 X130.177 Y63.595 E11.18219
G1 X130.964 Y64.311 E11.21757
G1 X131.2 Y64.535 E11.2284
G1 X131.855 Y65.191 E11.25923
G1 X131.982 Y65.326 E11.26539
G1 X133.069 Y66.533 E11.31942
G1 X133.153 Y66.63 E11.32369
G1 X133.535 Y67.086 E11.34347
G1 X133.778 Y67.393 E11.35649
G1 X134.342 Y68.134 E11.38747
G1 X134.539 Y68.407 E11.39866
G1 X135.073 Y69.182 E11.42997
G1 X135.283 Y69.504 E11.44275
G1 X135.829 Y70.385 E11.47723
G1 X135.953 Y70.594 E11.48531
G1 X136.44 Y71.462 E11.51841
G1 X136.588 Y71.741 E11.52892
G1 X137.052 Y72.666 E11.56334
G1 X137.182 Y72.943 E11.57351
G1 X137.632 Y73.957 E11.61041
G1 X137.688 Y74.091 E11.61524
G1 X138.136 Y75.225 E11.6558
G1 X138.23 Y75.485 E11.66499
G1 X138.545 Y76.401 E11.69721
G1 X138.697 Y76.885 E11.71408
G1 X138.973 Y77.82 E11.74651
G1 X139.145 Y78.473 E11.76897
G1 X139.396 Y79.509 E11.80442
G1 X139.531 Y80.145 E11.82605
G1 X139.732 Y81.182 E11.86118
G1 X139.844 Y81.867 E11.88426
G1 X140.004 Y82.972 E11.9214
G1 X140.083 Y83.639 E11.94374
G1 X140.196 Y84.765 E11.98138
G1 X140.26 Y85.642 E12.01062
G1 X140.324 Y86.79 E12.04887
G1 X140.331 Y87.004 E12.05599
G1 X140.352 Y87.927 E12.0867
G1 X140.36 Y89.514 E12.13948
G1 X140.347 Y90.13 E12.15997
G1 X140.294 Y91.279 E12.19823
G1 X140.287 Y91.391 E12.20196
G1 X140.186 Y92.68 E12.24497
G1 X140.173 Y92.814 E12.24944
G1 X140.032 Y94.03 E12.29016
G1 X140.014 Y94.163 E12.29462
G1 X139.824 Y95.396 E12.33612
G1 X139.802 Y95.524 E12.34044
G1 X139.626 Y96.437 E12.37136
G1 X139.235 Y98.202 E12.43149
G1 X138.82 Y100.058 E12.49474
G1 X138.3 Y102.741 E12.58564
G1 X137.859 Y105.424 E12.67608
G1 X137.494 Y108.11 E12.76623
G1 X137.2 Y110.857 E12.85812
G1 X136.987 Y113.575 E12.9488
G1 X136.851 Y116.272 E13.03862
G1 X136.792 Y119.001 E13.1294
G1 X136.81 Y121.73 E13.22017
G1 X136.906 Y124.468 E13.3113
G1 X137.12 Y127.722 E13.41976
G1 X137.218 Y128.91 E13.4594
G1 X137.262 Y129.504 E13.47922
G1 X137.314 Y130.374 E13.5082
G1 X137.332 Y130.887 E13.52528
G1 X137.349 Y131.586 E13.54853
G1 X137.359 Y133.328 E13.60647
G1 X137.332 Y134.525 E13.64629
G1 X137.254 Y136.093 E13.69851
G1 X137.233 Y136.412 E13.70914
G1 X137.076 Y138.246 E13.77037
G1 X137.063 Y138.373 E13.77461
G1 X136.891 Y139.79 E13.82209
G1 X136.713 Y140.968 E13.86171
G1 X136.695 Y141.076 E13.86535
G1 X136.486 Y142.214 E13.90384
G1 X136.225 Y143.431 E13.94524
G1 X136.198 Y143.548 E13.94923
G1 X135.954 Y144.522 E13.98263
G1 X135.619 Y145.7 E14.02336
G1 X135.581 Y145.826 E14.02774
G1 X135.24 Y146.873 E14.06436
G1 X135.198 Y146.995 E14.06865
G1 X134.853 Y147.938 E14.10205
G1 X134.801 Y148.072 E14.10683
G1 X134.403 Y149.038 E14.14158
G1 X134.345 Y149.172 E14.14644
G1 X133.925 Y150.085 E14.17986
G1 X133.864 Y150.209 E14.18446
G1 X133.423 Y151.078 E14.21687
G1 X133.351 Y151.214 E14.22199
G1 X132.761 Y152.263 E14.26202
G1 X132.493 Y152.707 E14.27927
G1 X132.388 Y152.871 E14.28574
G1 X131.528 Y154.129 E14.33643
