;FLAVOR:Marlin
;TIME:13142
;Filament used: 5.84014m
;Layer height: 0.2
;MINX:32.783
;MINY:57.264
;MINZ:0.2
;MAXX:140.824
;MAXY:178.57
;MAXZ:3.2
;Generated with Cura_SteamEngine master
M82 ;absolute extrusion mode
;Sliced at: Sun 15-01-2023 14:23:19
;Basic settings: Layer height: 0.2 Walls: 0.8 Fill: 30.0
G21 ;metric values
G90 ;absolute positioning
M82 ;set extruder to absolute mode
M107 ;start with the fan off
M117 Start heating ...
M104 S200
M117 Homing X/Y ...
G28 X0 Y0 ;move X/Y to min endstops
M117 Homing Z ...
G28 Z0 ;move Z to min endstops
G1 Z15.0 F100 ;move the platform down 15mm
M117 Heating ...
M109 S200
M117 Start cleaning ...
G92 E0 ;zero the extruded length
G1 F200 E10 ;extrude 10mm of feed stock
G92 E0 ;zero the extruded length again
M117 Intro line ...
G1 Z2.0 F3000 ; Move Z Axis up little to prevent scratching of Heat Bed
G1 X0.1 Y20 Z0.2 F5000.0 ; Move to start position
G1 X0.1 Y200.0 Z0.2 F1500.0 E15 ; Draw the first line
G1 X0.4 Y200.0 Z0.2 F5000.0 ; Move to side a little
G1 X0.4 Y20 Z0.3 F1500.0 E30 ; Draw the second line
G92 E0 ; Reset Extruder
G1 E-1 F500 ; Retract filiment by 1 mm
G1 Z2.0 F3000 ; Move Z Axis up little to prevent scratching of Heat Bed
G1 X5 Y20 Z0.3 F100 ; Move over to prevent blob squish
G1 F100
G92 E0 ; Reset Extruder
M117 Printing...

G92 E0
G92 E0
G1 F1800 E-7
;LAYER_COUNT:15
;LAYER:0
M107
G1 F300 Z0.4
G0 F3000 X45.536 Y73.797 Z0.4
;TYPE:SKIRT
G1 F300 Z0.2
G1 F1800 E0
G1 F1200 X46.023 Y73.511 E0.01878
G1 X46.546 Y73.296 E0.03759
G1 X47.094 Y73.158 E0.05639
G1 X47.669 Y73.097 E0.07562
G1 X47.966 Y73.088 E0.0855
G1 X48.799 Y73.079 E0.11321
G1 X50.779 Y73.047 E0.17907
G1 X53.485 Y72.932 E0.26916
G1 X56.225 Y72.738 E0.36052
G1 X58.881 Y72.474 E0.44929
G1 X61.633 Y72.122 E0.54157
G1 X64.254 Y71.71 E0.62981
G1 X66.981 Y71.204 E0.72206
G1 X69.575 Y70.645 E0.81032
G1 X72.236 Y69.993 E0.90144
G1 X74.865 Y69.27 E0.99213
G1 X77.468 Y68.473 E1.08267
G1 X80.03 Y67.609 E1.1726
G1 X82.587 Y66.666 E1.26325
G1 X85.091 Y65.66 E1.353
G1 X87.602 Y64.568 E1.44407
G1 X90.044 Y63.422 E1.53379
G1 X92.462 Y62.205 E1.62383
G1 X94.162 Y61.28 E1.6882
G1 X95.261 Y60.694 E1.72962
G1 X96.015 Y60.309 E1.75778
G1 X96.198 Y60.221 E1.76453
G1 X97.552 Y59.614 E1.81389
G1 X97.687 Y59.556 E1.81877
G1 X98.237 Y59.334 E1.8385
G1 X98.473 Y59.244 E1.8469
G1 X99.283 Y58.956 E1.87549
G1 X99.815 Y58.782 E1.89411
G1 X100.838 Y58.474 E1.92965
G1 X101.17 Y58.384 E1.94109
G1 X102.151 Y58.139 E1.97472
G1 X102.617 Y58.037 E1.99058
G1 X103.665 Y57.827 E2.02613
G1 X104.141 Y57.746 E2.04219
G1 X105.016 Y57.611 E2.07164
G1 X105.138 Y57.594 E2.07574
G1 X105.725 Y57.522 E2.09541
G1 X106.749 Y57.415 E2.12965
G1 X107.569 Y57.353 E2.157
G1 X108.606 Y57.293 E2.19155
G1 X109.332 Y57.273 E2.21571
G1 X110.896 Y57.264 E2.26772
G1 X111.494 Y57.277 E2.28762
G1 X112.532 Y57.332 E2.32219
G1 X112.671 Y57.342 E2.32683
G1 X113.869 Y57.449 E2.36683
G1 X114.029 Y57.466 E2.37218
G1 X115.281 Y57.629 E2.41418
G1 X116.12 Y57.765 E2.44245
G1 X116.284 Y57.795 E2.44799
G1 X117.298 Y58.005 E2.48243
G1 X117.476 Y58.046 E2.48851
G1 X118.467 Y58.299 E2.52252
G1 X118.633 Y58.345 E2.52825
G1 X119.666 Y58.657 E2.56414
G1 X119.872 Y58.725 E2.57136
G1 X120.79 Y59.05 E2.60375
G1 X120.98 Y59.124 E2.61053
G1 X121.912 Y59.503 E2.644
G1 X122.073 Y59.573 E2.64983
G1 X122.96 Y59.98 E2.68229
G1 X123.178 Y60.087 E2.69037
G1 X123.997 Y60.513 E2.72108
G1 X124.244 Y60.649 E2.73045
G1 X125.051 Y61.118 E2.7615
G1 X125.217 Y61.221 E2.768
G1 X126.03 Y61.745 E2.80017
G1 X126.269 Y61.907 E2.80977
G1 X126.928 Y62.377 E2.83669
G1 X127.219 Y62.595 E2.84878
G1 X127.979 Y63.193 E2.88095
G1 X128.124 Y63.312 E2.88719
G1 X128.867 Y63.955 E2.91987
G1 X129.062 Y64.133 E2.92865
G1 X129.779 Y64.81 E2.96145
G1 X129.907 Y64.936 E2.96742
G1 X130.546 Y65.596 E2.99798
G1 X130.69 Y65.753 E3.00506
G1 X131.765 Y66.989 E3.05955
G1 X131.855 Y67.096 E3.0642
G1 X132.27 Y67.61 E3.08617
G1 X132.476 Y67.878 E3.09741
G1 X133.389 Y69.138 E3.14916
G1 X133.474 Y69.26 E3.15411
G1 X133.936 Y69.95 E3.18173
G1 X134.017 Y70.076 E3.18671
G1 X134.791 Y71.332 E3.23578
G1 X134.862 Y71.452 E3.24042
G1 X135.309 Y72.24 E3.27055
G1 X135.594 Y72.779 E3.29083
G1 X136.087 Y73.751 E3.32708
G1 X136.321 Y74.247 E3.34532
G1 X136.819 Y75.35 E3.38557
G1 X137.017 Y75.828 E3.40278
G1 X137.439 Y76.887 E3.4407
G1 X137.726 Y77.669 E3.4684
G1 X138.061 Y78.631 E3.50228
G1 X138.405 Y79.729 E3.54055
G1 X138.683 Y80.666 E3.57306
G1 X138.754 Y80.928 E3.58209
G1 X138.996 Y81.853 E3.61389
G1 X139.242 Y82.855 E3.64821
G1 X139.54 Y84.246 E3.69552
G1 X139.733 Y85.222 E3.72861
G1 X139.797 Y85.584 E3.74084
G1 X140.032 Y87.018 E3.78917
G1 X140.201 Y88.156 E3.82743
G1 X140.241 Y88.474 E3.83809
G1 X140.426 Y90.084 E3.892
G1 X140.531 Y91.135 E3.92713
G1 X140.541 Y91.255 E3.93113
G1 X140.698 Y93.511 E4.00635
G1 X140.754 Y94.544 E4.04076
G1 X140.763 Y94.827 E4.05017
G1 X140.818 Y97.258 E4.13105
G1 X140.824 Y99.21 E4.19597
G1 X140.817 Y99.659 E4.21091
G1 X140.762 Y101.37 E4.26785
G1 X140.742 Y101.758 E4.28077
G1 X140.618 Y103.649 E4.3438
G1 X140.591 Y103.95 E4.35385
G1 X140.436 Y105.512 E4.40606
G1 X140.422 Y105.637 E4.41024
G1 X140.233 Y107.069 E4.45828
G1 X140.009 Y108.454 E4.50495
G1 X139.728 Y109.913 E4.55436
G1 X139.699 Y110.051 E4.55905
G1 X139.416 Y111.28 E4.601
G1 X139.383 Y111.412 E4.60553
G1 X139.054 Y112.647 E4.64803
G1 X139.014 Y112.786 E4.65285
G1 X138.644 Y113.997 E4.69496
G1 X138.596 Y114.145 E4.70014
G1 X138.208 Y115.258 E4.73934
G1 X138.153 Y115.407 E4.74462
G1 X137.55 Y116.938 E4.79935
G1 X136.653 Y119.085 E4.87674
G1 X135.675 Y121.624 E4.96724
G1 X134.767 Y124.196 E5.05796
G1 X133.933 Y126.789 E5.14855
G1 X133.179 Y129.385 E5.23846
G1 X132.499 Y131.996 E5.3282
G1 X131.876 Y134.7 E5.42049
G1 X131.355 Y137.305 E5.50885
G1 X130.893 Y140.006 E5.59999
G1 X130.509 Y142.701 E5.69053
G1 X130.208 Y145.355 E5.77937
G1 X129.976 Y148.085 E5.8705
G1 X129.821 Y150.828 E5.96188
G1 X129.745 Y153.499 E6.05075
G1 X129.745 Y156.222 E6.14132
G1 X129.779 Y157.31 E6.17752
G1 X129.806 Y158.659 E6.2224
G1 X129.778 Y159.224 E6.24122
G1 X129.67 Y159.778 E6.25999
G1 X129.484 Y160.313 E6.27883
G1 X129.226 Y160.815 E6.2976
G1 X128.899 Y161.277 E6.31643
G1 X128.51 Y161.687 E6.33522
G1 X128.068 Y162.039 E6.35402
G1 X127.58 Y162.325 E6.37283
G1 X127.057 Y162.539 E6.39163
G1 X126.509 Y162.677 E6.41042
G1 X125.938 Y162.737 E6.42952
G1 X125.641 Y162.746 E6.4394
G1 X124.808 Y162.755 E6.46711
G1 X122.826 Y162.787 E6.53304
G1 X120.12 Y162.902 E6.62312
G1 X117.38 Y163.096 E6.71448
G1 X114.724 Y163.36 E6.80326
G1 X111.972 Y163.712 E6.89553
G1 X109.351 Y164.124 E6.98378
G1 X106.624 Y164.63 E7.07603
G1 X104.03 Y165.189 E7.16428
G1 X101.369 Y165.841 E7.25541
G1 X98.74 Y166.564 E7.34609
G1 X96.137 Y167.361 E7.43664
G1 X93.575 Y168.225 E7.52657
G1 X91.018 Y169.168 E7.61721
G1 X88.514 Y170.174 E7.70696
G1 X86.003 Y171.266 E7.79804
G1 X83.561 Y172.412 E7.88776
G1 X81.15 Y173.625 E7.97752
G1 X79.379 Y174.587 E8.04456
G1 X78.373 Y175.127 E8.08253
G1 X77.591 Y175.526 E8.11173
G1 X77.407 Y175.614 E8.11852
G1 X76.053 Y176.22 E8.16785
G1 X75.925 Y176.275 E8.17249
G1 X75.358 Y176.504 E8.19283
G1 X75.154 Y176.582 E8.20009
G1 X74.353 Y176.869 E8.22839
G1 X73.799 Y177.05 E8.24778
G1 X72.779 Y177.357 E8.2832
G1 X72.437 Y177.45 E8.29499
G1 X71.456 Y177.695 E8.32862
G1 X70.989 Y177.798 E8.34453
G1 X69.986 Y177.999 E8.37855
G1 X69.464 Y178.089 E8.39617
G1 X68.579 Y178.225 E8.42595
G1 X67.867 Y178.314 E8.44982
G1 X66.895 Y178.417 E8.48233
G1 X66.046 Y178.482 E8.51065
G1 X64.93 Y178.544 E8.54782
G1 X64.226 Y178.563 E8.57125
G1 X62.668 Y178.57 E8.62306
G1 X62.122 Y178.558 E8.64123
G1 X61.082 Y178.503 E8.67587
G1 X60.938 Y178.493 E8.68067
G1 X59.74 Y178.385 E8.72068
G1 X59.585 Y178.368 E8.72586
G1 X58.328 Y178.205 E8.76802
G1 X58.194 Y178.185 E8.77253
G1 X57.487 Y178.069 E8.79636
G1 X57.319 Y178.038 E8.80204
G1 X56.306 Y177.827 E8.83645
G1 X56.135 Y177.787 E8.84229
G1 X55.126 Y177.53 E8.87693
G1 X54.962 Y177.485 E8.88258
G1 X54.033 Y177.206 E8.91484
G1 X53.732 Y177.107 E8.92538
G1 X52.819 Y176.784 E8.95759
G1 X52.645 Y176.718 E8.96378
G1 X51.682 Y176.326 E8.99836
G1 X51.52 Y176.256 E9.00423
G1 X50.691 Y175.875 E9.03458
G1 X50.45 Y175.757 E9.0435
G1 X49.619 Y175.326 E9.07464
G1 X49.381 Y175.194 E9.08369
G1 X48.555 Y174.715 E9.11545
G1 X48.374 Y174.604 E9.12251
G1 X47.638 Y174.131 E9.15161
G1 X47.351 Y173.936 E9.16315
G1 X46.601 Y173.4 E9.19381
G1 X46.383 Y173.235 E9.20291
G1 X45.615 Y172.629 E9.23544
G1 X45.478 Y172.516 E9.24135
G1 X44.665 Y171.812 E9.27712
G1 X44.545 Y171.701 E9.28256
G1 X43.827 Y171.023 E9.3154
G1 X43.696 Y170.894 E9.32152
G1 X42.955 Y170.125 E9.35704
G1 X42.802 Y169.958 E9.36457
G1 X42.144 Y169.214 E9.3976
G1 X41.957 Y168.992 E9.40726
G1 X41.317 Y168.202 E9.44107
G1 X41.132 Y167.959 E9.45123
G1 X40.221 Y166.702 E9.50287
G1 X40.136 Y166.58 E9.50781
G1 X39.676 Y165.893 E9.53531
G1 X39.594 Y165.765 E9.54037
G1 X38.815 Y164.5 E9.58978
G1 X38.745 Y164.382 E9.59434
G1 X38.298 Y163.594 E9.62447
G1 X38.013 Y163.055 E9.64475
G1 X37.517 Y162.078 E9.6812
G1 X37.247 Y161.502 E9.70235
G1 X36.772 Y160.445 E9.7409
G1 X36.589 Y160.005 E9.75675
G1 X36.178 Y158.974 E9.79366
G1 X35.918 Y158.264 E9.81881
G1 X35.58 Y157.299 E9.85282
G1 X35.482 Y157.001 E9.86325
G1 X35.202 Y156.104 E9.89451
G1 X34.942 Y155.228 E9.9249
G1 X34.622 Y154.024 E9.96633
G1 X34.392 Y153.097 E9.9981
G1 X34.364 Y152.975 E10.00226
G1 X34.061 Y151.558 E10.05046
G1 X33.863 Y150.558 E10.08436
G1 X33.807 Y150.238 E10.09517
G1 X33.564 Y148.744 E10.14551
G1 X33.408 Y147.693 E10.18085
G1 X33.362 Y147.327 E10.19312
G1 X33.181 Y145.75 E10.24592
G1 X33.076 Y144.699 E10.28105
G1 X33.066 Y144.579 E10.28505
G1 X32.909 Y142.323 E10.36027
G1 X32.853 Y141.29 E10.39468
G1 X32.844 Y141.007 E10.40409
G1 X32.789 Y138.576 E10.48497
G1 X32.783 Y136.624 E10.54989
G1 X32.79 Y136.175 E10.56483
G1 X32.845 Y134.464 E10.62177
G1 X32.865 Y134.076 E10.63469
G1 X32.989 Y132.185 E10.69772
G1 X33.016 Y131.884 E10.70777
G1 X33.171 Y130.322 E10.75998
G1 X33.185 Y130.197 E10.76416
G1 X33.374 Y128.765 E10.8122
G1 X33.598 Y127.38 E10.85887
G1 X33.879 Y125.921 E10.90829
G1 X33.908 Y125.783 E10.91298
G1 X34.191 Y124.554 E10.95492
G1 X34.224 Y124.422 E10.95945
G1 X34.553 Y123.187 E11.00196
G1 X34.593 Y123.048 E11.00677
G1 X34.962 Y121.841 E11.04875
G1 X35.01 Y121.694 E11.05389
G1 X35.415 Y120.532 E11.09482
G1 X35.471 Y120.381 E11.10017
G1 X36.045 Y118.927 E11.15217
G1 X36.997 Y116.643 E11.23447
G1 X37.975 Y114.093 E11.3253
G1 X38.887 Y111.5 E11.41673
G1 X39.705 Y108.947 E11.50589
G1 X40.454 Y106.356 E11.5956
G1 X41.14 Y103.704 E11.68671
G1 X41.756 Y101.018 E11.77836
G1 X42.277 Y98.397 E11.86724
G1 X42.727 Y95.746 E11.95668
G1 X43.111 Y93.025 E12.04807
G1 X43.414 Y90.33 E12.13828
G1 X43.64 Y87.634 E12.22826
G1 X43.789 Y84.93 E12.31833
G1 X43.864 Y82.186 E12.40963
G1 X43.86 Y79.492 E12.49923
G1 X43.825 Y78.377 E12.53634
G1 X43.8 Y77.178 E12.57622
G1 X43.828 Y76.614 E12.59501
G1 X43.936 Y76.059 E12.61381
G1 X44.12 Y75.524 E12.63263
G1 X44.378 Y75.021 E12.65143
G1 X44.705 Y74.56 E12.67023
G1 X45.093 Y74.149 E12.68903
G1 X45.536 Y73.797 E12.70785
G0 F3000 X45.924 Y74.022
G1 F1200 X46.401 Y73.777 E12.72568
G1 X46.909 Y73.607 E12.7435
G1 X47.682 Y73.497 E12.76947
G1 X47.971 Y73.488 E12.77909
G1 X48.789 Y73.478 E12.8063
G1 X50.803 Y73.446 E12.87329
G1 X53.53 Y73.33 E12.96407
G1 X56.26 Y73.136 E13.0551
G1 X58.935 Y72.871 E13.14451
G1 X61.675 Y72.521 E13.23638
G1 X64.352 Y72.1 E13.32651
G1 X67.032 Y71.602 E13.41718
G1 X69.649 Y71.038 E13.50622
G1 X72.365 Y70.373 E13.59922
G1 X74.983 Y69.653 E13.68953
G1 X77.576 Y68.859 E13.77972
G1 X80.16 Y67.987 E13.87043
G1 X82.727 Y67.04 E13.96143
G1 X85.263 Y66.022 E14.05232
G1 X87.753 Y64.939 E14.14263
G1 X90.201 Y63.791 E14.23256
G1 X92.668 Y62.549 E14.32443
G1 X94.35 Y61.633 E14.38813
G1 X95.443 Y61.05 E14.42933
G1 X96.197 Y60.665 E14.45749
G1 X96.361 Y60.586 E14.46354
G1 X97.715 Y59.979 E14.5129
G1 X97.837 Y59.927 E14.51731
G1 X98.382 Y59.707 E14.53686
G1 X98.607 Y59.621 E14.54487
G1 X99.505 Y59.303 E14.57655
G1 X99.931 Y59.165 E14.59145
G1 X100.944 Y58.86 E14.62663
G1 X101.267 Y58.772 E14.63777
G1 X102.248 Y58.527 E14.6714
G1 X102.696 Y58.429 E14.68665
G1 X103.744 Y58.219 E14.7222
G1 X104.202 Y58.141 E14.73765
G1 X105.077 Y58.006 E14.7671
G1 X105.708 Y57.927 E14.78825
G1 X106.782 Y57.813 E14.82417
G1 X107.597 Y57.752 E14.85136
G1 X108.534 Y57.697 E14.88257
G1 X109.049 Y57.679 E14.89971
G1 X109.395 Y57.672 E14.91122
G1 X110.898 Y57.664 E14.96121
G1 X111.484 Y57.677 E14.98071
G1 X111.588 Y57.681 E14.98417
G1 X112.51 Y57.731 E15.01488
G1 X112.635 Y57.74 E15.01905
G1 X113.833 Y57.847 E15.05905
G1 X113.978 Y57.863 E15.06391
G1 X115.23 Y58.026 E15.1059
G1 X115.347 Y58.043 E15.10983
G1 X116.055 Y58.159 E15.13369
G1 X116.203 Y58.187 E15.1387
G1 X117.217 Y58.397 E15.17315
G1 X117.378 Y58.434 E15.17864
G1 X118.369 Y58.687 E15.21266
G1 X118.517 Y58.728 E15.21777
G1 X119.633 Y59.066 E15.25655
G1 X120.561 Y59.392 E15.28926
G1 X120.829 Y59.494 E15.2988
G1 X121.761 Y59.873 E15.33226
G1 X121.906 Y59.936 E15.33752
G1 X122.786 Y60.34 E15.36973
G1 X122.994 Y60.443 E15.37745
G1 X123.805 Y60.864 E15.40784
G1 X124.044 Y60.995 E15.41691
G1 X124.842 Y61.459 E15.44761
G1 X125.001 Y61.557 E15.45382
G1 X125.807 Y62.077 E15.48572
G1 X126.036 Y62.233 E15.49494
G1 X126.755 Y62.747 E15.52433
G1 X126.972 Y62.91 E15.53336
G1 X127.732 Y63.508 E15.56553
G1 X127.862 Y63.615 E15.57113
G1 X128.673 Y64.318 E15.60682
G1 X128.788 Y64.423 E15.612
G1 X129.505 Y65.1 E15.6448
G1 X129.619 Y65.214 E15.65016
G1 X130.258 Y65.874 E15.68072
G1 X130.388 Y66.015 E15.6871
G1 X131.463 Y67.251 E15.74158
G1 X131.544 Y67.348 E15.74578
G1 X131.955 Y67.856 E15.76752
G1 X132.152 Y68.113 E15.77829
G1 X133.065 Y69.373 E15.83004
G1 X133.141 Y69.482 E15.83446
G1 X133.603 Y70.172 E15.86208
G1 X133.677 Y70.286 E15.8666
G1 X134.451 Y71.542 E15.91567
G1 X134.515 Y71.65 E15.91984
G1 X134.956 Y72.428 E15.94959
G1 X135.238 Y72.96 E15.96961
G1 X135.681 Y73.831 E16.00212
G1 X135.931 Y74.356 E16.02146
G1 X136.406 Y75.404 E16.05973
G1 X136.646 Y75.977 E16.08039
G1 X137.064 Y77.026 E16.11795
G1 X137.349 Y77.8 E16.14538
G1 X137.644 Y78.645 E16.17515
G1 X137.679 Y78.751 E16.17886
G1 X138.022 Y79.843 E16.21693
G1 X138.297 Y80.771 E16.24912
G1 X138.367 Y81.029 E16.25801
G1 X138.608 Y81.949 E16.28964
G1 X138.851 Y82.939 E16.32355
G1 X139.148 Y84.324 E16.37066
G1 X139.341 Y85.3 E16.40375
G1 X139.402 Y85.649 E16.41554
G1 X139.637 Y87.077 E16.46367
G1 X139.804 Y88.206 E16.50163
G1 X139.843 Y88.52 E16.51215
G1 X140.028 Y90.124 E16.56586
G1 X140.133 Y91.175 E16.60099
G1 X140.299 Y93.533 E16.67961
G1 X140.354 Y94.558 E16.71375
G1 X140.363 Y94.836 E16.723
G1 X140.418 Y97.26 E16.80364
G1 X140.424 Y99.205 E16.86834
G1 X140.417 Y99.647 E16.88304
G1 X140.362 Y101.351 E16.93974
G1 X140.343 Y101.732 E16.95243
G1 X140.219 Y103.615 E17.0152
G1 X140.193 Y103.91 E17.02505
G1 X140.026 Y105.585 E17.08103
G1 X139.854 Y106.898 E17.12508
G1 X139.614 Y108.39 E17.17534
G1 X139.335 Y109.837 E17.22435
G1 X139.309 Y109.961 E17.22857
G1 X139.026 Y111.19 E17.27051
G1 X138.997 Y111.309 E17.27459
G1 X138.668 Y112.544 E17.31709
G1 X138.632 Y112.669 E17.32142
G1 X138.262 Y113.88 E17.36354
G1 X138.218 Y114.013 E17.3682
G1 X137.83 Y115.126 E17.4074
G1 X137.781 Y115.26 E17.41215
G1 X137.149 Y116.861 E17.46939
G1 X136.282 Y118.935 E17.54416
G1 X135.289 Y121.515 E17.63611
G1 X134.391 Y124.056 E17.72574
G1 X133.554 Y126.66 E17.81672
G1 X132.793 Y129.277 E17.90736
G1 X132.108 Y131.911 E17.99789
G1 X131.488 Y134.603 E18.08977
G1 X130.956 Y137.258 E18.17983
G1 X130.501 Y139.919 E18.26962
G1 X130.114 Y142.636 E18.3609
G1 X129.806 Y145.347 E18.45165
G1 X129.576 Y148.063 E18.5423
G1 X129.423 Y150.759 E18.63212
G1 X129.345 Y153.524 E18.72412
G1 X129.345 Y156.235 E18.81429
G1 X129.379 Y157.318 E18.85032
G1 X129.406 Y158.667 E18.8952
G1 X129.377 Y159.202 E18.91302
G1 X129.269 Y159.728 E18.93088
G1 X129.083 Y160.231 E18.94872
G1 X128.825 Y160.701 E18.96655
G1 X128.5 Y161.128 E18.9844
G1 X128.116 Y161.501 E19.0022
G1 X127.68 Y161.814 E19.02006
G1 X127.202 Y162.058 E19.03791
G1 X126.694 Y162.228 E19.05572
G1 X125.925 Y162.337 E19.08156
