;FLAVOR:Marlin
;TIME:2879
;Filament used: 0.903549m
;Layer height: 0.1
;MINX:24.137
;MINY:24.135
;MINZ:0.2
;MAXX:190.286
;MAXY:190.287
;MAXZ:2.2
;Generated with Cura_SteamEngine master
M82 ;absolute extrusion mode
;Sliced at: Sat 29-10-2022 19:44:03
;Basic settings: Layer height: 0.1 Walls: 0.8 Fill: 30.0
G21 ;metric values
G90 ;absolute positioning
M82 ;set extruder to absolute mode
M107 ;start with the fan off
M117 Start heating ...
M104 S200
M117 Homing X/Y ...
G28 X0 Y0 ;move X/Y to min endstops
M117 Homing Z ...
G28 Z0 ;move Z to min endstops
G1 Z15.0 F100 ;move the platform down 15mm
M117 Heating ...
M109 S200
M117 Start cleaning ...
G92 E0 ;zero the extruded length
G1 F200 E10 ;extrude 10mm of feed stock
G92 E0 ;zero the extruded length again
M117 Intro line ...
G1 Z2.0 F3000 ; Move Z Axis up little to prevent scratching of Heat Bed
G1 X0.1 Y20 Z0.1 F5000.0 ; Move to start position
G1 X0.1 Y200.0 Z0.1 F1500.0 E15 ; Draw the first line
G1 X0.4 Y200.0 Z0.1 F5000.0 ; Move to side a little
G1 X0.4 Y20 Z0.3 F1500.0 E30 ; Draw the second line
G92 E0 ; Reset Extruder
G1 E-1 F500 ; Retract filiment by 1 mm
G1 Z2.0 F3000 ; Move Z Axis up little to prevent scratching of Heat Bed
G1 X5 Y20 Z0.3 F100 ; Move over to prevent blob squish
G1 F100
G92 E0 ; Reset Extruder
M117 Printing...

G92 E0
G92 E0
G1 F1800 E-7
;LAYER_COUNT:19
;LAYER:0
M107
G1 F300 Z0.4
G0 F3000 X31.155 Y31.17 Z0.4
;TYPE:SKIRT
G1 F300 Z0.2
G1 F1800 E0
G1 F1200 X31.773 Y30.573 E0.02858
G1 X32.029 Y30.338 E0.04014
G1 X32.696 Y29.756 E0.06958
G1 X32.922 Y29.57 E0.07932
G1 X33.608 Y29.027 E0.10841
G1 X33.898 Y28.811 E0.12044
G1 X34.615 Y28.301 E0.14971
G1 X34.832 Y28.156 E0.15839
G1 X35.5 Y27.727 E0.18479
G1 X35.872 Y27.503 E0.19923
G1 X36.61 Y27.081 E0.22751
G1 X36.917 Y26.916 E0.2391
G1 X37.67 Y26.535 E0.26717
G1 X37.977 Y26.389 E0.27848
G1 X38.773 Y26.034 E0.30747
G1 X39.072 Y25.91 E0.31823
G1 X39.801 Y25.626 E0.34425
G1 X40.186 Y25.487 E0.35787
G1 X40.885 Y25.254 E0.38237
G1 X41.329 Y25.119 E0.39781
G1 X42.135 Y24.896 E0.42562
G1 X42.489 Y24.809 E0.43775
G1 X43.361 Y24.614 E0.46747
G1 X43.653 Y24.556 E0.47737
G1 X44.428 Y24.422 E0.50353
G1 X44.832 Y24.362 E0.51711
G1 X45.579 Y24.271 E0.54214
G1 X46.014 Y24.229 E0.55668
G1 X46.904 Y24.165 E0.58635
G1 X47.197 Y24.153 E0.59611
G1 X48.074 Y24.135 E0.62528
G1 X48.296 Y24.135 E0.63267
G1 X49.157 Y24.158 E0.66131
G1 X49.596 Y24.18 E0.67593
G1 X50.47 Y24.249 E0.70509
G1 X50.77 Y24.281 E0.71513
G1 X51.676 Y24.398 E0.74551
G1 X51.958 Y24.443 E0.75501
G1 X52.824 Y24.598 E0.78427
G1 X53.146 Y24.664 E0.7952
G1 X53.977 Y24.858 E0.82359
G1 X54.328 Y24.949 E0.83565
G1 X55.149 Y25.184 E0.86405
G1 X55.398 Y25.263 E0.87274
G1 X56.246 Y25.551 E0.90253
G1 X56.604 Y25.683 E0.91522
G1 X57.416 Y26.005 E0.94427
G1 X57.675 Y26.116 E0.95364
G1 X58.492 Y26.488 E0.9835
G1 X58.778 Y26.628 E0.99409
G1 X59.528 Y27.016 E1.02218
G1 X59.827 Y27.181 E1.03353
G1 X60.555 Y27.605 E1.06155
G1 X60.862 Y27.795 E1.07356
G1 X61.605 Y28.277 E1.10302
G1 X61.838 Y28.439 E1.11246
G1 X62.485 Y28.905 E1.13898
G1 X62.832 Y29.171 E1.15352
G1 X63.537 Y29.736 E1.18357
G1 X63.727 Y29.899 E1.1919
G1 X64.327 Y30.431 E1.21857
G1 X64.667 Y30.749 E1.23405
G1 X65.266 Y31.337 E1.26197
G1 X65.477 Y31.556 E1.27208
G1 X66.067 Y32.195 E1.30101
G1 X66.274 Y32.433 E1.3115
G1 X66.812 Y33.078 E1.33944
G1 X67.034 Y33.358 E1.35132
G1 X67.606 Y34.118 E1.38296
G1 X67.712 Y34.268 E1.38907
G1 X68.196 Y34.981 E1.41773
G1 X68.429 Y35.342 E1.43202
G1 X68.809 Y35.965 E1.45629
G1 X69.007 Y36.31 E1.46952
G1 X69.404 Y37.042 E1.49722
G1 X69.576 Y37.378 E1.50977
G1 X69.919 Y38.091 E1.53609
G1 X70.069 Y38.426 E1.5483
G1 X70.414 Y39.248 E1.57795
G1 X70.533 Y39.553 E1.58884
G1 X70.837 Y40.388 E1.61839
G1 X70.931 Y40.67 E1.62828
G1 X71.268 Y41.763 E1.66632
G1 X71.904 Y43.903 E1.74057
G1 X72.74 Y46.45 E1.82974
G1 X73.67 Y49.034 E1.92108
G1 X74.661 Y51.559 E2.01129
G1 X75.736 Y54.085 E2.1026
G1 X76.848 Y56.508 E2.19127
G1 X78.056 Y58.953 E2.28198
G1 X79.325 Y61.351 E2.37221
G1 X80.672 Y63.73 E2.46314
G1 X82.057 Y66.021 E2.55218
G1 X83.551 Y68.343 E2.64402
G1 X85.064 Y70.554 E2.73313
G1 X86.684 Y72.783 E2.82478
G1 X88.32 Y74.906 E2.91392
G1 X90.04 Y77.011 E3.00433
G1 X91.814 Y79.062 E3.09453
G1 X93.778 Y81.203 E3.19116
G1 X188.539 Y181.451 E7.77929
G1 X188.891 Y181.834 E7.79659
G1 X189.226 Y182.234 E7.81394
G1 X189.553 Y182.696 E7.83277
G1 X189.841 Y183.256 E7.85371
G1 X190.115 Y184.023 E7.8808
G1 X190.168 Y184.239 E7.8882
G1 X190.263 Y184.796 E7.90699
G1 X190.286 Y185.369 E7.92607
G1 X190.256 Y185.934 E7.94489
G1 X190.133 Y186.553 E7.96588
G1 X189.914 Y187.217 E7.98913
G1 X189.655 Y187.719 E8.00792
G1 X189.328 Y188.18 E8.02672
G1 X188.887 Y188.652 E8.0482
G1 X188.441 Y189.091 E8.06902
G1 X188.011 Y189.458 E8.08782
G1 X187.533 Y189.76 E8.10662
G1 X187.018 Y189.992 E8.12541
G1 X186.478 Y190.148 E8.14411
G1 X186.273 Y190.192 E8.15108
G1 X185.612 Y190.277 E8.17325
G1 X185.387 Y190.287 E8.18074
G1 X184.821 Y190.272 E8.19957
G1 X184.143 Y190.153 E8.22246
G1 X183.6 Y189.996 E8.24126
G1 X182.926 Y189.684 E8.26597
G1 X182.315 Y189.299 E8.28999
G1 X181.953 Y189.002 E8.30556
G1 X181.393 Y188.487 E8.33086
G1 X81.186 Y93.762 E12.91718
G1 X79.17 Y91.911 E13.00821
G1 X77.159 Y90.166 E13.09676
G1 X75.042 Y88.43 E13.18782
G1 X72.873 Y86.753 E13.27901
G1 X70.698 Y85.167 E13.36854
G1 X68.458 Y83.629 E13.45892
G1 X66.182 Y82.159 E13.54903
G1 X63.838 Y80.738 E13.6402
G1 X61.495 Y79.406 E13.72984
G1 X59.085 Y78.124 E13.82064
G1 X56.654 Y76.92 E13.91086
G1 X54.203 Y75.789 E14.00065
G1 X51.707 Y74.723 E14.09092
G1 X49.161 Y73.718 E14.18196
G1 X46.591 Y72.791 E14.27283
G1 X44.052 Y71.952 E14.36176
G1 X42.089 Y71.368 E14.42988
G1 X40.624 Y70.915 E14.48088
G1 X40 Y70.701 E14.50282
G1 X39.635 Y70.566 E14.51577
G1 X38.831 Y70.246 E14.54455
G1 X38.558 Y70.129 E14.55443
G1 X37.805 Y69.785 E14.58196
G1 X37.4 Y69.588 E14.59694
G1 X36.663 Y69.204 E14.62458
G1 X36.265 Y68.981 E14.63976
G1 X35.19 Y68.328 E14.68159
G1 X34.69 Y68.005 E14.70139
G1 X34.34 Y67.762 E14.71556
G1 X33.635 Y67.248 E14.74458
G1 X33.368 Y67.04 E14.75584
G1 X32.602 Y66.421 E14.78859
G1 X32.473 Y66.31 E14.79425
G1 X31.843 Y65.747 E14.82236
G1 X31.523 Y65.446 E14.83697
G1 X30.936 Y64.864 E14.86446
G1 X30.721 Y64.639 E14.87481
G1 X30.225 Y64.099 E14.8992
G1 X29.902 Y63.73 E14.91551
G1 X29.35 Y63.063 E14.94431
G1 X29.154 Y62.812 E14.9549
G1 X28.687 Y62.189 E14.98079
G1 X28.45 Y61.855 E14.99442
G1 X27.984 Y61.163 E15.02216
G1 X27.774 Y60.831 E15.03523
G1 X27.367 Y60.153 E15.06153
G1 X27.176 Y59.817 E15.07439
G1 X26.832 Y59.18 E15.09846
G1 X26.616 Y58.752 E15.11441
G1 X26.25 Y57.979 E15.14286
G1 X26.115 Y57.672 E15.15401
G1 X25.797 Y56.901 E15.18175
G1 X25.68 Y56.595 E15.19265
G1 X25.405 Y55.829 E15.21972
G1 X25.286 Y55.465 E15.23245
G1 X25.032 Y54.626 E15.26161
G1 X24.938 Y54.277 E15.27363
G1 X24.73 Y53.439 E15.30235
G1 X24.668 Y53.154 E15.31205
G1 X24.518 Y52.398 E15.33768
G1 X24.442 Y51.953 E15.3527
G1 X24.337 Y51.235 E15.37683
G1 X24.281 Y50.769 E15.39244
G1 X24.202 Y49.933 E15.42037
G1 X24.179 Y49.578 E15.43221
G1 X24.145 Y48.829 E15.45714
G1 X24.137 Y48.406 E15.47121
G1 X24.142 Y47.537 E15.50012
G1 X24.153 Y47.204 E15.5112
G1 X24.205 Y46.273 E15.54221
G1 X24.222 Y46.069 E15.54902
G1 X24.302 Y45.297 E15.57484
G1 X24.358 Y44.857 E15.58959
G1 X24.472 Y44.114 E15.61459
G1 X24.559 Y43.634 E15.63081
G1 X24.736 Y42.778 E15.65989
G1 X24.807 Y42.482 E15.67001
G1 X25.021 Y41.665 E15.6981
G1 X25.108 Y41.363 E15.70856
G1 X25.345 Y40.603 E15.73503
G1 X25.464 Y40.254 E15.7473
G1 X25.727 Y39.534 E15.77279
G1 X25.883 Y39.14 E15.78689
G1 X26.184 Y38.428 E15.8126
G1 X26.389 Y37.977 E15.82907
G1 X26.738 Y37.259 E15.85563
G1 X26.933 Y36.886 E15.86963
G1 X27.345 Y36.138 E15.89803
G1 X27.499 Y35.876 E15.90814
G1 X27.946 Y35.152 E15.93644
G1 X28.154 Y34.834 E15.94908
G1 X28.621 Y34.158 E15.9764
G1 X28.82 Y33.885 E15.98764
G1 X29.361 Y33.179 E16.01722
G1 X29.564 Y32.927 E16.02798
G1 X30.035 Y32.37 E16.05225
G1 X30.34 Y32.027 E16.06751
G1 X30.872 Y31.458 E16.09342
G1 X31.155 Y31.17 E16.10685
G0 F3000 X31.433 Y31.457
G1 F1200 X32.046 Y30.866 E16.13517
G1 X32.292 Y30.639 E16.1463
G1 X32.952 Y30.064 E16.17542
G1 X33.171 Y29.883 E16.18487
G1 X33.848 Y29.347 E16.21359
G1 X34.131 Y29.136 E16.22533
G1 X34.839 Y28.633 E16.25422
G1 X35.049 Y28.493 E16.26261
G1 X35.803 Y28.01 E16.29239
G1 X36.071 Y27.85 E16.30277
G1 X36.8 Y27.433 E16.33071
G1 X37.098 Y27.273 E16.34196
G1 X37.843 Y26.895 E16.36974
G1 X38.141 Y26.754 E16.38071
G1 X38.927 Y26.403 E16.40934
G1 X39.217 Y26.283 E16.41978
G1 X40.038 Y25.964 E16.44907
G1 X40.313 Y25.867 E16.45877
G1 X41.098 Y25.606 E16.48629
G1 X41.436 Y25.504 E16.49803
G1 X42.136 Y25.309 E16.5222
G1 X42.577 Y25.199 E16.53731
G1 X43.439 Y25.006 E16.56669
G1 X43.722 Y24.951 E16.57628
G1 X44.574 Y24.804 E16.60504
G1 X44.881 Y24.759 E16.61536
G1 X45.706 Y24.66 E16.643
G1 X46.043 Y24.627 E16.65426
G1 X46.828 Y24.57 E16.68044
G1 X47.206 Y24.553 E16.69302
G1 X48.074 Y24.535 E16.7219
G1 X48.397 Y24.536 E16.73264
G1 X49.225 Y24.56 E16.76019
G1 X49.565 Y24.579 E16.77152
G1 X50.43 Y24.647 E16.80038
G1 X50.719 Y24.678 E16.81004
G1 X51.518 Y24.78 E16.83683
G1 X51.888 Y24.837 E16.84928
G1 X52.747 Y24.991 E16.87831
G1 X53.056 Y25.054 E16.8888
G1 X53.878 Y25.246 E16.91688
G1 X54.218 Y25.334 E16.92856
G1 X55.031 Y25.567 E16.95669
G1 X55.27 Y25.642 E16.96502
G1 X56.109 Y25.927 E16.99449
G1 X56.458 Y26.055 E17.00685
G1 X57.26 Y26.373 E17.03555
G1 X57.509 Y26.48 E17.04456
G1 X58.319 Y26.849 E17.07417
G1 X58.595 Y26.983 E17.08437
G1 X59.337 Y27.367 E17.11216
G1 X59.626 Y27.526 E17.12313
G1 X60.346 Y27.946 E17.15085
G1 X60.645 Y28.13 E17.16253
G1 X61.288 Y28.546 E17.188
G1 X61.604 Y28.764 E17.20077
G1 X62.251 Y29.23 E17.22729
G1 X62.582 Y29.483 E17.24115
G1 X63.2 Y29.977 E17.26746
G1 X63.462 Y30.198 E17.27886
G1 X63.993 Y30.668 E17.30245
G1 X64.387 Y31.035 E17.32036
G1 X64.979 Y31.615 E17.34792
G1 X65.184 Y31.828 E17.35775
G1 X65.702 Y32.387 E17.3831
G1 X65.967 Y32.689 E17.39647
G1 X66.5 Y33.328 E17.42414
G1 X66.715 Y33.599 E17.43565
G1 X67.28 Y34.35 E17.4669
G1 X67.381 Y34.493 E17.47273
G1 X67.861 Y35.199 E17.50112
G1 X68.087 Y35.55 E17.51501
G1 X68.517 Y36.258 E17.54256
G1 X68.656 Y36.501 E17.55187
G1 X69.049 Y37.226 E17.5793
G1 X69.215 Y37.551 E17.59144
G1 X69.558 Y38.264 E17.61775
G1 X69.701 Y38.582 E17.62935
G1 X70.042 Y39.395 E17.65867
G1 X70.157 Y39.69 E17.6692
G1 X70.458 Y40.518 E17.6985
G1 X70.549 Y40.788 E17.70798
G1 X70.885 Y41.877 E17.74589
G1 X71.527 Y44.037 E17.82083
G1 X72.37 Y46.605 E17.91073
G1 X73.292 Y49.168 E18.00132
G1 X74.279 Y51.683 E18.09119
G1 X75.362 Y54.228 E18.18318
G1 X76.491 Y56.687 E18.27317
G1 X77.709 Y59.153 E18.36465
G1 X78.974 Y61.542 E18.45456
G1 X80.329 Y63.936 E18.54606
G1 X81.737 Y66.265 E18.63657
G1 X83.201 Y68.539 E18.72653
G1 X84.743 Y70.793 E18.81736
G1 X86.353 Y73.007 E18.90841
G1 X88.026 Y75.179 E18.9996
G1 X89.726 Y77.259 E19.08894
G1 X91.532 Y79.348 E19.18079
G1 X93.469 Y81.458 E19.27606
G1 X188.245 Y181.722 E23.86491
G1 X188.597 Y182.105 E23.88221
G1 X188.917 Y182.487 E23.89879
G1 X189.224 Y182.926 E23.91661
G1 X189.48 Y183.428 E23.93535
G1 X189.726 Y184.118 E23.95971
G1 X189.779 Y184.334 E23.96711
G1 X189.868 Y184.863 E23.98495
G1 X189.887 Y185.376 E24.00203
G1 X189.855 Y185.911 E24.01985
G1 X189.744 Y186.461 E24.03851
G1 X189.546 Y187.059 E24.05947
G1 X189.299 Y187.535 E24.0773
G1 X188.812 Y188.157 E24.10358
G1 X188.548 Y188.426 E24.11611
G1 X188.161 Y188.806 E24.13415
G1 X187.752 Y189.152 E24.15197
G1 X187.295 Y189.433 E24.16981
G1 X186.802 Y189.644 E24.18765
G1 X186.189 Y189.801 E24.2087
G1 X185.594 Y189.877 E24.22865
G1 X185.369 Y189.887 E24.23614
G1 X184.833 Y189.871 E24.25397
G1 X184.227 Y189.762 E24.27445
G1 X183.712 Y189.611 E24.2923
G1 X183.108 Y189.328 E24.31449
G1 X182.558 Y188.982 E24.3361
G1 X182.224 Y188.708 E24.35047
G1 X181.668 Y188.196 E24.37561
G1 X81.461 Y93.471 E28.96192
G1 X79.457 Y91.63 E29.05243
G1 X77.39 Y89.837 E29.14344
G1 X75.295 Y88.119 E29.23355
G1 X73.125 Y86.441 E29.32479
G1 X70.921 Y84.834 E29.41551
G1 X68.696 Y83.306 E29.50528
G1 X66.386 Y81.814 E29.59675
G1 X64.053 Y80.4 E29.68748
G1 X61.659 Y79.039 E29.77908
G1 X59.313 Y77.792 E29.86744
G1 X56.807 Y76.549 E29.96048
G1 X54.362 Y75.422 E30.05003
G1 X51.874 Y74.359 E30.14001
G1 X49.266 Y73.33 E30.23326
G1 X46.748 Y72.421 E30.3223
G1 X44.185 Y71.575 E30.41207
G1 X42.207 Y70.986 E30.48072
G1 X40.861 Y70.571 E30.52756
G1 X40.13 Y70.322 E30.55325
G1 X39.783 Y70.194 E30.56555
G1 X38.985 Y69.877 E30.59411
G1 X38.723 Y69.765 E30.60359
G1 X37.979 Y69.425 E30.63079
G1 X37.584 Y69.233 E30.6454
G1 X36.856 Y68.853 E30.67271
G1 X36.473 Y68.639 E30.68731
G1 X35.305 Y67.928 E30.73279
G1 X34.806 Y67.6 E30.75265
G1 X34.575 Y67.438 E30.76203
G1 X33.965 Y66.995 E30.78711
G1 X33.619 Y66.729 E30.80162
G1 X32.862 Y66.117 E30.834
G1 X32.74 Y66.011 E30.83937
G1 X32.116 Y65.454 E30.86719
G1 X31.804 Y65.161 E30.88143
G1 X31.225 Y64.587 E30.90855
G1 X31.016 Y64.368 E30.91862
G1 X30.462 Y63.765 E30.94585
G1 X30.21 Y63.474 E30.95865
G1 X29.664 Y62.815 E30.98712
G1 X29.474 Y62.572 E30.99738
G1 X28.948 Y61.868 E31.02661
G1 X28.782 Y61.631 E31.03623
G1 X28.321 Y60.947 E31.06367
G1 X28.117 Y60.625 E31.07634
G1 X27.715 Y59.955 E31.10233
G1 X27.528 Y59.627 E31.11489
G1 X27.137 Y58.9 E31.14234
G1 X26.977 Y58.58 E31.15424
G1 X26.652 Y57.896 E31.17943
G1 X26.484 Y57.519 E31.19316
G1 X26.205 Y56.846 E31.21739
G1 X26.057 Y56.459 E31.23117
G1 X25.747 Y55.592 E31.2618
G1 X25.668 Y55.349 E31.27029
G1 X25.445 Y54.615 E31.29581
G1 X25.326 Y54.18 E31.31081
G1 X25.121 Y53.352 E31.33918
G1 X25.061 Y53.077 E31.34854
G1 X24.893 Y52.226 E31.37739
G1 X24.838 Y51.895 E31.38855
G1 X24.72 Y51.08 E31.41594
G1 X24.68 Y50.731 E31.42763
G1 X24.601 Y49.906 E31.45519
G1 X24.579 Y49.56 E31.46672
G1 X24.542 Y48.712 E31.49495
G1 X24.537 Y48.408 E31.50507
G1 X24.54 Y47.642 E31.53054
G1 X24.552 Y47.226 E31.54439
G1 X24.597 Y46.398 E31.57197
G1 X24.62 Y46.11 E31.58157
G1 X24.709 Y45.257 E31.6101
G1 X24.754 Y44.918 E31.62147
G1 X24.883 Y44.08 E31.64967
G1 X24.951 Y43.715 E31.66202
G1 X25.126 Y42.869 E31.69076
G1 X25.194 Y42.583 E31.70053
G1 X25.383 Y41.857 E31.72549
G1 X25.49 Y41.482 E31.73846
G1 X25.755 Y40.637 E31.76791
G1 X25.84 Y40.391 E31.77657
G1 X26.14 Y39.572 E31.80558
G1 X26.251 Y39.296 E31.81547
G1 X26.552 Y38.584 E31.84118
G1 X26.749 Y38.152 E31.85697
G1 X27.094 Y37.442 E31.88323
G1 X27.283 Y37.078 E31.89687
G1 X27.647 Y36.415 E31.92203
G1 X27.839 Y36.086 E31.9347
G1 X28.282 Y35.369 E31.96273
G1 X28.483 Y35.061 E31.97496
G1 X28.945 Y34.392 E32.002
G1 X29.138 Y34.128 E32.01288
G1 X29.674 Y33.428 E32.0422
G1 X29.869 Y33.185 E32.05257
G1 X30.402 Y32.557 E32.07996
G1 X30.632 Y32.3 E32.09143
G1 X31.222 Y31.671 E32.12012
G1 X31.433 Y31.457 E32.13011
G0 F3000 X31.711 Y31.745
G1 F1200 X32.319 Y31.159 E32.1582
G1 X32.556 Y30.94 E32.16893
G1 X33.208 Y30.371 E32.19771
G1 X33.42 Y30.196 E32.20686
G1 X34.088 Y29.667 E32.2352
G1 X34.363 Y29.462 E32.24661
G1 X35.062 Y28.965 E32.27513
G1 X35.265 Y28.829 E32.28326
G1 X35.933 Y28.4 E32.30966
G1 X36.27 Y28.197 E32.32275
G1 X36.991 Y27.784 E32.35038
G1 X37.279 Y27.629 E32.36126
G1 X38.015 Y27.256 E32.38871
G1 X38.304 Y27.119 E32.39934
G1 X39.081 Y26.772 E32.42765
G1 X39.362 Y26.655 E32.43777
G1 X40.091 Y26.371 E32.46379
G1 X40.439 Y26.246 E32.47609
G1 X41.138 Y26.013 E32.5006
G1 X41.543 Y25.889 E32.51469
G1 X42.243 Y25.694 E32.53885
G1 X42.665 Y25.589 E32.55332
G1 X43.517 Y25.398 E32.58236
G1 X43.79 Y25.345 E32.59161
G1 X44.634 Y25.2 E32.62009
G1 X44.929 Y25.156 E32.63001
G1 X45.746 Y25.058 E32.65738
G1 X46.072 Y25.026 E32.66827
G1 X46.941 Y24.964 E32.69725
G1 X47.214 Y24.953 E32.70634
G1 X48.074 Y24.935 E32.73495
G1 X48.296 Y24.935 E32.74233
G1 X49.135 Y24.957 E32.77025
G1 X49.534 Y24.978 E32.78354
G1 X50.389 Y25.045 E32.81206
G1 X50.668 Y25.075 E32.82139
G1 X51.554 Y25.189 E32.85111
G1 X51.817 Y25.231 E32.85996
G1 X52.67 Y25.384 E32.88879
G1 X52.965 Y25.443 E32.89879
G1 X53.779 Y25.633 E32.92659
G1 X54.108 Y25.719 E32.93791
G1 X54.914 Y25.949 E32.96578
G1 X55.142 Y26.021 E32.97374
G1 X55.972 Y26.302 E33.00288
G1 X56.311 Y26.427 E33.0149
