;FLAVOR:Marlin
;TIME:5376
;Filament used: 1.0618m
;Layer height: 0.1
;MINX:97.018
;MINY:69.84
;MINZ:0.1
;MAXX:122.98
;MAXY:150.167
;MAXZ:5
;Generated with Cura_SteamEngine master
M82 ;absolute extrusion mode
;Sliced at: Sun 15-01-2023 14:20:13
;Basic settings: Layer height: 0.1 Walls: 0.8 Fill: 100.0
G21 ;metric values
G90 ;absolute positioning
M82 ;set extruder to absolute mode
M107 ;start with the fan off
M117 Start heating ...
M104 S200
M117 Homing X/Y ...
G28 X0 Y0 ;move X/Y to min endstops
M117 Homing Z ...
G28 Z0 ;move Z to min endstops
G1 Z15.0 F50 ;move the platform down 15mm
M117 Heating ...
M109 S200
M117 Start cleaning ...
G92 E0 ;zero the extruded length
G1 F200 E10 ;extrude 10mm of feed stock
G92 E0 ;zero the extruded length again
M117 Intro line ...
G1 Z2.0 F3000 ; Move Z Axis up little to prevent scratching of Heat Bed
G1 X0.1 Y20 Z0.1 F5000.0 ; Move to start position
G1 X0.1 Y200.0 Z0.1 F1500.0 E15 ; Draw the first line
G1 X0.4 Y200.0 Z0.1 F5000.0 ; Move to side a little
G1 X0.4 Y20 Z0.3 F1500.0 E30 ; Draw the second line
G92 E0 ; Reset Extruder
G1 E-1 F500 ; Retract filiment by 1 mm
G1 Z2.0 F3000 ; Move Z Axis up little to prevent scratching of Heat Bed
G1 X5 Y20 Z0.3 F50 ; Move over to prevent blob squish
G1 F50
G92 E0 ; Reset Extruder
M117 Printing...

G92 E0
G92 E0
G1 F1800 E-7
;LAYER_COUNT:48
;LAYER:0
M107
G1 F300 Z0.3
G0 F1500 X99.774 Y74.828 Z0.3
;TYPE:SKIRT
G1 F300 Z0.1
G1 F1800 E0
G1 F900 X100.181 Y74.34 E0.01057
G1 X100.604 Y73.869 E0.0211
G1 X101.012 Y73.456 E0.03075
G1 X101.455 Y73.053 E0.04071
G1 X101.978 Y72.612 E0.05209
G1 X102.552 Y72.195 E0.06388
G1 X103.35 Y71.679 E0.07969
G1 X104.026 Y71.303 E0.09255
G1 X104.502 Y71.063 E0.10142
G1 X104.999 Y70.842 E0.11046
G1 X105.228 Y70.751 E0.11456
G1 X105.723 Y70.566 E0.12335
G1 X106.248 Y70.395 E0.13253
G1 X106.845 Y70.23 E0.14283
G1 X107.561 Y70.074 E0.15502
G1 X108.169 Y69.973 E0.16527
G1 X108.705 Y69.91 E0.17424
G1 X108.874 Y69.896 E0.17706
G1 X109.612 Y69.85 E0.18936
G1 X109.977 Y69.84 E0.19543
G1 X110.805 Y69.863 E0.20921
G1 X111.428 Y69.921 E0.21961
G1 X112.041 Y70.008 E0.22991
G1 X112.273 Y70.048 E0.23382
G1 X112.938 Y70.185 E0.24511
G1 X113.619 Y70.354 E0.25678
G1 X114.496 Y70.646 E0.27216
G1 X114.733 Y70.738 E0.27638
G1 X115.467 Y71.052 E0.28966
G1 X115.975 Y71.295 E0.29902
G1 X116.81 Y71.774 E0.31503
G1 X117.016 Y71.906 E0.3191
G1 X117.657 Y72.346 E0.33203
G1 X118.156 Y72.72 E0.3424
G1 X118.515 Y73.023 E0.35021
G1 X118.982 Y73.446 E0.36069
G1 X119.457 Y73.927 E0.37193
G1 X119.91 Y74.444 E0.38337
G1 X120.408 Y75.072 E0.3967
G1 X120.77 Y75.568 E0.40691
G1 X121.024 Y75.961 E0.41469
G1 X121.346 Y76.504 E0.42519
G1 X121.592 Y76.967 E0.43391
G1 X121.832 Y77.479 E0.44331
G1 X121.928 Y77.707 E0.44742
G1 X122.244 Y78.522 E0.46196
G1 X122.381 Y78.932 E0.46915
G1 X122.619 Y79.784 E0.48386
G1 X122.748 Y80.334 E0.49326
G1 X122.81 Y80.703 E0.49948
G1 X122.902 Y81.408 E0.5113
G1 X122.927 Y81.653 E0.5154
G1 X122.962 Y82.165 E0.52393
G1 X122.98 Y82.821 E0.53484
G1 X122.959 Y83.634 E0.54837
G1 X122.9 Y84.358 E0.56045
G1 X122.836 Y84.794 E0.56778
G1 X122.62 Y86.052 E0.589
G1 X122.388 Y87.295 E0.61003
G1 X121.962 Y90.006 E0.65567
G1 X121.617 Y92.702 E0.70087
G1 X121.349 Y95.389 E0.74578
G1 X121.155 Y98.114 E0.79121
G1 X121.041 Y100.771 E0.83544
G1 X121 Y103.618 E0.88279
G1 X121 Y139.618 E1.48147
G1 X120.99 Y140.319 E1.49313
G1 X120.909 Y141.064 E1.50559
G1 X120.86 Y141.288 E1.5094
G1 X120.717 Y141.881 E1.51955
G1 X119.858 Y145.237 E1.57716
G1 X119.833 Y145.358 E1.57921
G1 X119.679 Y145.959 E1.58953
G1 X119.373 Y147.086 E1.60895
G1 X119.187 Y147.62 E1.61835
G1 X118.928 Y148.122 E1.62775
G1 X118.6 Y148.583 E1.63716
G1 X118.308 Y148.904 E1.64437
G1 X117.89 Y149.285 E1.65378
G1 X117.423 Y149.603 E1.66317
G1 X116.915 Y149.852 E1.67258
G1 X116.377 Y150.027 E1.68199
G1 X115.82 Y150.124 E1.69139
G1 X115.496 Y150.144 E1.69679
G1 X114.363 Y150.167 E1.71564
G1 X105.243 Y150.167 E1.8673
G1 X104.562 Y150.157 E1.87863
G1 X103.999 Y150.108 E1.88803
G1 X103.448 Y149.981 E1.89743
G1 X102.921 Y149.778 E1.90682
G1 X102.246 Y149.376 E1.91989
G1 X102.124 Y149.286 E1.92241
G1 X101.694 Y148.919 E1.93181
G1 X101.32 Y148.495 E1.94121
G1 X101.01 Y148.023 E1.95061
G1 X100.769 Y147.511 E1.96002
G1 X100.641 Y147.124 E1.96679
G1 X100.344 Y146.035 E1.98557
G1 X100.106 Y145.096 E2.00168
G1 X99.3 Y141.941 E2.05583
G1 X99.123 Y141.212 E2.0683
G1 X99.013 Y140.412 E2.08173
G1 X99.006 Y140.205 E2.08518
G1 X99 Y139.655 E2.09432
G1 X99 Y103.656 E2.69299
G1 X98.96 Y100.856 E2.73956
G1 X98.847 Y98.185 E2.78402
G1 X98.653 Y95.455 E2.82953
G1 X98.385 Y92.751 E2.87472
G1 X98.039 Y90.05 E2.92001
G1 X97.586 Y87.177 E2.96837
G1 X97.14 Y84.602 E3.01183
G1 X97.066 Y84.024 E3.02152
G1 X97.018 Y83.078 E3.03728
G1 X97.018 Y82.832 E3.04137
G1 X97.038 Y82.111 E3.05336
G1 X97.083 Y81.456 E3.06428
G1 X97.15 Y80.953 E3.07272
G1 X97.267 Y80.302 E3.08372
G1 X97.453 Y79.506 E3.09731
G1 X97.585 Y79.038 E3.1054
G1 X97.831 Y78.306 E3.11824
G1 X98.071 Y77.688 E3.12927
G1 X98.481 Y76.839 E3.14495
G1 X98.601 Y76.617 E3.14914
G1 X98.964 Y75.994 E3.16113
G1 X99.313 Y75.446 E3.17194
G1 X99.774 Y74.828 E3.18476
G0 F1500 X100.09 Y75.074
G1 F900 X100.479 Y74.608 E3.19486
G1 X100.902 Y74.137 E3.20538
G1 X101.281 Y73.752 E3.21437
G1 X101.724 Y73.349 E3.22433
G1 X102.221 Y72.93 E3.23514
G1 X102.778 Y72.525 E3.24659
G1 X103.566 Y72.016 E3.26219
G1 X104.214 Y71.656 E3.27452
G1 X104.682 Y71.421 E3.28323
G1 X105.149 Y71.213 E3.29173
G1 X105.368 Y71.126 E3.29565
G1 X105.863 Y70.941 E3.30444
G1 X106.368 Y70.777 E3.31327
G1 X106.939 Y70.619 E3.32312
G1 X107.638 Y70.466 E3.33502
G1 X108.233 Y70.367 E3.34505
G1 X108.747 Y70.308 E3.35365
G1 X108.899 Y70.295 E3.35619
G1 X109.637 Y70.249 E3.36849
G1 X110.243 Y70.243 E3.37857
G1 X110.79 Y70.263 E3.38767
G1 X111.384 Y70.319 E3.39759
G1 X111.984 Y70.403 E3.40767
G1 X112.192 Y70.44 E3.41118
G1 X112.857 Y70.577 E3.42247
G1 X113.503 Y70.737 E3.43354
G1 X114.362 Y71.023 E3.44859
G1 X114.576 Y71.106 E3.45241
G1 X115.31 Y71.42 E3.46569
G1 X115.786 Y71.647 E3.47446
G1 X116.604 Y72.117 E3.49015
G1 X116.789 Y72.236 E3.4938
G1 X117.43 Y72.676 E3.50673
G1 X117.9 Y73.027 E3.51649
G1 X118.247 Y73.32 E3.52404
G1 X118.714 Y73.743 E3.53452
G1 X119.159 Y74.194 E3.54506
G1 X119.597 Y74.692 E3.55609
G1 X120.095 Y75.32 E3.56942
G1 X120.436 Y75.788 E3.57904
G1 X120.679 Y76.165 E3.5865
G1 X121.001 Y76.708 E3.597
G1 X121.303 Y77.288 E3.60788
G1 X121.556 Y77.852 E3.61816
G1 X121.872 Y78.667 E3.63269
G1 X121.995 Y79.039 E3.63921
G1 X122.233 Y79.891 E3.65392
G1 X122.355 Y80.406 E3.66272
G1 X122.414 Y80.755 E3.66861
G1 X122.506 Y81.46 E3.68043
G1 X122.528 Y81.68 E3.68411
G1 X122.563 Y82.192 E3.69264
G1 X122.58 Y82.811 E3.70294
G1 X122.559 Y83.624 E3.71647
G1 X122.504 Y84.301 E3.72776
G1 X122.442 Y84.727 E3.73492
G1 X122.227 Y85.979 E3.75605
G1 X121.987 Y87.265 E3.7778
G1 X121.568 Y89.93 E3.82267
G1 X121.219 Y92.66 E3.86843
G1 X120.95 Y95.36 E3.91356
G1 X120.757 Y98.073 E3.95879
G1 X120.64 Y100.805 E4.00426
G1 X120.6 Y103.613 E4.05097
G1 X120.6 Y139.612 E4.64963
G1 X120.59 Y140.313 E4.66129
G1 X120.517 Y140.983 E4.6725
G1 X120.472 Y141.194 E4.67609
G1 X120.329 Y141.782 E4.68615
G1 X119.458 Y145.184 E4.74455
G1 X119.445 Y145.259 E4.74582
G1 X119.293 Y145.854 E4.75603
G1 X118.987 Y146.981 E4.77545
G1 X118.809 Y147.487 E4.78437
G1 X118.557 Y147.961 E4.7933
G1 X118.119 Y148.522 E4.80513
G1 X118.018 Y148.628 E4.80757
G1 X117.62 Y148.988 E4.81649
G1 X117.174 Y149.285 E4.8254
G1 X116.688 Y149.511 E4.83432
G1 X116.173 Y149.664 E4.84325
G1 X115.487 Y149.744 E4.85474
G1 X114.363 Y149.767 E4.87343
G1 X105.249 Y149.767 E5.025
G1 X104.568 Y149.757 E5.03633
G1 X104.034 Y149.709 E5.04524
G1 X103.513 Y149.582 E5.05416
G1 X103.016 Y149.38 E5.06308
G1 X102.484 Y149.054 E5.07346
G1 X102.362 Y148.964 E5.07598
G1 X101.955 Y148.614 E5.08491
G1 X101.605 Y148.208 E5.09382
G1 X101.319 Y147.755 E5.10273
G1 X101.027 Y147.018 E5.11591
G1 X100.732 Y145.936 E5.13456
G1 X99.689 Y141.846 E5.20476
G1 X99.512 Y141.117 E5.21723
G1 X99.412 Y140.398 E5.22931
G1 X99.406 Y140.2 E5.2326
G1 X99.4 Y139.654 E5.24168
G1 X99.4 Y103.65 E5.84043
G1 X99.361 Y100.869 E5.88668
G1 X99.245 Y98.14 E5.93211
G1 X99.051 Y95.411 E5.9776
G1 X98.786 Y92.734 E6.02234
G1 X98.437 Y90.008 E6.06804
G1 X97.981 Y87.115 E6.11675
G1 X97.534 Y84.534 E6.16031
G1 X97.465 Y83.994 E6.16936
G1 X97.418 Y83.064 E6.18485
G1 X97.417 Y82.843 E6.18852
G1 X97.437 Y82.122 E6.20052
G1 X97.48 Y81.504 E6.21082
G1 X97.611 Y80.622 E6.22565
G1 X97.656 Y80.393 E6.22953
G1 X97.842 Y79.597 E6.24313
G1 X97.965 Y79.165 E6.2506
G1 X98.252 Y78.316 E6.2655
G1 X98.58 Y77.539 E6.27953
G1 X98.839 Y77.018 E6.2892
G1 X98.946 Y76.819 E6.29296
G1 X99.309 Y76.196 E6.30495
G1 X99.639 Y75.678 E6.31516
G1 X100.09 Y75.074 E6.3277
G0 F1500 X100.405 Y75.32
G1 F900 X100.776 Y74.875 E6.33733
G1 X101.199 Y74.404 E6.34786
G1 X101.551 Y74.048 E6.35619
G1 X102.069 Y73.578 E6.36782
G1 X102.464 Y73.248 E6.37638
G1 X103.005 Y72.855 E6.3875
G1 X103.783 Y72.352 E6.40291
G1 X104.402 Y72.009 E6.41467
G1 X104.861 Y71.778 E6.42322
G1 X105.423 Y71.534 E6.43341
G1 X106.003 Y71.316 E6.44371
G1 X106.487 Y71.159 E6.45218
G1 X107.033 Y71.008 E6.4616
G1 X107.716 Y70.858 E6.47322
G1 X108.297 Y70.762 E6.48302
G1 X108.924 Y70.694 E6.49351
G1 X109.662 Y70.648 E6.5058
G1 X109.969 Y70.64 E6.51091
G1 X110.775 Y70.662 E6.52432
G1 X111.34 Y70.716 E6.53376
G1 X111.926 Y70.799 E6.5436
G1 X112.112 Y70.832 E6.54674
G1 X112.882 Y70.992 E6.55982
G1 X113.387 Y71.12 E6.56848
G1 X114.229 Y71.4 E6.58324
G1 X114.419 Y71.474 E6.58663
G1 X115.153 Y71.788 E6.59991
G1 X115.862 Y72.142 E6.61309
G1 X116.398 Y72.46 E6.62345
G1 X116.563 Y72.566 E6.62671
G1 X117.293 Y73.069 E6.64146
G1 X117.875 Y73.527 E6.65377
G1 X117.978 Y73.616 E6.65604
G1 X118.445 Y74.039 E6.66651
G1 X118.861 Y74.461 E6.67637
G1 X119.283 Y74.941 E6.687
G1 X119.849 Y75.657 E6.70218
G1 X120.256 Y76.242 E6.71403
G1 X120.335 Y76.369 E6.71651
G1 X120.657 Y76.912 E6.72701
G1 X120.94 Y77.456 E6.73721
G1 X121.183 Y77.996 E6.74706
G1 X121.499 Y78.811 E6.76159
G1 X121.61 Y79.147 E6.76748
G1 X121.848 Y79.999 E6.78219
G1 X121.991 Y80.642 E6.79314
G1 X122.017 Y80.807 E6.79592
G1 X122.109 Y81.512 E6.80775
G1 X122.129 Y81.708 E6.81102
G1 X122.164 Y82.22 E6.81956
G1 X122.18 Y82.801 E6.82922
G1 X122.159 Y83.614 E6.84275
G1 X122.108 Y84.244 E6.85326
G1 X122.047 Y84.659 E6.86023
G1 X121.834 Y85.905 E6.88126
G1 X121.593 Y87.195 E6.90308
G1 X121.17 Y89.889 E6.94843
G1 X120.823 Y92.606 E6.99398
G1 X120.551 Y95.325 E7.03942
G1 X120.357 Y98.064 E7.08509
G1 X120.241 Y100.771 E7.13015
G1 X120.2 Y103.607 E7.17731
G1 X120.2 Y139.607 E7.776
G1 X120.19 Y140.308 E7.78766
G1 X120.125 Y140.903 E7.79761
G1 X120.083 Y141.1 E7.80096
G1 X119.942 Y141.683 E7.81093
G1 X119.065 Y145.107 E7.86971
G1 X119.058 Y145.16 E7.8706
G1 X118.907 Y145.75 E7.88073
G1 X118.601 Y146.877 E7.90015
G1 X118.431 Y147.353 E7.90856
G1 X118.188 Y147.796 E7.91696
G1 X117.83 Y148.246 E7.92652
G1 X117.729 Y148.352 E7.92896
G1 X117.352 Y148.69 E7.93738
G1 X116.927 Y148.964 E7.94579
G1 X116.464 Y149.167 E7.95419
G1 X115.975 Y149.295 E7.9626
G1 X115.479 Y149.344 E7.97089
G1 X114.363 Y149.367 E7.98945
G1 X105.255 Y149.367 E8.14092
G1 X104.574 Y149.357 E8.15225
G1 X104.071 Y149.309 E8.16065
G1 X103.581 Y149.183 E8.16906
G1 X103.117 Y148.982 E8.17747
G1 X102.599 Y148.642 E8.18778
G1 X102.217 Y148.311 E8.19618
G1 X101.893 Y147.923 E8.20459
G1 X101.633 Y147.49 E8.21299
G1 X101.413 Y146.912 E8.22327
G1 X101.119 Y145.837 E8.24181
G1 X100.883 Y144.904 E8.25781
G1 X100.077 Y141.752 E8.31191
G1 X99.9 Y141.023 E8.32439
G1 X99.812 Y140.383 E8.33513
G1 X99.806 Y140.195 E8.33826
G1 X99.8 Y139.654 E8.34726
G1 X99.8 Y103.644 E8.94611
G1 X99.76 Y100.842 E8.99271
G1 X99.645 Y98.129 E9.03787
G1 X99.45 Y95.376 E9.08377
G1 X99.179 Y92.649 E9.12934
G1 X98.834 Y89.961 E9.17441
G1 X98.376 Y87.052 E9.22338
G1 X97.928 Y84.466 E9.26703
G1 X97.864 Y83.963 E9.27546
G1 X97.818 Y83.051 E9.29064
G1 X97.817 Y82.854 E9.29392
G1 X97.837 Y82.133 E9.30592
G1 X97.877 Y81.552 E9.3156
G1 X98.005 Y80.687 E9.33014
G1 X98.046 Y80.484 E9.33359
G1 X98.232 Y79.688 E9.34718
G1 X98.344 Y79.293 E9.35401
G1 X98.59 Y78.561 E9.36685
G1 X98.799 Y78.021 E9.37648
G1 X99.196 Y77.197 E9.39169
G1 X99.292 Y77.02 E9.39504
G1 X99.655 Y76.397 E9.40703
G1 X99.965 Y75.909 E9.41664
G1 X100.405 Y75.32 E9.42887
G1 F1800 E2.42887
G1 F300 Z0.3
G0 F1500 X103.224 Y77.218 Z0.3
;TYPE:SUPPORT
G1 F300 Z0.1
G1 F1800 E9.42887
G1 F900 X103.327 Y77.099 E9.43149
G1 X103.89 Y76.497 E9.44519
G1 X104.515 Y75.947 E9.45904
G1 X105.225 Y75.439 E9.47356
G1 X105.606 Y75.211 E9.48094
G1 X106.389 Y74.805 E9.49561
G1 X107.201 Y74.487 E9.51011
G1 X108.077 Y74.243 E9.52523
G1 X108.851 Y74.107 E9.5383
G1 X109.849 Y74.033 E9.55495
G1 X109.928 Y74.033 E9.55626
G1 X110.621 Y74.049 E9.56779
G1 X111.534 Y74.168 E9.5831
G1 X112.406 Y74.363 E9.59796
G1 X113.232 Y74.644 E9.61247
G1 X113.996 Y74.988 E9.6264
G1 X114.777 Y75.441 E9.64142
G1 X115.482 Y75.945 E9.65583
G1 X116.153 Y76.537 E9.67071
G1 X116.728 Y77.159 E9.6848
G1 X117.276 Y77.88 E9.69986
G1 X117.734 Y78.626 E9.71441
G1 X118.099 Y79.389 E9.72848
G1 X118.404 Y80.229 E9.74334
G1 X118.632 Y81.117 E9.75859
G1 X118.739 Y81.831 E9.7706
G1 X118.748 Y81.908 E9.77188
G1 X118.797 Y82.878 E9.78804
G1 X118.759 Y83.701 E9.80174
G1 X118.623 Y84.57 E9.81636
G1 X118.402 Y85.435 E9.83121
G1 X118.099 Y86.27 E9.84598
G1 X117.734 Y87.029 E9.85999
G1 X117.257 Y87.812 E9.87524
G1 X116.8 Y88.413 E9.88779
G1 X116.8 Y130.83 E10.59319
G1 X103.2 Y130.83 E10.81936
G1 X103.2 Y88.405 E11.52489
G1 X102.712 Y87.763 E11.5383
G1 X102.688 Y87.727 E11.53902
G1 X102.271 Y87.042 E11.55236
G1 X101.898 Y86.263 E11.56672
G1 X101.587 Y85.409 E11.58183
G1 X101.375 Y84.576 E11.59613
G1 X101.244 Y83.711 E11.61068
G1 X101.202 Y82.821 E11.6255
G1 X101.243 Y81.953 E11.63995
G1 X101.375 Y81.097 E11.65435
G1 X101.597 Y80.224 E11.66933
G1 X101.882 Y79.433 E11.68331
G1 X102.275 Y78.623 E11.69828
G1 X102.735 Y77.864 E11.71304
G1 X103.224 Y77.218 E11.72652
G0 F1500 X103.381 Y77.343
G1 F900 X116.618 Y77.343 E11.94665
G0 F1500 X117.348 Y78.379
G1 F900 X117.348 Y87.278 E12.09464
G0 F1500 X116.854 Y88.011
G1 F900 X103.151 Y88.011 E12.32252
G1 F1800 E5.32252
G1 F300 Z0.3
G0 F1500 X103.4 Y90.678 Z0.3
G1 F300 Z0.1
G1 F1800 E12.32252
G1 F900 X116.6 Y90.678 E12.54204
G1 F1800 E5.54204
G1 F300 Z0.3
G0 F1500 X116.6 Y93.345 Z0.3
G1 F300 Z0.1
G1 F1800 E12.54204
G1 F900 X103.4 Y93.345 E12.76156
G1 F1800 E5.76156
G1 F300 Z0.3
G0 F1500 X103.4 Y96.012 Z0.3
G1 F300 Z0.1
G1 F1800 E12.76156
G1 F900 X116.6 Y96.012 E12.98107
G1 F1800 E5.98107
G1 F300 Z0.3
G0 F1500 X116.6 Y98.679 Z0.3
G1 F300 Z0.1
G1 F1800 E12.98107
G1 F900 X103.4 Y98.679 E13.20059
G1 F1800 E6.20059
G1 F300 Z0.3
G0 F1500 X103.4 Y101.346 Z0.3
G1 F300 Z0.1
G1 F1800 E13.20059
G1 F900 X116.6 Y101.346 E13.42011
G1 F1800 E6.42011
G1 F300 Z0.3
G0 F1500 X116.6 Y104.013 Z0.3
G1 F300 Z0.1
G1 F1800 E13.42011
G1 F900 X103.4 Y104.013 E13.63962
G1 F1800 E6.63962
G1 F300 Z0.3
G0 F1500 X103.4 Y106.68 Z0.3
G1 F300 Z0.1
G1 F1800 E13.63962
G1 F900 X116.6 Y106.68 E13.85914
G1 F1800 E6.85914
G1 F300 Z0.3
G0 F1500 X116.6 Y109.347 Z0.3
G1 F300 Z0.1
G1 F1800 E13.85914
G1 F900 X103.4 Y109.347 E14.07866
G1 F1800 E7.07866
G1 F300 Z0.3
G0 F1500 X103.4 Y112.014 Z0.3
G1 F300 Z0.1
G1 F1800 E14.07866
G1 F900 X116.6 Y112.014 E14.29817
G1 F1800 E7.29817
G1 F300 Z0.3
G0 F1500 X116.6 Y114.681 Z0.3
G1 F300 Z0.1
G1 F1800 E14.29817
G1 F900 X103.4 Y114.681 E14.51769
G1 F1800 E7.51769
G1 F300 Z0.3
G0 F1500 X103.4 Y117.348 Z0.3
G1 F300 Z0.1
G1 F1800 E14.51769
G1 F900 X116.6 Y117.348 E14.73721
G1 F1800 E7.73721
G1 F300 Z0.3
G0 F1500 X116.599 Y120.015 Z0.3
G1 F300 Z0.1
G1 F1800 E14.73721
G1 F900 X103.399 Y120.015 E14.95673
G1 F1800 E7.95673
G1 F300 Z0.3
G0 F1500 X103.399 Y122.682 Z0.3
G1 F300 Z0.1
G1 F1800 E14.95673
G1 F900 X116.599 Y122.682 E15.17624
G1 F1800 E8.17624
G1 F300 Z0.3
G0 F1500 X116.599 Y125.349 Z0.3
G1 F300 Z0.1
G1 F1800 E15.17624
G1 F900 X103.399 Y125.349 E15.39576
G1 F1800 E8.39576
G1 F300 Z0.3
G0 F1500 X103.399 Y128.016 Z0.3
G1 F300 Z0.1
G1 F1800 E15.39576
G1 F900 X116.599 Y128.016 E15.61528
G1 F1800 E8.61528
G1 F300 Z0.3
