;FLAVOR:Marlin
;TIME:8349
;Filament used: 4.72686m
;Layer height: 0.2
;MINX:68.5
;MINY:60.042
;MINZ:0.2
;MAXX:151.5
;MAXY:159.965
;MAXZ:22.8
;Generated with Cura_SteamEngine master
M82 ;absolute extrusion mode
;Sliced at: Sun 06-11-2022 21:06:30
;Basic settings: Layer height: 0.2 Walls: 0.8 Fill: 30.0
G21 ;metric values
G90 ;absolute positioning
M82 ;set extruder to absolute mode
M107 ;start with the fan off
M117 Start heating ...
M104 S200
M117 Homing X/Y ...
G28 X0 Y0 ;move X/Y to min endstops
M117 Homing Z ...
G28 Z0 ;move Z to min endstops
G1 Z15.0 F100 ;move the platform down 15mm
M117 Heating ...
M109 S200
M117 Start cleaning ...
G92 E0 ;zero the extruded length
G1 F200 E10 ;extrude 10mm of feed stock
G92 E0 ;zero the extruded length again
M117 Intro line ...
G1 Z2.0 F3000 ; Move Z Axis up little to prevent scratching of Heat Bed
G1 X0.1 Y20 Z0.2 F5000.0 ; Move to start position
G1 X0.1 Y200.0 Z0.2 F1500.0 E15 ; Draw the first line
G1 X0.4 Y200.0 Z0.2 F5000.0 ; Move to side a little
G1 X0.4 Y20 Z0.3 F1500.0 E30 ; Draw the second line
G92 E0 ; Reset Extruder
G1 E-1 F500 ; Retract filiment by 1 mm
G1 Z2.0 F3000 ; Move Z Axis up little to prevent scratching of Heat Bed
G1 X5 Y20 Z0.3 F100 ; Move over to prevent blob squish
G1 F100
G92 E0 ; Reset Extruder
M117 Printing...

G92 E0
G92 E0
G1 F1800 E-7
;LAYER_COUNT:113
;LAYER:0
M107
G1 F300 Z0.4
G0 F3000 X69.921 Y71.752 Z0.4
;TYPE:SKIRT
G1 F300 Z0.2
G1 F1800 E0
G1 F1200 X70.682 Y71.107 E0.03318
G1 X70.975 Y70.867 E0.04578
G1 X72.378 Y69.762 E0.10518
G1 X72.665 Y69.547 E0.1171
G1 X74.212 Y68.416 E0.18084
G1 X74.591 Y68.15 E0.19624
G1 X75.188 Y67.742 E0.22029
G1 X75.676 Y67.456 E0.2391
G1 X76.2 Y67.243 E0.25792
G1 X76.748 Y67.105 E0.27671
G1 X77.369 Y67.041 E0.29748
G1 X80.111 Y66.831 E0.38894
G1 X82.8 Y66.549 E0.47887
G1 X85.523 Y66.185 E0.57024
G1 X88.199 Y65.749 E0.66042
G1 X90.858 Y65.239 E0.75047
G1 X93.459 Y64.664 E0.83907
G1 X96.155 Y63.987 E0.93152
G1 X98.75 Y63.257 E1.02118
G1 X101.332 Y62.451 E1.11115
G1 X103.933 Y61.557 E1.20263
G1 X105.29 Y61.058 E1.25071
G1 X106.077 Y60.763 E1.27867
G1 X106.727 Y60.541 E1.30151
G1 X107.267 Y60.387 E1.32019
G1 X107.808 Y60.263 E1.33865
G1 X108.332 Y60.17 E1.35635
G1 X108.898 Y60.097 E1.37533
G1 X109.435 Y60.056 E1.39324
G1 X109.977 Y60.042 E1.41128
G1 X110.53 Y60.054 E1.42968
G1 X111.084 Y60.095 E1.44815
G1 X111.592 Y60.158 E1.46518
G1 X112.164 Y60.256 E1.48448
G1 X112.7 Y60.378 E1.50276
G1 X113.229 Y60.527 E1.52104
G1 X113.742 Y60.7 E1.53905
G1 X114.212 Y60.879 E1.55578
G1 X116.817 Y61.831 E1.64802
G1 X119.395 Y62.692 E1.73842
G1 X121.979 Y63.475 E1.82823
G1 X124.612 Y64.191 E1.91898
G1 X127.25 Y64.83 E2.00926
G1 X129.94 Y65.401 E2.10072
G1 X132.558 Y65.879 E2.18924
G1 X135.283 Y66.298 E2.28094
G1 X137.931 Y66.629 E2.36969
G1 X141.77 Y66.977 E2.4979
G1 X142.831 Y67.052 E2.53328
G1 X143.39 Y67.132 E2.55206
G1 X143.933 Y67.29 E2.57087
G1 X144.672 Y67.653 E2.59826
G1 X145.269 Y68.051 E2.62212
G1 X145.869 Y68.474 E2.64654
G1 X147.39 Y69.587 E2.70922
G1 X147.645 Y69.782 E2.7199
G1 X149.11 Y70.936 E2.78193
G1 X149.55 Y71.296 E2.80084
G1 X150.055 Y71.72 E2.82277
G1 X150.461 Y72.113 E2.84156
G1 X150.808 Y72.559 E2.86036
G1 X151.088 Y73.05 E2.87916
G1 X151.297 Y73.576 E2.89798
G1 X151.429 Y74.126 E2.91679
G1 X151.482 Y74.711 E2.93633
G1 X151.5 Y75.726 E2.97009
G1 X151.5 Y97.368 E3.68991
G1 X151.489 Y98.094 E3.71406
G1 X151.44 Y98.657 E3.73286
G1 X151.315 Y99.2 E3.75139
G1 X151.057 Y100.045 E3.78077
G1 X150.704 Y101.144 E3.81917
G1 X149.943 Y103.758 E3.90972
G1 X149.264 Y106.367 E3.99938
G1 X148.655 Y109.012 E4.08966
G1 X148.111 Y111.717 E4.18143
G1 X147.66 Y114.36 E4.27061
G1 X147.275 Y117.063 E4.36142
G1 X146.974 Y119.713 E4.45012
G1 X146.741 Y122.45 E4.54148
G1 X146.586 Y125.189 E4.63273
G1 X146.51 Y127.846 E4.72114
G1 X146.5 Y129.264 E4.7683
G1 X146.5 Y155.284 E5.63373
G1 X146.49 Y156.011 E5.65791
G1 X146.442 Y156.574 E5.67671
G1 X146.315 Y157.125 E5.69551
G1 X146.112 Y157.653 E5.71433
G1 X145.837 Y158.147 E5.73313
G1 X145.495 Y158.597 E5.75193
G1 X145.092 Y158.994 E5.77075
G1 X144.638 Y159.33 E5.78953
G1 X144.141 Y159.599 E5.80833
G1 X143.611 Y159.796 E5.82714
G1 X143.058 Y159.915 E5.84595
G1 X142.282 Y159.963 E5.87181
G1 X142.17 Y159.965 E5.87553
G1 X78.155 Y159.965 E8.00468
G1 X77.457 Y159.956 E8.0279
G1 X76.894 Y159.908 E8.04669
G1 X76.343 Y159.782 E8.06549
G1 X75.815 Y159.58 E8.08429
G1 X75.321 Y159.305 E8.1031
G1 X74.871 Y158.963 E8.1219
G1 X74.473 Y158.561 E8.14071
G1 X74.137 Y158.107 E8.1595
G1 X73.867 Y157.61 E8.17831
G1 X73.67 Y157.08 E8.19712
G1 X73.55 Y156.528 E8.21591
G1 X73.501 Y155.731 E8.24246
G1 X73.5 Y129.287 E9.122
G1 X73.46 Y126.487 E9.21513
G1 X73.347 Y123.817 E9.30402
G1 X73.153 Y121.077 E9.39538
G1 X72.889 Y118.42 E9.48419
G1 X72.537 Y115.668 E9.57646
G1 X72.125 Y113.047 E9.66471
G1 X71.619 Y110.32 E9.75696
G1 X71.055 Y107.703 E9.846
G1 X70.415 Y105.09 E9.93547
G1 X69.682 Y102.425 E10.0274
G1 X68.859 Y99.741 E10.12078
G1 X68.704 Y99.262 E10.13752
G1 X68.569 Y98.714 E10.15629
G1 X68.512 Y98.153 E10.17505
G1 X68.5 Y97.703 E10.19002
G1 X68.5 Y75.435 E10.93066
G1 X68.51 Y74.743 E10.95368
G1 X68.559 Y74.18 E10.97247
G1 X68.686 Y73.629 E10.99128
G1 X68.889 Y73.102 E11.01006
G1 X69.165 Y72.608 E11.02888
G1 X69.507 Y72.158 E11.04768
G1 X69.921 Y71.752 E11.06697
G0 F3000 X70.18 Y72.056
G1 F1200 X70.936 Y71.416 E11.09991
G1 X71.223 Y71.182 E11.11223
G1 X72.619 Y70.082 E11.17134
G1 X72.901 Y69.87 E11.18308
G1 X74.442 Y68.743 E11.24658
G1 X74.817 Y68.48 E11.26181
G1 X75.414 Y68.072 E11.28586
G1 X75.878 Y67.803 E11.3037
G1 X76.377 Y67.606 E11.32154
G1 X76.899 Y67.486 E11.33936
G1 X77.422 Y67.438 E11.35683
G1 X80.147 Y67.229 E11.44773
G1 X82.862 Y66.944 E11.53852
G1 X85.569 Y66.583 E11.62936
G1 X88.232 Y66.149 E11.7191
G1 X90.948 Y65.628 E11.81108
G1 X93.57 Y65.048 E11.90039
G1 X96.255 Y64.374 E11.99247
G1 X98.84 Y63.647 E12.08178
G1 X101.476 Y62.824 E12.17363
G1 X104.061 Y61.936 E12.26454
G1 X105.458 Y61.422 E12.31405
G1 X106.209 Y61.14 E12.34073
G1 X106.84 Y60.925 E12.3629
G1 X107.361 Y60.776 E12.38092
G1 X107.881 Y60.656 E12.39867
G1 X108.386 Y60.566 E12.41573
G1 X108.933 Y60.496 E12.43408
G1 X109.448 Y60.456 E12.45126
G1 X109.972 Y60.442 E12.46869
G1 X110.504 Y60.453 E12.48639
G1 X111.039 Y60.492 E12.50423
G1 X111.906 Y60.614 E12.53335
G1 X112.41 Y60.719 E12.55047
G1 X112.924 Y60.853 E12.56814
G1 X113.442 Y61.018 E12.58622
G1 X113.6 Y61.074 E12.5918
G1 X114.075 Y61.255 E12.6087
G1 X116.67 Y62.204 E12.70061
G1 X119.289 Y63.078 E12.79244
G1 X121.863 Y63.858 E12.88189
G1 X124.518 Y64.58 E12.9734
G1 X127.178 Y65.224 E13.06443
G1 X129.823 Y65.786 E13.15437
G1 X132.532 Y66.28 E13.24596
G1 X135.204 Y66.691 E13.33587
G1 X137.906 Y67.029 E13.42644
G1 X141.709 Y67.374 E13.55345
G1 X142.802 Y67.451 E13.58989
G1 X143.333 Y67.529 E13.60774
G1 X143.846 Y67.684 E13.62557
G1 X144.46 Y67.992 E13.64842
G1 X145.042 Y68.38 E13.67168
G1 X145.633 Y68.797 E13.69574
G1 X147.147 Y69.905 E13.75814
G1 X147.398 Y70.096 E13.76863
G1 X148.857 Y71.246 E13.83042
G1 X149.293 Y71.602 E13.84914
G1 X149.798 Y72.026 E13.87107
G1 X150.182 Y72.4 E13.8889
G1 X150.506 Y72.828 E13.90675
G1 X150.763 Y73.298 E13.92457
G1 X150.947 Y73.802 E13.94241
G1 X151.054 Y74.328 E13.96027
G1 X151.082 Y74.718 E13.97327
G1 X151.1 Y75.726 E14.0068
G1 X151.1 Y97.362 E14.72642
G1 X151.089 Y98.088 E14.75057
G1 X151.041 Y98.622 E14.7684
G1 X150.932 Y99.083 E14.78416
G1 X150.676 Y99.923 E14.81337
G1 X150.322 Y101.025 E14.85186
G1 X149.558 Y103.65 E14.94279
G1 X148.875 Y106.274 E15.03298
G1 X148.257 Y108.956 E15.12452
G1 X147.725 Y111.603 E15.21432
G1 X147.263 Y114.308 E15.30559
G1 X146.88 Y116.998 E15.39596
G1 X146.573 Y119.706 E15.48661
G1 X146.341 Y122.427 E15.57744
G1 X146.188 Y125.12 E15.66715
G1 X146.109 Y127.92 E15.76031
G1 X146.1 Y129.261 E15.80492
G1 X146.1 Y155.279 E16.67028
G1 X146.09 Y156.006 E16.69446
G1 X146.042 Y156.54 E16.71229
G1 X145.916 Y157.061 E16.73012
G1 X145.714 Y157.558 E16.74797
G1 X145.44 Y158.019 E16.7658
G1 X145.101 Y158.434 E16.78363
G1 X144.704 Y158.795 E16.80147
G1 X144.258 Y159.092 E16.81929
G1 X143.772 Y159.32 E16.83715
G1 X143.258 Y159.473 E16.85499
G1 X142.591 Y159.555 E16.87734
G1 X142.17 Y159.565 E16.89134
G1 X78.161 Y159.565 E19.02029
G1 X77.463 Y159.556 E19.04351
G1 X76.928 Y159.509 E19.06137
G1 X76.407 Y159.383 E19.0792
G1 X75.91 Y159.181 E19.09704
G1 X75.449 Y158.908 E19.11486
G1 X75.033 Y158.569 E19.13271
G1 X74.672 Y158.173 E19.15054
G1 X74.374 Y157.727 E19.16838
G1 X74.146 Y157.241 E19.18623
G1 X73.993 Y156.727 E19.20407
G1 X73.91 Y156.053 E19.22665
G1 X73.9 Y155.623 E19.24096
G1 X73.9 Y129.281 E20.1171
G1 X73.861 Y126.5 E20.2096
G1 X73.745 Y123.772 E20.30042
G1 X73.551 Y121.042 E20.39145
G1 X73.286 Y118.366 E20.48089
G1 X72.936 Y115.626 E20.57276
G1 X72.515 Y112.949 E20.66289
G1 X72.017 Y110.269 E20.75356
G1 X71.448 Y107.629 E20.84338
G1 X70.795 Y104.961 E20.93474
G1 X70.071 Y102.329 E21.02553
G1 X69.223 Y99.565 E21.12169
G1 X69.085 Y99.139 E21.13658
G1 X68.958 Y98.618 E21.15442
G1 X68.902 Y97.813 E21.18126
G1 X68.9 Y97.703 E21.18492
G1 X68.9 Y75.441 E21.92535
G1 X68.91 Y74.749 E21.94837
G1 X68.958 Y74.215 E21.96621
G1 X69.085 Y73.694 E21.98404
G1 X69.287 Y73.197 E22.00188
G1 X69.561 Y72.736 E22.01972
G1 X69.901 Y72.321 E22.03757
G1 X70.18 Y72.056 E22.05036
G0 F3000 X70.439 Y72.361
G1 F1200 X71.189 Y71.725 E22.08307
G1 X71.47 Y71.496 E22.09513
G1 X72.86 Y70.401 E22.15398
G1 X73.137 Y70.192 E22.16552
G1 X74.624 Y69.104 E22.2268
G1 X75.042 Y68.81 E22.2438
G1 X75.639 Y68.402 E22.26785
G1 X76.078 Y68.151 E22.28467
G1 X76.551 Y67.971 E22.3015
G1 X77.235 Y67.851 E22.3246
G1 X77.414 Y67.839 E22.33057
G1 X80.183 Y67.627 E22.42294
G1 X82.92 Y67.34 E22.51447
G1 X85.649 Y66.975 E22.60604
G1 X88.3 Y66.544 E22.69537
G1 X91.037 Y66.019 E22.78807
G1 X93.657 Y65.439 E22.87732
G1 X96.357 Y64.762 E22.9699
G1 X98.963 Y64.028 E23.05995
G1 X101.61 Y63.202 E23.15217
G1 X104.188 Y62.316 E23.24284
G1 X105.596 Y61.798 E23.29274
G1 X106.341 Y61.518 E23.31921
G1 X106.953 Y61.308 E23.34073
G1 X107.454 Y61.165 E23.35806
G1 X107.955 Y61.049 E23.37516
G1 X108.813 Y60.911 E23.40407
G1 X109.461 Y60.856 E23.4257
G1 X109.967 Y60.842 E23.44253
G1 X110.479 Y60.853 E23.45957
G1 X110.993 Y60.89 E23.47671
G1 X111.841 Y61.009 E23.50519
G1 X112.491 Y61.15 E23.52731
G1 X112.979 Y61.287 E23.54417
G1 X113.458 Y61.447 E23.56097
G1 X113.978 Y61.646 E23.57948
G1 X116.553 Y62.587 E23.67067
G1 X119.119 Y63.444 E23.76065
G1 X121.78 Y64.25 E23.85312
G1 X124.425 Y64.969 E23.94429
G1 X127.073 Y65.61 E24.03491
G1 X129.773 Y66.184 E24.12672
G1 X132.436 Y66.67 E24.21675
G1 X135.165 Y67.089 E24.30858
G1 X137.848 Y67.425 E24.39851
G1 X141.695 Y67.774 E24.52699
G1 X142.774 Y67.85 E24.56297
G1 X143.274 Y67.925 E24.57978
G1 X143.756 Y68.079 E24.59661
G1 X144.247 Y68.331 E24.61497
G1 X144.815 Y68.709 E24.63766
G1 X145.397 Y69.12 E24.66136
G1 X146.905 Y70.223 E24.7235
G1 X147.15 Y70.411 E24.73377
G1 X148.604 Y71.556 E24.79533
G1 X149.036 Y71.908 E24.81386
G1 X149.541 Y72.332 E24.83579
G1 X149.901 Y72.687 E24.85261
G1 X150.201 Y73.094 E24.86943
G1 X150.433 Y73.543 E24.88624
G1 X150.591 Y74.023 E24.90304
G1 X150.682 Y74.725 E24.92659
G1 X150.7 Y75.726 E24.95989
G1 X150.7 Y97.355 E25.67927
G1 X150.689 Y98.081 E25.70342
G1 X150.641 Y98.585 E25.72026
G1 X150.55 Y98.966 E25.73329
G1 X150.295 Y99.8 E25.76229
G1 X149.946 Y100.886 E25.80023
G1 X149.172 Y103.544 E25.89231
G1 X148.482 Y106.197 E25.98349
G1 X147.87 Y108.853 E26.07414
G1 X147.324 Y111.568 E26.16625
G1 X146.872 Y114.22 E26.25573
G1 X146.486 Y116.928 E26.34671
G1 X146.17 Y119.71 E26.43983
G1 X145.944 Y122.374 E26.52875
G1 X145.788 Y125.121 E26.62027
G1 X145.71 Y127.885 E26.71223
G1 X145.7 Y129.259 E26.75793
G1 X145.7 Y155.273 E27.62316
G1 X145.69 Y156 E27.64735
G1 X145.643 Y156.503 E27.66415
G1 X145.517 Y156.993 E27.68098
G1 X145.316 Y157.457 E27.69779
G1 X145.044 Y157.883 E27.71461
G1 X144.709 Y158.262 E27.73143
G1 X144.318 Y158.582 E27.74823
G1 X143.882 Y158.837 E27.76503
G1 X143.411 Y159.021 E27.78185
G1 X142.916 Y159.127 E27.79869
G1 X142.26 Y159.164 E27.82054
G1 X78.166 Y159.165 E29.95232
G1 X77.468 Y159.156 E29.97554
G1 X76.964 Y159.109 E29.99237
G1 X76.474 Y158.984 E30.00919
G1 X76.01 Y158.783 E30.02601
G1 X75.584 Y158.512 E30.0428
G1 X75.205 Y158.177 E30.05963
G1 X74.884 Y157.786 E30.07645
G1 X74.629 Y157.35 E30.09325
G1 X74.445 Y156.879 E30.11007
G1 X74.338 Y156.385 E30.12688
G1 X74.301 Y155.709 E30.1494
G1 X74.3 Y129.275 E31.0286
G1 X74.26 Y126.478 E31.12164
G1 X74.145 Y123.761 E31.21208
G1 X73.95 Y121.014 E31.30368
G1 X73.682 Y118.309 E31.39409
G1 X73.334 Y115.585 E31.48543
G1 X72.909 Y112.885 E31.57633
G1 X72.406 Y110.176 E31.66798
G1 X71.834 Y107.52 E31.75834
G1 X71.186 Y104.873 E31.84898
G1 X70.453 Y102.211 E31.94081
G1 X69.62 Y99.495 E32.0353
G1 X69.465 Y99.016 E32.05205
G1 X69.348 Y98.524 E32.06887
G1 X69.301 Y97.801 E32.09296
G1 X69.3 Y75.447 E32.83646
G1 X69.31 Y74.755 E32.85948
G1 X69.358 Y74.251 E32.87632
G1 X69.483 Y73.762 E32.89311
G1 X69.685 Y73.298 E32.90994
G1 X69.957 Y72.872 E32.92675
G1 X70.439 Y72.361 E32.95011
G1 F1800 E25.95011
G1 F300 Z0.4
;MESH:clock-frame.stl
G0 F3000 X79.4 Y77.933 Z0.4
;TYPE:WALL-INNER
G1 F300 Z0.2
G1 F1800 E32.95011
G1 F1200 X79.4 Y90.715 E33.37524
G1 X84.4 Y98.215 E33.67505
G1 X84.4 Y149.065 E35.36632
G1 X135.6 Y149.065 E37.06924
G1 X135.6 Y98.215 E38.76052
G1 X140.6 Y90.715 E39.06032
G1 X140.6 Y77.933 E39.48545
G1 X79.4 Y77.933 E41.52097
G0 F3000 X79.8 Y78.333
;TYPE:WALL-OUTER
G1 F1200 X79.8 Y90.594 E41.92878
G1 X84.8 Y98.093 E42.22855
G1 X84.8 Y148.665 E43.91058
G1 X135.2 Y148.665 E45.58689
G1 X135.2 Y98.093 E47.26893
G1 X140.2 Y90.594 E47.5687
G1 X140.2 Y78.333 E47.9765
G1 X79.8 Y78.333 E49.98542
G0 F3000 X79.8 Y78.533
G0 X79.36 Y78.533
G1 F1800 E42.98542
G1 F300 Z0.4
G0 F3000 X79.2 Y78.533 Z0.4
G0 X114.1 Y75.133
;TYPE:WALL-INNER
G1 F300 Z0.2
G1 F1800 E49.98542
G1 F1200 X114.1 Y71.016 E50.12235
G1 X114.056 Y70.421 E50.14219
G1 X113.918 Y69.823 E50.1626
G1 X113.694 Y69.253 E50.18297
G1 X113.389 Y68.722 E50.20334
G1 X113.007 Y68.243 E50.22372
G1 X112.557 Y67.826 E50.24412
G1 X112.051 Y67.482 E50.26447
G1 X111.5 Y67.216 E50.28482
G1 X110.912 Y67.035 E50.30529
G1 X110.318 Y66.946 E50.32526
G1 X110.092 Y66.933 E50.33279
G1 X109.49 Y66.963 E50.35284
G1 X108.889 Y67.085 E50.37324
G1 X108.313 Y67.295 E50.39363
G1 X107.775 Y67.588 E50.414
G1 X107.287 Y67.958 E50.43437
G1 X106.859 Y68.396 E50.45474
G1 X106.5 Y68.895 E50.47519
G1 X106.221 Y69.439 E50.49552
G1 X106.025 Y70.022 E50.51598
G1 X105.92 Y70.62 E50.53617
G1 X105.9 Y71.021 E50.54953
G1 X105.9 Y75.133 E50.68629
G1 X114.1 Y75.133 E50.95902
G0 F3000 X113.7 Y74.733
;TYPE:WALL-OUTER
G1 F1200 X113.7 Y71.031 E51.08215
G1 X113.659 Y70.481 E51.1005
G1 X113.535 Y69.942 E51.11889
G1 X113.333 Y69.427 E51.13729
G1 X113.057 Y68.948 E51.15568
G1 X112.713 Y68.516 E51.17405
G1 X112.307 Y68.14 E51.19245
G1 X111.85 Y67.829 E51.21084
G1 X111.353 Y67.589 E51.22919
G1 X110.823 Y67.426 E51.24764
G1 X110.277 Y67.344 E51.266
G1 X110.091 Y67.334 E51.2722
G1 X109.54 Y67.361 E51.29054
G1 X108.998 Y67.471 E51.30894
G1 X108.478 Y67.661 E51.32735
G1 X107.993 Y67.925 E51.34572
G1 X107.552 Y68.259 E51.36412
G1 X107.166 Y68.654 E51.38249
G1 X106.842 Y69.104 E51.40093
G1 X106.591 Y69.595 E51.41927
G1 X106.414 Y70.121 E51.43773
G1 X106.318 Y70.665 E51.4561
G1 X106.3 Y71.031 E51.46829
G1 X106.3 Y74.733 E51.59142
G1 X113.7 Y74.733 E51.83755
G0 F3000 X113.7 Y74.533
G0 X114.14 Y74.533
G1 F1800 E44.83755
G1 F300 Z0.4
G0 F3000 X114.3 Y74.533 Z0.4
G0 X141.9 Y97.433
;TYPE:WALL-INNER
G1 F300 Z0.2
G1 F1800 E51.83755
G1 F1200 X141.9 Y155.365 E53.76437
G1 X78.1 Y155.365 E55.88637
G1 X78.1 Y97.433 E57.81319
G1 X73.1 Y97.433 E57.97949
G1 X73.1 Y75.071 E58.72326
G1 X74.489 Y73.937 E58.7829
G1 X76.102 Y72.711 E58.85028
G1 X77.631 Y71.633 E58.91251
G1 X103.585 Y71.632 E59.77574
G1 X103.609 Y70.711 E59.80638
G1 X103.671 Y70.081 E59.82744
G1 X103.799 Y69.449 E59.84889
G1 X103.989 Y68.836 E59.87023
G1 X104.237 Y68.25 E59.8914
G1 X104.538 Y67.697 E59.91234
G1 X104.897 Y67.172 E59.93349
G1 X105.314 Y66.676 E59.95504
G1 X105.765 Y66.234 E59.97605
G1 X106.265 Y65.835 E59.99732
