;FLAVOR:Marlin
;TIME:30391
;Filament used: 13.5129m
;Layer height: 0.2
;MINX:55.99
;MINY:36.89
;MINZ:0.2
;MAXX:184.31
;MAXY:183.11
;MAXZ:3.2
;Generated with Cura_SteamEngine master
M82 ;absolute extrusion mode
;Sliced at: Sun 15-01-2023 14:26:28
;Basic settings: Layer height: 0.2 Walls: 0.8 Fill: 30.0
G21 ;metric values
G90 ;absolute positioning
M82 ;set extruder to absolute mode
M107 ;start with the fan off
M117 Start heating ...
M104 S200
M117 Homing X/Y ...
G28 X0 Y0 ;move X/Y to min endstops
M117 Homing Z ...
G28 Z0 ;move Z to min endstops
G1 Z15.0 F100 ;move the platform down 15mm
M117 Heating ...
M109 S200
M117 Start cleaning ...
G92 E0 ;zero the extruded length
G1 F200 E10 ;extrude 10mm of feed stock
G92 E0 ;zero the extruded length again
M117 Intro line ...
G1 Z2.0 F3000 ; Move Z Axis up little to prevent scratching of Heat Bed
G1 X0.1 Y20 Z0.2 F5000.0 ; Move to start position
G1 X0.1 Y200.0 Z0.2 F1500.0 E15 ; Draw the first line
G1 X0.4 Y200.0 Z0.2 F5000.0 ; Move to side a little
G1 X0.4 Y20 Z0.3 F1500.0 E30 ; Draw the second line
G92 E0 ; Reset Extruder
G1 E-1 F500 ; Retract filiment by 1 mm
G1 Z2.0 F3000 ; Move Z Axis up little to prevent scratching of Heat Bed
G1 X5 Y20 Z0.3 F100 ; Move over to prevent blob squish
G1 F100
G92 E0 ; Reset Extruder
M117 Printing...

G92 E0
G92 E0
G1 F1800 E-7
;LAYER_COUNT:15
;LAYER:0
M107
G1 F300 Z0.4
G0 F3000 X57.92 Y38.699 Z0.4
;TYPE:SKIRT
G1 F300 Z0.2
G1 F1800 E0
G1 F1200 X58.264 Y38.25 E0.01881
G1 X58.667 Y37.854 E0.0376
G1 X59.122 Y37.519 E0.0564
G1 X59.62 Y37.251 E0.07521
G1 X60.151 Y37.056 E0.09402
G1 X60.704 Y36.938 E0.11283
G1 X61.467 Y36.892 E0.13825
G1 X61.58 Y36.89 E0.14201
G1 X158.1 Y36.89 E3.35228
G1 X158.802 Y36.9 E3.37563
G1 X159.365 Y36.948 E3.39442
G1 X159.916 Y37.075 E3.41323
G1 X160.444 Y37.279 E3.43206
G1 X160.937 Y37.554 E3.45083
G1 X161.387 Y37.897 E3.46965
G1 X161.854 Y38.383 E3.49207
G1 X162.761 Y39.505 E3.54006
G1 X162.879 Y39.654 E3.54638
G1 X164.66 Y41.786 E3.63877
G1 X166.439 Y43.798 E3.7281
G1 X168.298 Y45.785 E3.8186
G1 X170.22 Y47.723 E3.90939
G1 X172.174 Y49.588 E3.99923
G1 X174.178 Y51.395 E4.08898
G1 X176.272 Y53.176 E4.18041
G1 X178.376 Y54.867 E4.27019
G1 X180.541 Y56.507 E4.36052
G1 X182.631 Y58.005 E4.44605
G1 X183.066 Y58.366 E4.46485
G1 X183.445 Y58.785 E4.48364
G1 X183.762 Y59.253 E4.50244
G1 X184.01 Y59.761 E4.52124
G1 X184.184 Y60.299 E4.54005
G1 X184.298 Y61.133 E4.56805
G1 X184.31 Y61.58 E4.58292
G1 X184.31 Y158.079 E7.79249
G1 X184.3 Y158.8 E7.81647
G1 X184.252 Y159.364 E7.8353
G1 X184.125 Y159.915 E7.8541
G1 X183.922 Y160.442 E7.87289
G1 X183.647 Y160.936 E7.89169
G1 X183.304 Y161.386 E7.91051
G1 X182.902 Y161.783 E7.9293
G1 X182.636 Y161.992 E7.94055
G1 X181.622 Y162.721 E7.98209
G1 X181.465 Y162.83 E7.98845
G1 X179.269 Y164.452 E8.07925
G1 X177.164 Y166.099 E8.16815
G1 X175.059 Y167.846 E8.25913
G1 X173.001 Y169.656 E8.35029
G1 X171.018 Y171.5 E8.44035
G1 X169.112 Y173.376 E8.5293
G1 X167.206 Y175.364 E8.6209
G1 X165.392 Y177.364 E8.71071
G1 X163.616 Y179.438 E8.80153
G1 X161.914 Y181.545 E8.89161
G1 X161.738 Y181.75 E8.9006
G1 X161.334 Y182.146 E8.91941
G1 X160.879 Y182.482 E8.93823
G1 X160.381 Y182.749 E8.95702
G1 X159.85 Y182.944 E8.97584
G1 X159.298 Y183.062 E8.99461
G1 X158.532 Y183.108 E9.02013
G1 X158.42 Y183.11 E9.02386
G1 X61.905 Y183.11 E12.23396
G1 X61.207 Y183.101 E12.25718
G1 X60.644 Y183.053 E12.27597
G1 X60.093 Y182.927 E12.29477
G1 X59.565 Y182.725 E12.31357
G1 X59.071 Y182.45 E12.33238
G1 X58.621 Y182.108 E12.35118
G1 X58.223 Y181.706 E12.36999
G1 X57.887 Y181.252 E12.38878
G1 X57.617 Y180.755 E12.40759
G1 X57.42 Y180.225 E12.4264
G1 X57.3 Y179.673 E12.44518
G1 X57.251 Y178.876 E12.47174
G1 X57.25 Y174.614 E12.6135
G1 X57.21 Y171.814 E12.70664
G1 X57.097 Y169.144 E12.79552
G1 X56.903 Y166.404 E12.88688
G1 X56.639 Y163.747 E12.97569
G1 X56.29 Y161.019 E13.06716
G1 X56.22 Y160.572 E13.08221
G1 X56.039 Y159.305 E13.12478
G1 X55.992 Y158.533 E13.1505
G1 X55.99 Y158.42 E13.15426
G1 X55.99 Y61.895 E16.3647
G1 X56.001 Y61.182 E16.38841
G1 X56.049 Y60.625 E16.40701
G1 X56.085 Y60.395 E16.41475
G1 X56.472 Y57.683 E16.50587
G1 X56.777 Y55.004 E16.59555
G1 X57.005 Y52.335 E16.68464
G1 X57.164 Y49.55 E16.77742
G1 X57.24 Y46.884 E16.86613
G1 X57.25 Y45.46 E16.91349
G1 X57.251 Y41.498 E17.04527
G1 X57.262 Y40.833 E17.06739
G1 X57.311 Y40.27 E17.08619
G1 X57.439 Y39.719 E17.105
G1 X57.644 Y39.192 E17.12381
G1 X57.92 Y38.699 E17.1426
G0 F3000 X58.316 Y38.828
G1 F1200 X58.657 Y38.413 E17.16046
G1 X59.055 Y38.054 E17.17829
G1 X59.502 Y37.758 E17.19612
G1 X59.988 Y37.532 E17.21395
G1 X60.502 Y37.38 E17.23178
G1 X61.159 Y37.3 E17.25379
G1 X61.58 Y37.29 E17.2678
G1 X158.094 Y37.29 E20.47787
G1 X158.796 Y37.3 E20.50122
G1 X159.33 Y37.348 E20.51905
G1 X159.852 Y37.474 E20.53691
G1 X160.348 Y37.677 E20.55473
G1 X160.809 Y37.951 E20.57257
G1 X161.225 Y38.29 E20.59042
G1 X161.543 Y38.635 E20.60603
G1 X162.448 Y39.753 E20.65387
G1 X162.592 Y39.936 E20.66161
G1 X164.355 Y42.045 E20.75304
G1 X166.146 Y44.071 E20.84298
G1 X168.005 Y46.058 E20.93348
G1 X169.924 Y47.994 E21.02414
G1 X171.895 Y49.874 E21.11474
G1 X173.935 Y51.713 E21.20609
G1 X176.025 Y53.491 E21.29735
G1 X178.113 Y55.169 E21.38645
G1 X180.307 Y56.831 E21.47799
G1 X182.398 Y58.33 E21.56357
G1 X182.809 Y58.674 E21.58139
G1 X183.165 Y59.076 E21.59925
G1 X183.457 Y59.525 E21.61707
G1 X183.679 Y60.013 E21.6349
G1 X183.826 Y60.529 E21.65274
G1 X183.898 Y61.145 E21.67337
G1 X183.91 Y61.58 E21.68784
G1 X183.91 Y158.074 E24.89725
G1 X183.9 Y158.795 E24.92123
G1 X183.852 Y159.329 E24.93906
G1 X183.726 Y159.85 E24.95689
G1 X183.524 Y160.347 E24.97473
G1 X183.25 Y160.808 E24.99257
G1 X182.911 Y161.224 E25.01042
G1 X182.403 Y161.667 E25.03284
G1 X181.394 Y162.392 E25.07416
G1 X181.245 Y162.496 E25.08021
G1 X179.013 Y164.143 E25.17247
G1 X176.933 Y165.772 E25.26034
G1 X174.768 Y167.568 E25.3539
G1 X172.765 Y169.329 E25.4426
G1 X170.748 Y171.205 E25.53422
G1 X168.809 Y173.115 E25.62475
G1 X166.922 Y175.082 E25.71541
G1 X165.09 Y177.101 E25.80608
G1 X163.317 Y179.172 E25.89676
G1 X161.603 Y181.294 E25.98749
G1 X161.438 Y181.485 E25.99588
G1 X161.054 Y181.86 E26.01373
G1 X160.619 Y182.173 E26.03156
G1 X160.141 Y182.417 E26.04941
G1 X159.633 Y182.589 E26.06724
G1 X158.842 Y182.7 E26.09381
G1 X158.42 Y182.71 E26.10785
G1 X61.911 Y182.71 E29.31775
G1 X61.213 Y182.701 E29.34097
G1 X60.678 Y182.654 E29.35883
G1 X60.157 Y182.528 E29.37666
G1 X59.66 Y182.326 E29.39451
G1 X59.199 Y182.053 E29.41232
G1 X58.783 Y181.714 E29.43017
G1 X58.422 Y181.318 E29.448
G1 X58.124 Y180.872 E29.46584
G1 X57.896 Y180.386 E29.48369
G1 X57.743 Y179.872 E29.50153
G1 X57.66 Y179.198 E29.52411
G1 X57.65 Y178.768 E29.53842
G1 X57.65 Y174.608 E29.67678
G1 X57.611 Y171.827 E29.76929
G1 X57.495 Y169.099 E29.8601
G1 X57.301 Y166.369 E29.95113
G1 X57.036 Y163.693 E30.04057
G1 X56.688 Y160.977 E30.13165
G1 X56.616 Y160.515 E30.1472
G1 X56.435 Y159.248 E30.18977
G1 X56.391 Y158.522 E30.21396
G1 X56.39 Y61.901 E33.42758
G1 X56.401 Y61.188 E33.4513
G1 X56.444 Y60.687 E33.46803
G1 X56.48 Y60.457 E33.47577
G1 X56.866 Y57.753 E33.56662
G1 X57.174 Y55.047 E33.6572
G1 X57.407 Y52.321 E33.7482
G1 X57.561 Y49.629 E33.83788
G1 X57.641 Y46.832 E33.93095
G1 X57.65 Y45.463 E33.97648
G1 X57.65 Y41.504 E34.10816
G1 X57.661 Y40.839 E34.13028
G1 X57.71 Y40.305 E34.14811
G1 X57.838 Y39.785 E34.16593
G1 X58.041 Y39.288 E34.18378
G1 X58.316 Y38.828 E34.20161
G0 F3000 X58.712 Y38.965
G1 F1200 X59.048 Y38.587 E34.21843
G1 X59.44 Y38.268 E34.23524
G1 X59.877 Y38.014 E34.25205
G1 X60.349 Y37.832 E34.26887
G1 X60.843 Y37.726 E34.28568
G1 X61.49 Y37.691 E34.30723
G1 X158.089 Y37.69 E37.52013
G1 X158.791 Y37.7 E37.54348
G1 X159.294 Y37.747 E37.56028
G1 X159.784 Y37.873 E37.57711
G1 X160.247 Y38.075 E37.59391
G1 X160.674 Y38.346 E37.61073
G1 X161.052 Y38.682 E37.62755
G1 X161.232 Y38.887 E37.63662
G1 X162.134 Y40.001 E37.6843
G1 X162.273 Y40.177 E37.69176
G1 X164.047 Y42.3 E37.78378
G1 X165.855 Y44.345 E37.87456
G1 X167.712 Y46.329 E37.96495
G1 X169.665 Y48.3 E38.05724
G1 X171.615 Y50.161 E38.14689
G1 X173.673 Y52.016 E38.23904
G1 X175.761 Y53.792 E38.33021
G1 X177.883 Y55.497 E38.42075
G1 X180.071 Y57.155 E38.51206
G1 X182.164 Y58.655 E38.5977
G1 X182.551 Y58.981 E38.61453
G1 X182.881 Y59.364 E38.63135
G1 X183.147 Y59.794 E38.64816
G1 X183.341 Y60.261 E38.66498
G1 X183.46 Y60.752 E38.68179
G1 X183.508 Y61.481 E38.70609
G1 X183.51 Y61.58 E38.70938
G1 X183.51 Y158.068 E41.91858
G1 X183.5 Y158.789 E41.94257
G1 X183.453 Y159.293 E41.9594
G1 X183.327 Y159.782 E41.9762
G1 X183.126 Y160.246 E41.99301
G1 X182.854 Y160.673 E42.00985
G1 X182.519 Y161.051 E42.02665
G1 X182.169 Y161.343 E42.04181
G1 X181.166 Y162.064 E42.0829
G1 X180.985 Y162.189 E42.09021
G1 X178.814 Y163.793 E42.17999
G1 X176.63 Y165.503 E42.27225
G1 X174.531 Y167.244 E42.36295
G1 X172.474 Y169.053 E42.45406
G1 X170.477 Y170.91 E42.54476
G1 X168.522 Y172.836 E42.63604
G1 X166.636 Y174.802 E42.72665
G1 X164.793 Y176.833 E42.81787
G1 X162.998 Y178.93 E42.90968
G1 X161.291 Y181.043 E43.00002
G1 X161.138 Y181.22 E43.00781
G1 X160.775 Y181.572 E43.02462
G1 X160.36 Y181.861 E43.04144
G1 X159.905 Y182.082 E43.05827
G1 X159.421 Y182.228 E43.07508
G1 X158.831 Y182.3 E43.09485
G1 X158.42 Y182.31 E43.10853
G1 X61.916 Y182.31 E46.31826
G1 X61.218 Y182.301 E46.34148
G1 X60.714 Y182.254 E46.35831
G1 X60.224 Y182.129 E46.37513
G1 X59.76 Y181.928 E46.39195
G1 X59.334 Y181.657 E46.40875
G1 X58.955 Y181.322 E46.42557
G1 X58.634 Y180.931 E46.4424
G1 X58.379 Y180.495 E46.45919
G1 X58.195 Y180.024 E46.47601
G1 X58.088 Y179.53 E46.49282
G1 X58.051 Y178.854 E46.51534
G1 X58.05 Y174.602 E46.65676
G1 X58.01 Y171.805 E46.7498
G1 X57.895 Y169.088 E46.84025
G1 X57.7 Y166.341 E46.93185
G1 X57.432 Y163.636 E47.02226
G1 X57.086 Y160.929 E47.11302
G1 X57.012 Y160.459 E47.12885
G1 X56.831 Y159.192 E47.17142
G1 X56.791 Y158.51 E47.19414
G1 X56.79 Y61.908 E50.40713
G1 X56.801 Y61.195 E50.43085
G1 X56.875 Y60.519 E50.45347
G1 X57.266 Y57.783 E50.54539
G1 X57.572 Y55.09 E50.63554
G1 X57.805 Y52.377 E50.72611
G1 X57.961 Y49.629 E50.81765
G1 X58.04 Y46.867 E50.90956
G1 X58.05 Y45.466 E50.95615
G1 X58.05 Y41.511 E51.0877
G1 X58.061 Y40.846 E51.10982
G1 X58.11 Y40.343 E51.12663
G1 X58.237 Y39.853 E51.14346
G1 X58.439 Y39.39 E51.16027
G1 X58.712 Y38.965 E51.17707
G1 F1800 E44.17707
G1 F300 Z0.4
;MESH:clock-I.stl(5)
G0 F3000 X158.15 Y59.11 Z0.4
;TYPE:WALL-INNER
G1 F300 Z0.2
G1 F1800 E51.17707
G1 F1200 X61.85 Y59.11 E54.38002
G1 X61.85 Y41.49 E54.96606
G1 X158.15 Y41.49 E58.16901
G1 X158.15 Y59.11 E58.75505
G0 F3000 X158.55 Y59.51
;TYPE:WALL-OUTER
G1 F1200 X61.45 Y59.51 E61.98461
G1 X61.45 Y41.09 E62.59727
G1 X158.55 Y41.09 E65.82682
G1 X158.55 Y59.51 E66.43948
G0 F3000 X158.35 Y59.51
G0 X158.11 Y59.07
G0 X157.76 Y58.72
;TYPE:SKIN
G1 F1200 X62.24 Y58.72 E69.61648
G1 X62.24 Y41.88 E70.17659
G1 X157.76 Y41.88 E73.35359
G1 X157.76 Y58.72 E73.91369
G0 F3000 X158.04 Y58.72
G0 X158.04 Y42.178
G0 X157.578 Y42.178
G1 F1200 X157.459 Y42.06 E73.91927
G0 F3000 X156.894 Y42.06
G1 F1200 X157.578 Y42.744 E73.95144
G0 F3000 X157.578 Y43.31
G1 F1200 X156.328 Y42.06 E74.01024
G0 F3000 X155.762 Y42.06
G1 F1200 X157.578 Y43.875 E74.09563
G0 F3000 X157.578 Y44.441
G1 F1200 X155.197 Y42.06 E74.20763
G0 F3000 X154.631 Y42.06
G1 F1200 X157.578 Y45.007 E74.34625
G0 F3000 X157.578 Y45.573
G1 F1200 X154.065 Y42.06 E74.51149
G0 F3000 X153.5 Y42.06
G1 F1200 X157.578 Y46.138 E74.7033
G0 F3000 X157.578 Y46.704
G1 F1200 X152.934 Y42.06 E74.92174
G0 F3000 X152.368 Y42.06
G1 F1200 X157.578 Y47.27 E75.16681
G0 F3000 X157.578 Y47.835
G1 F1200 X151.803 Y42.06 E75.43844
G0 F3000 X151.237 Y42.06
G1 F1200 X157.578 Y48.401 E75.7367
G0 F3000 X157.578 Y48.967
G1 F1200 X150.671 Y42.06 E76.06159
G0 F3000 X150.106 Y42.06
G1 F1200 X157.578 Y49.532 E76.41305
G0 F3000 X157.578 Y50.098
G1 F1200 X149.54 Y42.06 E76.79113
G0 F3000 X148.974 Y42.06
G1 F1200 X157.578 Y50.664 E77.19584
G0 F3000 X157.578 Y51.229
G1 F1200 X148.408 Y42.06 E77.62714
G0 F3000 X147.843 Y42.06
G1 F1200 X157.578 Y51.795 E78.08505
G0 F3000 X157.578 Y52.361
G1 F1200 X147.277 Y42.06 E78.56957
G0 F3000 X146.711 Y42.06
G1 F1200 X157.578 Y52.926 E79.0807
G0 F3000 X157.578 Y53.492
G1 F1200 X146.146 Y42.06 E79.61843
G0 F3000 X145.58 Y42.06
G1 F1200 X157.578 Y54.058 E80.18278
G0 F3000 X157.578 Y54.623
G1 F1200 X145.014 Y42.06 E80.77373
G0 F3000 X144.449 Y42.06
G1 F1200 X157.578 Y55.189 E81.39127
G0 F3000 X157.578 Y55.755
G1 F1200 X143.883 Y42.06 E82.03544
G0 F3000 X143.317 Y42.06
G1 F1200 X157.578 Y56.321 E82.70624
G0 F3000 X157.578 Y56.886
G1 F1200 X142.752 Y42.06 E83.40361
G0 F3000 X142.186 Y42.06
G1 F1200 X157.578 Y57.452 E84.1276
G0 F3000 X157.578 Y58.018
G1 F1200 X141.62 Y42.06 E84.87822
G0 F3000 X141.055 Y42.06
G1 F1200 X157.534 Y58.539 E85.65334
G0 F3000 X156.969 Y58.539
G1 F1200 X140.489 Y42.06 E86.42848
G0 F3000 X139.923 Y42.06
G1 F1200 X156.403 Y58.539 E87.20363
G0 F3000 X155.837 Y58.539
G1 F1200 X139.358 Y42.06 E87.97875
G0 F3000 X138.792 Y42.06
G1 F1200 X155.272 Y58.539 E88.75389
G0 F3000 X154.706 Y58.539
G1 F1200 X138.226 Y42.06 E89.52904
G0 F3000 X137.66 Y42.06
G1 F1200 X154.14 Y58.539 E90.30418
G0 F3000 X153.575 Y58.539
G1 F1200 X137.095 Y42.06 E91.07933
G0 F3000 X136.529 Y42.06
G1 F1200 X153.009 Y58.539 E91.85447
G0 F3000 X152.443 Y58.539
G1 F1200 X135.963 Y42.06 E92.62962
G0 F3000 X135.398 Y42.06
G1 F1200 X151.878 Y58.539 E93.40476
G0 F3000 X151.312 Y58.539
G1 F1200 X134.832 Y42.06 E94.17991
G0 F3000 X134.266 Y42.06
G1 F1200 X150.746 Y58.539 E94.95506
G0 F3000 X150.18 Y58.539
G1 F1200 X133.701 Y42.06 E95.73018
G0 F3000 X133.135 Y42.06
G1 F1200 X149.615 Y58.539 E96.50532
G0 F3000 X149.049 Y58.539
G1 F1200 X132.569 Y42.06 E97.28047
G0 F3000 X132.004 Y42.06
G1 F1200 X148.483 Y58.539 E98.05559
G0 F3000 X147.918 Y58.539
G1 F1200 X131.438 Y42.06 E98.83073
G0 F3000 X130.872 Y42.06
G1 F1200 X147.352 Y58.539 E99.60588
G0 F3000 X146.786 Y58.539
G1 F1200 X130.307 Y42.06 E100.381
G0 F3000 X129.741 Y42.06
G1 F1200 X146.221 Y58.539 E101.15615
G0 F3000 X145.655 Y58.539
G1 F1200 X129.175 Y42.06 E101.93129
G0 F3000 X128.609 Y42.06
G1 F1200 X145.089 Y58.539 E102.70644
G0 F3000 X144.524 Y58.539
G1 F1200 X128.044 Y42.06 E103.48158
G0 F3000 X127.478 Y42.06
G1 F1200 X143.958 Y58.539 E104.25673
G0 F3000 X143.392 Y58.539
G1 F1200 X126.912 Y42.06 E105.03187
G0 F3000 X126.347 Y42.06
G1 F1200 X142.827 Y58.539 E105.80702
G0 F3000 X142.261 Y58.539
G1 F1200 X125.781 Y42.06 E106.58216
G0 F3000 X125.215 Y42.06
G1 F1200 X141.695 Y58.539 E107.35731
G0 F3000 X141.13 Y58.539
G1 F1200 X124.65 Y42.06 E108.13245
G0 F3000 X124.084 Y42.06
G1 F1200 X140.564 Y58.539 E108.9076
G0 F3000 X139.998 Y58.539
G1 F1200 X123.518 Y42.06 E109.68274
G0 F3000 X122.953 Y42.06
G1 F1200 X139.432 Y58.539 E110.45786
G0 F3000 X138.867 Y58.539
G1 F1200 X122.387 Y42.06 E111.23301
G0 F3000 X121.821 Y42.06
G1 F1200 X138.301 Y58.539 E112.00815
G0 F3000 X137.735 Y58.539
G1 F1200 X121.256 Y42.06 E112.78328
G0 F3000 X120.69 Y42.06
G1 F1200 X137.17 Y58.539 E113.55842
G0 F3000 X136.604 Y58.539
G1 F1200 X120.124 Y42.06 E114.33357
G0 F3000 X119.559 Y42.06
G1 F1200 X136.038 Y58.539 E115.10869
G0 F3000 X135.473 Y58.539
G1 F1200 X118.993 Y42.06 E115.88383
G0 F3000 X118.427 Y42.06
G1 F1200 X134.907 Y58.539 E116.65898
G0 F3000 X134.341 Y58.539
G1 F1200 X117.861 Y42.06 E117.43412
G0 F3000 X117.296 Y42.06
G1 F1200 X133.776 Y58.539 E118.20927
G0 F3000 X133.21 Y58.539
G1 F1200 X116.73 Y42.06 E118.98441
G0 F3000 X116.164 Y42.06
G1 F1200 X132.644 Y58.539 E119.75956
G0 F3000 X132.079 Y58.539
G1 F1200 X115.599 Y42.06 E120.5347
G0 F3000 X115.033 Y42.06
G1 F1200 X131.513 Y58.539 E121.30985
G0 F3000 X130.947 Y58.539
G1 F1200 X114.467 Y42.06 E122.08499
G0 F3000 X113.902 Y42.06
G1 F1200 X130.382 Y58.539 E122.86014
G0 F3000 X129.816 Y58.539
G1 F1200 X113.336 Y42.06 E123.63528
G0 F3000 X112.77 Y42.06
G1 F1200 X129.25 Y58.539 E124.41043
G0 F3000 X128.684 Y58.539
G1 F1200 X112.205 Y42.06 E125.18555
G0 F3000 X111.639 Y42.06
G1 F1200 X128.119 Y58.539 E125.9607
G0 F3000 X127.553 Y58.539
G1 F1200 X111.073 Y42.06 E126.73584
G0 F3000 X110.508 Y42.06
G1 F1200 X126.987 Y58.539 E127.51096
