;FLAVOR:Marlin
;TIME:3368
;Filament used: 1.09523m
;Layer height: 0.1
;MINX:86.023
;MINY:68.638
;MINZ:0.2
;MAXX:133.984
;MAXY:151.372
;MAXZ:2.2
;Generated with Cura_SteamEngine master
M82 ;absolute extrusion mode
;Sliced at: Fri 28-10-2022 22:14:27
;Basic settings: Layer height: 0.1 Walls: 0.8 Fill: 30.0
G21 ;metric values
G90 ;absolute positioning
M82 ;set extruder to absolute mode
M107 ;start with the fan off
M117 Start heating ...
M104 S200
M117 Homing X/Y ...
G28 X0 Y0 ;move X/Y to min endstops
M117 Homing Z ...
G28 Z0 ;move Z to min endstops
G1 Z15.0 F100 ;move the platform down 15mm
M117 Heating ...
M109 S200
M117 Start cleaning ...
G92 E0 ;zero the extruded length
G1 F200 E10 ;extrude 10mm of feed stock
G92 E0 ;zero the extruded length again
M117 Intro line ...
G1 Z2.0 F3000 ; Move Z Axis up little to prevent scratching of Heat Bed
G1 X0.1 Y20 Z0.1 F5000.0 ; Move to start position
G1 X0.1 Y200.0 Z0.1 F1500.0 E15 ; Draw the first line
G1 X0.4 Y200.0 Z0.1 F5000.0 ; Move to side a little
G1 X0.4 Y20 Z0.3 F1500.0 E30 ; Draw the second line
G92 E0 ; Reset Extruder
G1 E-1 F500 ; Retract filiment by 1 mm
G1 Z2.0 F3000 ; Move Z Axis up little to prevent scratching of Heat Bed
G1 X5 Y20 Z0.3 F100 ; Move over to prevent blob squish
G1 F100
G92 E0 ; Reset Extruder
M117 Printing...

G92 E0
G92 E0
G1 F1800 E-7
;LAYER_COUNT:19
;LAYER:0
M107
G1 F300 Z0.4
G0 F3000 X91.776 Y77.056 Z0.4
;TYPE:SKIRT
G1 F300 Z0.2
G1 F1800 E0
G1 F1200 X92.254 Y76.494 E0.02454
G1 X92.867 Y75.858 E0.05392
G1 X93.547 Y75.194 E0.08553
G1 X94.066 Y74.701 E0.10934
G1 X94.742 Y74.135 E0.13866
G1 X95.506 Y73.531 E0.17105
G1 X96.079 Y73.094 E0.19502
G1 X96.749 Y72.643 E0.22189
G1 X97.591 Y72.114 E0.25496
G1 X98.229 Y71.727 E0.27978
G1 X98.971 Y71.336 E0.30767
G1 X99.812 Y70.924 E0.33882
G1 X100.488 Y70.606 E0.36367
G1 X101.265 Y70.296 E0.39149
G1 X102.212 Y69.951 E0.42502
G1 X102.85 Y69.729 E0.44748
G1 X103.359 Y69.578 E0.46514
G1 X103.717 Y69.485 E0.47744
G1 X104.628 Y69.259 E0.50866
G1 X105.341 Y69.093 E0.53301
G1 X106.205 Y68.948 E0.56215
G1 X107.16 Y68.817 E0.59421
G1 X107.878 Y68.73 E0.61827
G1 X108.715 Y68.679 E0.64616
G1 X109.699 Y68.649 E0.6789
G1 X110.408 Y68.638 E0.70248
G1 X111.244 Y68.676 E0.73032
G1 X112.206 Y68.748 E0.7624
G1 X112.947 Y68.816 E0.78715
G1 X113.773 Y68.941 E0.81494
G1 X114.72 Y69.115 E0.84696
G1 X115.453 Y69.26 E0.87182
G1 X116.219 Y69.461 E0.89816
G1 X117.192 Y69.749 E0.93191
G1 X117.888 Y69.966 E0.95615
G1 X118.361 Y70.138 E0.97289
G1 X118.737 Y70.29 E0.98638
G1 X119.6 Y70.649 E1.01747
G1 X120.217 Y70.915 E1.03982
G1 X120.689 Y71.145 E1.05728
G1 X121.02 Y71.322 E1.06977
G1 X121.823 Y71.76 E1.10019
G1 X122.491 Y72.139 E1.12573
G1 X122.935 Y72.418 E1.14317
G1 X123.222 Y72.612 E1.1547
G1 X124.06 Y73.194 E1.18863
G1 X124.577 Y73.564 E1.20978
G1 X124.978 Y73.88 E1.22676
G1 X125.277 Y74.133 E1.23978
G1 X126.019 Y74.775 E1.27242
G1 X126.512 Y75.213 E1.29435
G1 X126.891 Y75.584 E1.31199
G1 X127.146 Y75.851 E1.32427
G1 X127.793 Y76.543 E1.35578
G1 X128.288 Y77.089 E1.38029
G1 X128.803 Y77.729 E1.40762
G1 X129.408 Y78.533 E1.44108
G1 X129.818 Y79.094 E1.46419
G1 X130.096 Y79.51 E1.48083
G1 X130.296 Y79.839 E1.49364
G1 X130.764 Y80.622 E1.52398
G1 X131.139 Y81.268 E1.54882
G1 X131.375 Y81.722 E1.56584
G1 X131.526 Y82.038 E1.57749
G1 X131.942 Y82.939 E1.6105
G1 X132.226 Y83.578 E1.63376
G1 X132.517 Y84.353 E1.66129
G1 X132.838 Y85.295 E1.69439
G1 X133.06 Y85.982 E1.7184
G1 X133.287 Y86.872 E1.74895
G1 X133.483 Y87.745 E1.77871
G1 X133.636 Y88.477 E1.80358
G1 X133.756 Y89.286 E1.83079
G1 X133.871 Y90.29 E1.8644
G1 X133.943 Y91.006 E1.88833
G1 X133.975 Y91.83 E1.91576
G1 X133.984 Y92.828 E1.94895
G1 X133.98 Y93.538 E1.97257
G1 X133.954 Y94.048 E1.98955
G1 X133.921 Y94.422 E2.00204
G1 X133.825 Y95.379 E2.03403
G1 X133.74 Y96.126 E2.05904
G1 X133.621 Y96.815 E2.08229
G1 X133.406 Y97.861 E2.11781
G1 X133.248 Y98.576 E2.14216
G1 X133.015 Y99.387 E2.17023
G1 X132.71 Y100.336 E2.20338
G1 X132.482 Y101.012 E2.22711
G1 X132.167 Y101.789 E2.255
G1 X131.766 Y102.694 E2.28792
G1 X131.426 Y103.432 E2.31495
G1 X130.945 Y104.406 E2.35108
G1 X129.78 Y106.85 E2.44113
G1 X128.679 Y109.34 E2.53168
G1 X127.645 Y111.867 E2.62249
G1 X126.696 Y114.39 E2.71215
G1 X125.807 Y116.97 E2.80291
G1 X125.001 Y119.542 E2.89256
G1 X124.258 Y122.178 E2.98365
G1 X123.59 Y124.823 E3.07438
G1 X123.012 Y127.433 E3.16329
G1 X122.497 Y130.108 E3.2539
G1 X122.056 Y132.808 E3.34489
G1 X121.698 Y135.468 E3.43416
G1 X121.409 Y138.2 E3.52553
G1 X121.2 Y140.899 E3.61557
G1 X121.068 Y143.605 E3.70568
G1 X121.025 Y146.029 E3.78632
G1 X121.019 Y146.099 E3.78865
G1 X121 Y147.42 E3.83259
G1 X120.952 Y147.983 E3.85139
G1 X120.825 Y148.534 E3.87019
G1 X120.621 Y149.062 E3.88902
G1 X120.346 Y149.555 E3.9078
G1 X120.003 Y150.005 E3.92662
G1 X119.601 Y150.402 E3.94541
G1 X119.146 Y150.738 E3.96422
G1 X118.649 Y151.007 E3.98302
G1 X118.119 Y151.203 E4.00181
G1 X117.566 Y151.323 E4.02063
G1 X116.792 Y151.37 E4.04642
G1 X116.683 Y151.372 E4.05005
G1 X113.237 Y151.372 E4.16466
G1 X111.321 Y151.345 E4.2284
G1 X108.606 Y151.345 E4.3187
G1 X107.982 Y151.36 E4.33946
G1 X106.877 Y151.372 E4.37621
G1 X103.66 Y151.372 E4.48321
G1 X102.962 Y151.362 E4.50643
G1 X102.398 Y151.314 E4.52525
G1 X101.848 Y151.187 E4.54403
G1 X101.32 Y150.983 E4.56285
G1 X100.826 Y150.708 E4.58166
G1 X100.377 Y150.365 E4.60045
G1 X99.98 Y149.963 E4.61924
G1 X99.643 Y149.508 E4.63808
G1 X99.375 Y149.011 E4.65686
G1 X99.179 Y148.481 E4.67565
G1 X99.059 Y147.928 E4.69447
G1 X99.011 Y147.138 E4.7208
G1 X99.007 Y146.677 E4.73613
G1 X98.97 Y144.16 E4.81985
G1 X98.857 Y141.489 E4.90877
G1 X98.665 Y138.782 E4.99903
G1 X98.395 Y136.061 E5.08998
G1 X98.052 Y133.376 E5.18001
G1 X97.629 Y130.685 E5.27061
G1 X97.129 Y127.994 E5.36164
G1 X96.57 Y125.4 E5.4499
G1 X95.918 Y122.739 E5.54103
G1 X95.195 Y120.109 E5.63174
G1 X94.395 Y117.496 E5.72264
G1 X93.537 Y114.955 E5.81184
G1 X92.591 Y112.388 E5.90283
G1 X91.585 Y109.884 E5.99258
G1 X90.503 Y107.396 E6.08282
G1 X88.868 Y103.956 E6.2095
G1 X88.746 Y103.713 E6.21854
G1 X88.319 Y102.841 E6.25084
G1 X88.01 Y102.185 E6.27496
G1 X87.772 Y101.609 E6.29568
G1 X87.373 Y100.526 E6.33407
G1 X87.156 Y99.909 E6.35583
G1 X86.975 Y99.302 E6.37689
G1 X86.72 Y98.318 E6.4107
G1 X86.544 Y97.596 E6.43542
G1 X86.435 Y97.037 E6.45436
G1 X86.392 Y96.776 E6.46316
G1 X86.26 Y95.91 E6.4923
G1 X86.16 Y95.189 E6.51651
G1 X86.108 Y94.637 E6.53495
G1 X86.1 Y94.511 E6.53915
G1 X86.047 Y93.454 E6.57435
G1 X86.023 Y92.75 E6.59777
G1 X86.029 Y92.189 E6.61643
G1 X86.04 Y91.95 E6.62439
G1 X86.095 Y90.931 E6.65833
G1 X86.142 Y90.234 E6.68157
G1 X86.199 Y89.734 E6.69831
G1 X86.259 Y89.337 E6.71166
G1 X86.413 Y88.383 E6.7438
G1 X86.529 Y87.718 E6.76625
G1 X86.729 Y86.884 E6.79478
G1 X86.992 Y85.917 E6.82811
G1 X87.186 Y85.242 E6.85147
G1 X87.486 Y84.402 E6.88114
G1 X87.835 Y83.51 E6.91299
G1 X88.096 Y82.868 E6.93604
G1 X88.489 Y82.052 E6.96617
G1 X88.909 Y81.24 E6.99657
G1 X89.249 Y80.607 E7.02047
G1 X89.518 Y80.159 E7.03785
G1 X89.731 Y79.83 E7.05089
G1 X90.243 Y79.056 E7.08175
G1 X90.66 Y78.447 E7.1063
G1 X91.126 Y77.843 E7.13168
G1 X91.776 Y77.056 E7.16563
G0 F3000 X92.081 Y77.316
G1 F1200 X92.559 Y76.754 E7.19017
G1 X93.149 Y76.142 E7.21844
G1 X93.823 Y75.484 E7.24977
G1 X94.342 Y74.991 E7.27358
G1 X94.992 Y74.446 E7.30179
G1 X95.749 Y73.849 E7.33385
G1 X96.322 Y73.412 E7.35782
G1 X96.965 Y72.979 E7.38361
G1 X97.799 Y72.456 E7.41635
G1 X98.437 Y72.069 E7.44117
G1 X99.151 Y71.694 E7.46799
G1 X99.983 Y71.286 E7.49881
G1 X100.659 Y70.968 E7.52366
G1 X101.405 Y70.67 E7.55038
G1 X102.344 Y70.329 E7.5836
G1 X102.982 Y70.107 E7.60607
G1 X103.779 Y69.882 E7.63362
G1 X104.719 Y69.649 E7.66583
G1 X105.432 Y69.483 E7.69018
G1 X106.265 Y69.344 E7.71826
G1 X107.208 Y69.214 E7.74993
G1 X107.926 Y69.127 E7.77398
G1 X108.732 Y69.079 E7.80084
G1 X109.705 Y69.049 E7.83321
G1 X110.414 Y69.038 E7.8568
G1 X111.219 Y69.075 E7.8836
G1 X112.233 Y69.152 E7.91742
G1 X112.911 Y69.214 E7.94007
G1 X113.706 Y69.335 E7.96681
G1 X114.691 Y69.517 E8.00013
G1 X115.375 Y69.652 E8.02332
G1 X116.109 Y69.846 E8.04857
G1 X117.073 Y70.131 E8.082
G1 X117.769 Y70.348 E8.10625
G1 X118.548 Y70.645 E8.13398
G1 X119.441 Y71.016 E8.16614
G1 X120.058 Y71.282 E8.18849
G1 X120.803 Y71.659 E8.21626
G1 X121.626 Y72.108 E8.24744
G1 X122.294 Y72.487 E8.27299
G1 X122.958 Y72.917 E8.2993
G1 X123.827 Y73.519 E8.33446
G1 X124.344 Y73.889 E8.35561
G1 X124.986 Y74.41 E8.38311
G1 X125.753 Y75.074 E8.41685
G1 X126.246 Y75.512 E8.43878
G1 X126.831 Y76.1 E8.46637
G1 X127.497 Y76.812 E8.4988
G1 X127.992 Y77.358 E8.52331
G1 X128.486 Y77.974 E8.54957
G1 X129.086 Y78.769 E8.5827
G1 X129.496 Y79.33 E8.60581
G1 X129.935 Y80.015 E8.63287
G1 X130.418 Y80.823 E8.66418
G1 X130.793 Y81.469 E8.68902
G1 X131.141 Y82.16 E8.71476
G1 X131.555 Y83.053 E8.74749
G1 X131.861 Y83.741 E8.77254
G1 X132.14 Y84.486 E8.799
G1 X132.459 Y85.423 E8.83192
G1 X132.679 Y86.105 E8.85575
G1 X132.898 Y86.964 E8.88524
G1 X133.103 Y87.88 E8.91646
G1 X133.245 Y88.559 E8.93953
G1 X133.359 Y89.336 E8.96565
G1 X133.473 Y90.33 E8.99893
G1 X133.545 Y91.046 E9.02286
G1 X133.575 Y91.838 E9.04922
G1 X133.584 Y92.825 E9.08205
G1 X133.58 Y93.535 E9.10567
G1 X133.526 Y94.343 E9.1326
G1 X133.428 Y95.334 E9.16572
G1 X133.343 Y96.081 E9.19073
G1 X133.229 Y96.738 E9.21291
G1 X133.015 Y97.775 E9.24812
G1 X132.857 Y98.49 E9.27248
G1 X132.633 Y99.269 E9.29944
G1 X132.348 Y100.159 E9.33052
G1 X132.103 Y100.885 E9.356
G1 X131.799 Y101.631 E9.3828
G1 X131.403 Y102.527 E9.41538
G1 X131.067 Y103.255 E9.44205
G1 X130.608 Y104.184 E9.47651
G1 X129.411 Y106.695 E9.56903
G1 X128.315 Y109.176 E9.65924
G1 X127.277 Y111.711 E9.75035
G1 X126.315 Y114.267 E9.84119
G1 X125.427 Y116.847 E9.93194
G1 X124.62 Y119.42 E10.02163
G1 X123.878 Y122.052 E10.11258
G1 X123.199 Y124.743 E10.20489
G1 X122.617 Y127.37 E10.29438
G1 X122.102 Y130.046 E10.38502
G1 X121.663 Y132.733 E10.47557
G1 X121.298 Y135.444 E10.56656
G1 X121.01 Y138.163 E10.6575
G1 X120.803 Y140.847 E10.74703
G1 X120.668 Y143.611 E10.83907
G1 X120.625 Y146.022 E10.91927
G1 X120.619 Y146.089 E10.92151
G1 X120.6 Y147.414 E10.96559
G1 X120.552 Y147.948 E10.98342
G1 X120.426 Y148.47 E11.00128
G1 X120.223 Y148.966 E11.0191
G1 X119.949 Y149.427 E11.03694
G1 X119.61 Y149.842 E11.05476
G1 X119.213 Y150.203 E11.07261
G1 X118.766 Y150.5 E11.09046
G1 X118.281 Y150.727 E11.10827
G1 X117.767 Y150.88 E11.12611
G1 X117.101 Y150.962 E11.14843
G1 X116.683 Y150.972 E11.16233
G1 X113.242 Y150.972 E11.27678
G1 X111.326 Y150.945 E11.34051
G1 X108.596 Y150.945 E11.43131
G1 X107.978 Y150.96 E11.45188
G1 X106.878 Y150.972 E11.48846
G1 X103.665 Y150.972 E11.59533
G1 X102.967 Y150.962 E11.61855
G1 X102.433 Y150.914 E11.63638
G1 X101.912 Y150.788 E11.65421
G1 X101.415 Y150.585 E11.67206
G1 X100.954 Y150.311 E11.6899
G1 X100.539 Y149.972 E11.70772
G1 X100.179 Y149.574 E11.72557
G1 X99.882 Y149.128 E11.74339
G1 X99.654 Y148.642 E11.76125
G1 X99.502 Y148.128 E11.77908
G1 X99.42 Y147.46 E11.80146
G1 X99.407 Y146.674 E11.82761
G1 X99.371 Y144.173 E11.9108
G1 X99.255 Y141.444 E12.00165
G1 X99.061 Y138.715 E12.09264
G1 X98.796 Y136.038 E12.18212
G1 X98.446 Y133.3 E12.27392
G1 X98.025 Y130.622 E12.36409
G1 X97.527 Y127.943 E12.45472
G1 X96.963 Y125.326 E12.54376
G1 X96.298 Y122.61 E12.63676
G1 X95.578 Y119.991 E12.7271
G1 X94.784 Y117.399 E12.81727
G1 X93.916 Y114.826 E12.90758
G1 X92.961 Y112.237 E12.99937
G1 X91.947 Y109.712 E13.08987
G1 X90.863 Y107.219 E13.18028
G1 X89.259 Y103.844 E13.30457
G1 X89.105 Y103.537 E13.31599
G1 X88.681 Y102.67 E13.34809
G1 X88.372 Y102.014 E13.37221
G1 X88.148 Y101.47 E13.39178
G1 X87.75 Y100.393 E13.42997
G1 X87.533 Y99.776 E13.45172
G1 X87.36 Y99.193 E13.47195
G1 X87.097 Y98.174 E13.50695
G1 X86.933 Y97.502 E13.52996
G1 X86.829 Y96.966 E13.54812
G1 X86.787 Y96.715 E13.55658
G1 X86.656 Y95.855 E13.58551
G1 X86.556 Y95.134 E13.60972
G1 X86.507 Y94.604 E13.62743
G1 X86.447 Y93.441 E13.66616
G1 X86.423 Y92.737 E13.68959
G1 X86.429 Y92.207 E13.70722
G1 X86.439 Y91.971 E13.71507
G1 X86.494 Y90.958 E13.74882
G1 X86.541 Y90.261 E13.77205
G1 X86.647 Y89.443 E13.79949
G1 X86.807 Y88.451 E13.83291
G1 X86.923 Y87.786 E13.85536
G1 X87.116 Y86.985 E13.88276
G1 X87.376 Y86.028 E13.91575
G1 X87.57 Y85.353 E13.9391
G1 X87.86 Y84.544 E13.96769
G1 X88.205 Y83.66 E13.99925
G1 X88.466 Y83.018 E14.0223
G1 X88.845 Y82.232 E14.05132
G1 X89.262 Y81.43 E14.08139
G1 X89.602 Y80.797 E14.10529
G1 X90.046 Y80.078 E14.13339
G1 X90.573 Y79.282 E14.16514
G1 X90.99 Y78.673 E14.18969
G1 X91.437 Y78.095 E14.214
G1 X92.081 Y77.316 E14.24761
G0 F3000 X92.385 Y77.575
G1 F1200 X92.863 Y77.013 E14.27215
G1 X93.431 Y76.425 E14.29934
G1 X94.098 Y75.774 E14.33034
G1 X94.617 Y75.281 E14.35415
G1 X95.243 Y74.758 E14.38128
G1 X95.991 Y74.168 E14.41297
G1 X96.564 Y73.731 E14.43694
G1 X97.182 Y73.316 E14.4617
G1 X98.006 Y72.798 E14.49407
G1 X98.644 Y72.411 E14.51889
G1 X99.331 Y72.051 E14.54468
G1 X100.153 Y71.648 E14.57513
G1 X100.829 Y71.33 E14.59998
G1 X101.545 Y71.045 E14.62561
G1 X102.475 Y70.707 E14.65852
G1 X103.113 Y70.485 E14.68099
G1 X103.88 Y70.269 E14.70749
G1 X104.809 Y70.038 E14.73933
G1 X105.522 Y69.872 E14.76368
G1 X106.324 Y69.739 E14.79072
G1 X107.256 Y69.611 E14.82201
G1 X107.974 Y69.524 E14.84607
G1 X108.749 Y69.479 E14.87189
G1 X109.711 Y69.449 E14.9039
G1 X110.42 Y69.438 E14.92748
G1 X111.193 Y69.474 E14.95322
G1 X112.196 Y69.55 E14.98668
G1 X112.874 Y69.612 E15.00932
G1 X113.639 Y69.73 E15.03506
G1 X114.575 Y69.902 E15.06672
G1 X115.298 Y70.045 E15.09123
G1 X116 Y70.231 E15.11538
G1 X116.909 Y70.499 E15.1469
G1 X117.649 Y70.73 E15.17269
G1 X118.399 Y71.016 E15.19939
G1 X119.283 Y71.383 E15.23122
G1 X119.9 Y71.649 E15.25357
G1 X120.615 Y72.012 E15.28024
G1 X121.381 Y72.429 E15.30925
G1 X122.096 Y72.835 E15.33659
G1 X122.734 Y73.248 E15.36187
G1 X123.594 Y73.845 E15.39669
G1 X124.111 Y74.215 E15.41784
G1 X124.728 Y74.716 E15.44427
G1 X125.487 Y75.373 E15.47766
G1 X125.98 Y75.811 E15.49959
G1 X126.541 Y76.376 E15.52608
G1 X127.201 Y77.081 E15.5582
G1 X127.696 Y77.627 E15.58271
G1 X128.17 Y78.218 E15.60791
G1 X128.763 Y79.005 E15.64068
G1 X129.173 Y79.566 E15.66379
G1 X129.594 Y80.224 E15.68977
G1 X130.073 Y81.023 E15.72076
G1 X130.448 Y81.669 E15.7456
G1 X130.781 Y82.333 E15.77031
G1 X131.211 Y83.264 E15.80442
G1 X131.495 Y83.903 E15.82767
G1 X131.763 Y84.618 E15.85307
G1 X132.095 Y85.597 E15.88745
G1 X132.299 Y86.228 E15.90951
G1 X132.509 Y87.055 E15.93789
G1 X132.711 Y87.962 E15.9688
G1 X132.853 Y88.641 E15.99187
G1 X132.962 Y89.386 E16.01691
G1 X133.075 Y90.37 E16.04985
G1 X133.147 Y91.086 E16.07379
G1 X133.175 Y91.845 E16.09905
G1 X133.184 Y92.823 E16.13158
G1 X133.18 Y93.533 E16.15519
G1 X133.128 Y94.308 E16.18103
G1 X133.03 Y95.289 E16.21382
G1 X132.945 Y96.036 E16.23883
G1 X132.836 Y96.662 E16.25996
G1 X132.625 Y97.688 E16.2948
G1 X132.467 Y98.403 E16.31915
G1 X132.251 Y99.151 E16.34505
G1 X131.952 Y100.081 E16.37754
G1 X131.724 Y100.757 E16.40127
G1 X131.432 Y101.472 E16.42696
G1 X131.039 Y102.36 E16.45925
G1 X130.708 Y103.078 E16.48555
G1 X130.247 Y104.012 E16.52019
G1 X129.048 Y106.527 E16.61286
G1 X127.936 Y109.042 E16.70432
G1 X126.907 Y111.555 E16.79464
G1 X125.945 Y114.113 E16.88554
G1 X125.035 Y116.756 E16.97851
G1 X124.239 Y119.296 E17.06704
G1 X123.491 Y121.951 E17.15878
G1 X122.808 Y124.656 E17.25158
G1 X122.226 Y127.287 E17.3412
G1 X121.709 Y129.971 E17.43211
G1 X121.265 Y132.687 E17.52364
G1 X120.902 Y135.386 E17.61422
G1 X120.612 Y138.124 E17.7058
G1 X120.402 Y140.835 E17.79624
G1 X120.27 Y143.552 E17.88671
G1 X120.226 Y146.015 E17.96864
G1 X120.219 Y146.089 E17.97112
G1 X120.2 Y147.409 E18.01502
G1 X120.153 Y147.912 E18.03183
G1 X120.027 Y148.402 E18.04865
G1 X119.825 Y148.865 E18.06545
G1 X119.554 Y149.292 E18.08228
G1 X119.218 Y149.67 E18.0991
G1 X118.827 Y149.99 E18.1159
G1 X118.39 Y150.245 E18.13273
G1 X117.919 Y150.428 E18.14954
G1 X117.425 Y150.535 E18.16635
G1 X116.77 Y150.571 E18.18817
G1 X115.5 Y150.573 E18.23041
G1 X113.248 Y150.572 E18.30531
G1 X111.332 Y150.545 E18.36904
G1 X108.586 Y150.545 E18.46037
G1 X107.973 Y150.56 E18.48077
G1 X106.878 Y150.572 E18.51719
