;FLAVOR:Marlin
;TIME:3303
;Filament used: 1.4915m
;Layer height: 0.2
;MINX:96.59
;MINY:63.5
;MINZ:0.2
;MAXX:123.41
;MAXY:156.5
;MAXZ:3.2
;Generated with Cura_SteamEngine master
M82 ;absolute extrusion mode
;Sliced at: Sat 25-02-2023 21:25:19
;Basic settings: Layer height: 0.2 Walls: 0.8 Fill: 30.0
G21 ;metric values
G90 ;absolute positioning
M82 ;set extruder to absolute mode
M107 ;start with the fan off
M117 Start heating ...
M104 S200
M117 Homing X/Y ...
G28 X0 Y0 ;move X/Y to min endstops
M117 Homing Z ...
G28 Z0 ;move Z to min endstops
G1 Z15.0 F100 ;move the platform down 15mm
M117 Heating ...
M109 S200
M117 Start cleaning ...
G92 E0 ;zero the extruded length
G1 F200 E10 ;extrude 10mm of feed stock
G92 E0 ;zero the extruded length again
M117 Intro line ...
G1 Z2.0 F3000 ; Move Z Axis up little to prevent scratching of Heat Bed
G1 X0.1 Y20 Z0.2 F5000.0 ; Move to start position
G1 X0.1 Y200.0 Z0.2 F1500.0 E15 ; Draw the first line
G1 X0.4 Y200.0 Z0.2 F5000.0 ; Move to side a little
G1 X0.4 Y20 Z0.3 F1500.0 E30 ; Draw the second line
G92 E0 ; Reset Extruder
G1 E-1 F500 ; Retract filiment by 1 mm
G1 Z2.0 F3000 ; Move Z Axis up little to prevent scratching of Heat Bed
G1 X5 Y20 Z0.3 F100 ; Move over to prevent blob squish
G1 F100
G92 E0 ; Reset Extruder
M117 Printing...

G92 E0
G92 E0
G1 F1800 E-7
;LAYER_COUNT:15
;LAYER:0
M107
G1 F300 Z0.4
G0 F3000 X97.252 Y65.319 Z0.4
;TYPE:SKIRT
G1 F300 Z0.2
G1 F1800 E0
G1 F1200 X97.594 Y64.869 E0.0188
G1 X97.996 Y64.472 E0.03759
G1 X98.45 Y64.135 E0.0564
G1 X98.947 Y63.866 E0.07519
G1 X99.477 Y63.669 E0.094
G1 X100.03 Y63.55 E0.11281
G1 X100.808 Y63.502 E0.13874
G1 X100.92 Y63.5 E0.14246
G1 X118.76 Y63.5 E0.73582
G1 X119.458 Y63.51 E0.75904
G1 X120.022 Y63.558 E0.77787
G1 X120.572 Y63.685 E0.79664
G1 X121.1 Y63.889 E0.81547
G1 X121.594 Y64.164 E0.83427
G1 X122.043 Y64.507 E0.85307
G1 X122.44 Y64.909 E0.87186
G1 X122.777 Y65.364 E0.89069
G1 X123.045 Y65.861 E0.90947
G1 X123.241 Y66.391 E0.92827
G1 X123.361 Y66.944 E0.94709
G1 X123.408 Y67.718 E0.97288
G1 X123.41 Y67.83 E0.9766
G1 X123.41 Y151.814 E3.76992
G1 X123.401 Y152.541 E3.79411
G1 X123.354 Y153.104 E3.8129
G1 X123.228 Y153.655 E3.8317
G1 X123.026 Y154.183 E3.8505
G1 X122.751 Y154.677 E3.8693
G1 X122.409 Y155.127 E3.8881
G1 X122.007 Y155.525 E3.90692
G1 X121.554 Y155.862 E3.9257
G1 X121.057 Y156.132 E3.94451
G1 X120.527 Y156.329 E3.96331
G1 X119.975 Y156.45 E3.98211
G1 X119.192 Y156.498 E4.0082
G1 X119.08 Y156.5 E4.01193
G1 X101.245 Y156.5 E4.60512
G1 X100.547 Y156.491 E4.62834
G1 X99.984 Y156.443 E4.64713
G1 X99.433 Y156.317 E4.66593
G1 X98.905 Y156.115 E4.68473
G1 X98.411 Y155.84 E4.70354
G1 X97.961 Y155.498 E4.72234
G1 X97.563 Y155.096 E4.74115
G1 X97.227 Y154.642 E4.75994
G1 X96.957 Y154.145 E4.77875
G1 X96.76 Y153.615 E4.79756
G1 X96.64 Y153.063 E4.81635
G1 X96.591 Y152.266 E4.8429
G1 X96.59 Y68.12 E7.64161
G1 X96.599 Y67.455 E7.66373
G1 X96.647 Y66.892 E7.68252
G1 X96.773 Y66.341 E7.70132
G1 X96.976 Y65.813 E7.72014
G1 X97.252 Y65.319 E7.73896
G0 F3000 X97.648 Y65.447
G1 F1200 X97.987 Y65.031 E7.75681
G1 X98.384 Y64.671 E7.77463
G1 X98.831 Y64.373 E7.7925
G1 X99.316 Y64.145 E7.81033
G1 X99.83 Y63.992 E7.82816
G1 X100.498 Y63.91 E7.85055
G1 X100.92 Y63.9 E7.86459
G1 X118.755 Y63.9 E8.45778
G1 X119.453 Y63.91 E8.481
G1 X119.987 Y63.958 E8.49883
G1 X120.508 Y64.084 E8.51666
G1 X121.005 Y64.287 E8.53452
G1 X121.466 Y64.561 E8.55235
G1 X121.881 Y64.9 E8.57018
G1 X122.241 Y65.298 E8.58802
G1 X122.538 Y65.744 E8.60585
G1 X122.766 Y66.23 E8.6237
G1 X122.918 Y66.744 E8.64153
G1 X123 Y67.409 E8.66381
G1 X123.01 Y67.83 E8.67782
G1 X123.01 Y151.809 E11.47097
G1 X123.001 Y152.536 E11.49516
G1 X122.954 Y153.07 E11.51299
G1 X122.829 Y153.591 E11.53081
G1 X122.627 Y154.088 E11.54865
G1 X122.354 Y154.55 E11.5665
G1 X122.016 Y154.966 E11.58433
G1 X121.619 Y155.327 E11.60217
G1 X121.173 Y155.625 E11.62001
G1 X120.688 Y155.853 E11.63784
G1 X120.174 Y156.007 E11.65568
G1 X119.502 Y156.09 E11.67821
G1 X119.08 Y156.1 E11.69224
G1 X101.251 Y156.1 E12.28524
G1 X100.553 Y156.091 E12.30846
G1 X100.018 Y156.044 E12.32632
G1 X99.497 Y155.918 E12.34415
G1 X99 Y155.716 E12.36199
G1 X98.539 Y155.443 E12.37981
G1 X98.123 Y155.104 E12.39766
G1 X97.762 Y154.708 E12.41548
G1 X97.464 Y154.262 E12.43332
G1 X97.236 Y153.776 E12.45118
G1 X97.083 Y153.262 E12.46901
G1 X97 Y152.588 E12.4916
G1 X96.99 Y152.158 E12.50591
G1 X96.99 Y68.125 E15.30086
G1 X96.999 Y67.46 E15.32298
G1 X97.047 Y66.926 E15.34081
G1 X97.173 Y66.405 E15.35864
G1 X97.375 Y65.908 E15.37648
G1 X97.648 Y65.447 E15.3943
G0 F3000 X98.044 Y65.582
G1 F1200 X98.379 Y65.204 E15.4111
G1 X98.77 Y64.883 E15.42793
G1 X99.207 Y64.628 E15.44475
G1 X99.678 Y64.444 E15.46157
G1 X100.172 Y64.338 E15.47838
G1 X100.83 Y64.301 E15.5003
G1 X118.749 Y64.3 E16.09628
G1 X119.447 Y64.31 E16.1195
G1 X119.95 Y64.357 E16.13631
G1 X120.44 Y64.483 E16.15313
G1 X120.904 Y64.685 E16.16996
G1 X121.33 Y64.957 E16.18678
G1 X121.708 Y65.292 E16.20357
G1 X122.028 Y65.683 E16.22038
G1 X122.283 Y66.12 E16.23721
G1 X122.466 Y66.591 E16.25401
G1 X122.573 Y67.085 E16.27083
G1 X122.609 Y67.74 E16.29264
G1 X122.61 Y151.804 E19.08862
G1 X122.601 Y152.531 E19.11281
G1 X122.555 Y153.034 E19.12961
G1 X122.43 Y153.524 E19.14642
G1 X122.229 Y153.988 E19.16324
G1 X121.958 Y154.415 E19.18006
G1 X121.623 Y154.794 E19.19689
G1 X121.233 Y155.115 E19.21369
G1 X120.797 Y155.371 E19.2305
G1 X120.326 Y155.554 E19.24731
G1 X119.832 Y155.662 E19.26413
G1 X119.17 Y155.699 E19.28618
G1 X101.256 Y155.7 E19.882
G1 X100.558 Y155.691 E19.90522
G1 X100.054 Y155.644 E19.92206
G1 X99.564 Y155.519 E19.93888
G1 X99.1 Y155.318 E19.9557
G1 X98.674 Y155.047 E19.97249
G1 X98.295 Y154.712 E19.98931
G1 X97.974 Y154.321 E20.00614
G1 X97.719 Y153.885 E20.02294
G1 X97.535 Y153.414 E20.03976
G1 X97.428 Y152.92 E20.05657
G1 X97.391 Y152.244 E20.07909
G1 X97.39 Y68.131 E22.87669
G1 X97.399 Y67.466 E22.89881
G1 X97.446 Y66.962 E22.91565
G1 X97.572 Y66.473 E22.93245
G1 X97.773 Y66.009 E22.94926
G1 X98.044 Y65.582 E22.96609
G1 F1800 E15.96609
G1 F300 Z0.4
;MESH:clock-I.stl
G0 F3000 X118.81 Y151.9 Z0.4
;TYPE:WALL-INNER
G1 F300 Z0.2
G1 F1800 E22.96609
G1 F1200 X101.19 Y151.9 E23.55213
G1 X101.19 Y68.1 E26.33933
G1 X118.81 Y68.1 E26.92537
G1 X118.81 Y151.9 E29.71257
G0 F3000 X119.21 Y152.3
;TYPE:WALL-OUTER
G1 F1200 X100.79 Y152.3 E30.32522
G1 X100.79 Y67.7 E33.13903
G1 X119.21 Y67.7 E33.75168
G1 X119.21 Y152.3 E36.56549
G0 F3000 X119.01 Y152.3
G0 X118.77 Y151.86
G0 X118.42 Y151.51
;TYPE:SKIN
G1 F1200 X101.58 Y151.51 E37.12559
G1 X101.58 Y68.49 E39.88685
G1 X118.42 Y68.49 E40.44695
G1 X118.42 Y151.51 E43.2082
G0 F3000 X118.7 Y151.51
G0 X102.114 Y151.79
G0 X102.114 Y151.329
G1 F1200 X101.759 Y150.974 E43.2249
G0 F3000 X101.759 Y150.408
G1 F1200 X102.68 Y151.329 E43.26822
G0 F3000 X103.246 Y151.329
G1 F1200 X101.759 Y149.842 E43.33817
G0 F3000 X101.759 Y149.277
G1 F1200 X103.811 Y151.329 E43.43469
G0 F3000 X104.377 Y151.329
G1 F1200 X101.759 Y148.711 E43.55783
G0 F3000 X101.759 Y148.145
G1 F1200 X104.943 Y151.329 E43.70759
G0 F3000 X105.508 Y151.329
G1 F1200 X101.759 Y147.58 E43.88394
G0 F3000 X101.759 Y147.014
G1 F1200 X106.074 Y151.329 E44.0869
G0 F3000 X106.64 Y151.329
G1 F1200 X101.759 Y146.448 E44.31649
G0 F3000 X101.759 Y145.883
G1 F1200 X107.205 Y151.329 E44.57265
G0 F3000 X107.771 Y151.329
G1 F1200 X101.759 Y145.317 E44.85544
G0 F3000 X101.759 Y144.751
G1 F1200 X108.337 Y151.329 E45.16485
G0 F3000 X108.902 Y151.329
G1 F1200 X101.759 Y144.186 E45.50083
G0 F3000 X101.759 Y143.62
G1 F1200 X109.468 Y151.329 E45.86344
G0 F3000 X110.034 Y151.329
G1 F1200 X101.759 Y143.054 E46.25267
G0 F3000 X101.759 Y142.489
G1 F1200 X110.599 Y151.329 E46.66848
G0 F3000 X111.165 Y151.329
G1 F1200 X101.759 Y141.923 E47.11091
G0 F3000 X101.759 Y141.357
G1 F1200 X111.731 Y151.329 E47.57996
G0 F3000 X112.297 Y151.329
G1 F1200 X101.759 Y140.792 E48.07561
G0 F3000 X101.759 Y140.226
G1 F1200 X112.862 Y151.329 E48.59786
G0 F3000 X113.428 Y151.329
G1 F1200 X101.759 Y139.66 E49.14673
G0 F3000 X101.759 Y139.094
G1 F1200 X113.994 Y151.329 E49.72223
G0 F3000 X114.559 Y151.329
G1 F1200 X101.759 Y138.529 E50.3243
G0 F3000 X101.759 Y137.963
G1 F1200 X115.125 Y151.329 E50.953
G0 F3000 X115.691 Y151.329
G1 F1200 X101.759 Y137.397 E51.60832
G0 F3000 X101.759 Y136.832
G1 F1200 X116.256 Y151.329 E52.29021
G0 F3000 X116.822 Y151.329
G1 F1200 X101.759 Y136.266 E52.99873
G0 F3000 X101.759 Y135.7
G1 F1200 X117.388 Y151.329 E53.73387
G0 F3000 X117.953 Y151.329
G1 F1200 X101.759 Y135.135 E54.49559
G0 F3000 X101.759 Y134.569
G1 F1200 X118.239 Y151.049 E55.27075
G0 F3000 X118.239 Y150.483
G1 F1200 X101.759 Y134.003 E56.04592
G0 F3000 X101.759 Y133.438
G1 F1200 X118.239 Y149.917 E56.82107
G0 F3000 X118.239 Y149.352
G1 F1200 X101.759 Y132.872 E57.59624
G0 F3000 X101.759 Y132.306
G1 F1200 X118.239 Y148.786 E58.37141
G0 F3000 X118.239 Y148.22
G1 F1200 X101.759 Y131.741 E59.14655
G0 F3000 X101.759 Y131.175
G1 F1200 X118.239 Y147.655 E59.92172
G0 F3000 X118.239 Y147.089
G1 F1200 X101.759 Y130.609 E60.69689
G0 F3000 X101.759 Y130.044
G1 F1200 X118.239 Y146.523 E61.47203
G0 F3000 X118.239 Y145.958
G1 F1200 X101.759 Y129.478 E62.2472
G0 F3000 X101.759 Y128.912
G1 F1200 X118.239 Y145.392 E63.02237
G0 F3000 X118.239 Y144.826
G1 F1200 X101.759 Y128.346 E63.79754
G0 F3000 X101.759 Y127.781
G1 F1200 X118.239 Y144.261 E64.57271
G0 F3000 X118.239 Y143.695
G1 F1200 X101.759 Y127.215 E65.34788
G0 F3000 X101.759 Y126.649
G1 F1200 X118.239 Y143.129 E66.12305
G0 F3000 X118.239 Y142.564
G1 F1200 X101.759 Y126.084 E66.89821
G0 F3000 X101.759 Y125.518
G1 F1200 X118.239 Y141.998 E67.67338
G0 F3000 X118.239 Y141.432
G1 F1200 X101.759 Y124.952 E68.44855
G0 F3000 X101.759 Y124.387
G1 F1200 X118.239 Y140.866 E69.2237
G0 F3000 X118.239 Y140.301
G1 F1200 X101.759 Y123.821 E69.99887
G0 F3000 X101.759 Y123.255
G1 F1200 X118.239 Y139.735 E70.77403
G0 F3000 X118.239 Y139.169
G1 F1200 X101.759 Y122.69 E71.54918
G0 F3000 X101.759 Y122.124
G1 F1200 X118.239 Y138.604 E72.32435
G0 F3000 X118.239 Y138.038
G1 F1200 X101.759 Y121.558 E73.09952
G0 F3000 X101.759 Y120.993
G1 F1200 X118.239 Y137.472 E73.87466
G0 F3000 X118.239 Y136.907
G1 F1200 X101.759 Y120.427 E74.64983
G0 F3000 X101.759 Y119.861
G1 F1200 X118.239 Y136.341 E75.425
G0 F3000 X118.239 Y135.775
G1 F1200 X101.759 Y119.295 E76.20017
G0 F3000 X101.759 Y118.73
G1 F1200 X118.239 Y135.21 E76.97534
G0 F3000 X118.239 Y134.644
G1 F1200 X101.759 Y118.164 E77.75051
G0 F3000 X101.759 Y117.598
G1 F1200 X118.239 Y134.078 E78.52567
G0 F3000 X118.239 Y133.513
G1 F1200 X101.759 Y117.033 E79.30084
G0 F3000 X101.759 Y116.467
G1 F1200 X118.239 Y132.947 E80.07601
G0 F3000 X118.239 Y132.381
G1 F1200 X101.759 Y115.901 E80.85118
G0 F3000 X101.759 Y115.336
G1 F1200 X118.239 Y131.816 E81.62635
G0 F3000 X118.239 Y131.25
G1 F1200 X101.759 Y114.77 E82.40152
G0 F3000 X101.759 Y114.204
G1 F1200 X118.239 Y130.684 E83.17669
G0 F3000 X118.239 Y130.118
G1 F1200 X101.759 Y113.639 E83.95183
G0 F3000 X101.759 Y113.073
G1 F1200 X118.239 Y129.553 E84.727
G0 F3000 X118.239 Y128.987
G1 F1200 X101.759 Y112.507 E85.50217
G0 F3000 X101.759 Y111.942
G1 F1200 X118.239 Y128.421 E86.27731
G0 F3000 X118.239 Y127.856
G1 F1200 X101.759 Y111.376 E87.05248
G0 F3000 X101.759 Y110.81
G1 F1200 X118.239 Y127.29 E87.82765
G0 F3000 X118.239 Y126.724
G1 F1200 X101.759 Y110.245 E88.6028
G0 F3000 X101.759 Y109.679
G1 F1200 X118.239 Y126.159 E89.37796
G0 F3000 X118.239 Y125.593
G1 F1200 X101.759 Y109.113 E90.15313
G0 F3000 X101.759 Y108.547
G1 F1200 X118.239 Y125.027 E90.9283
G0 F3000 X118.239 Y124.462
G1 F1200 X101.759 Y107.982 E91.70347
G0 F3000 X101.759 Y107.416
G1 F1200 X118.239 Y123.896 E92.47864
G0 F3000 X118.239 Y123.33
G1 F1200 X101.759 Y106.85 E93.25381
G0 F3000 X101.759 Y106.285
G1 F1200 X118.239 Y122.765 E94.02898
G0 F3000 X118.239 Y122.199
G1 F1200 X101.759 Y105.719 E94.80415
G0 F3000 X101.759 Y105.153
G1 F1200 X118.239 Y121.633 E95.57931
G0 F3000 X118.239 Y121.067
G1 F1200 X101.759 Y104.588 E96.35446
G0 F3000 X101.759 Y104.022
G1 F1200 X118.239 Y120.502 E97.12963
G0 F3000 X118.239 Y119.936
G1 F1200 X101.759 Y103.456 E97.9048
G0 F3000 X101.759 Y102.891
G1 F1200 X118.239 Y119.37 E98.67994
G0 F3000 X118.239 Y118.805
G1 F1200 X101.759 Y102.325 E99.45511
G0 F3000 X101.759 Y101.759
G1 F1200 X118.239 Y118.239 E100.23028
G0 F3000 X118.239 Y117.673
G1 F1200 X101.759 Y101.194 E101.00542
G0 F3000 X101.759 Y100.628
G1 F1200 X118.239 Y117.108 E101.78059
G0 F3000 X118.239 Y116.542
G1 F1200 X101.759 Y100.062 E102.55576
G0 F3000 X101.759 Y99.496
G1 F1200 X118.239 Y115.976 E103.33093
G0 F3000 X118.239 Y115.411
G1 F1200 X101.759 Y98.931 E104.1061
G0 F3000 X101.759 Y98.365
G1 F1200 X118.239 Y114.845 E104.88127
G0 F3000 X118.239 Y114.279
G1 F1200 X101.759 Y97.799 E105.65644
G0 F3000 X101.759 Y97.234
G1 F1200 X118.239 Y113.714 E106.43161
G0 F3000 X118.239 Y113.148
G1 F1200 X101.759 Y96.668 E107.20677
G0 F3000 X101.759 Y96.102
G1 F1200 X118.239 Y112.582 E107.98194
G0 F3000 X118.239 Y112.017
G1 F1200 X101.759 Y95.537 E108.75711
G0 F3000 X101.759 Y94.971
G1 F1200 X118.239 Y111.451 E109.53228
G0 F3000 X118.239 Y110.885
G1 F1200 X101.759 Y94.405 E110.30745
G0 F3000 X101.759 Y93.84
G1 F1200 X118.239 Y110.319 E111.08259
G0 F3000 X118.239 Y109.754
G1 F1200 X101.759 Y93.274 E111.85776
G0 F3000 X101.759 Y92.708
G1 F1200 X118.239 Y109.188 E112.63293
G0 F3000 X118.239 Y108.622
G1 F1200 X101.759 Y92.143 E113.40808
G0 F3000 X101.759 Y91.577
G1 F1200 X118.239 Y108.057 E114.18324
G0 F3000 X118.239 Y107.491
G1 F1200 X101.759 Y91.011 E114.95841
G0 F3000 X101.759 Y90.446
G1 F1200 X118.239 Y106.925 E115.73356
G0 F3000 X118.239 Y106.36
G1 F1200 X101.759 Y89.88 E116.50873
G0 F3000 X101.759 Y89.314
G1 F1200 X118.239 Y105.794 E117.2839
G0 F3000 X118.239 Y105.228
G1 F1200 X101.759 Y88.748 E118.05906
G0 F3000 X101.759 Y88.183
G1 F1200 X118.239 Y104.663 E118.83423
G0 F3000 X118.239 Y104.097
G1 F1200 X101.759 Y87.617 E119.6094
G0 F3000 X101.759 Y87.051
G1 F1200 X118.239 Y103.531 E120.38457
G0 F3000 X118.239 Y102.966
G1 F1200 X101.759 Y86.486 E121.15974
G0 F3000 X101.759 Y85.92
G1 F1200 X118.239 Y102.4 E121.93491
G0 F3000 X118.239 Y101.834
G1 F1200 X101.759 Y85.354 E122.71008
G0 F3000 X101.759 Y84.789
G1 F1200 X118.239 Y101.269 E123.48525
G0 F3000 X118.239 Y100.703
G1 F1200 X101.759 Y84.223 E124.26041
G0 F3000 X101.759 Y83.657
G1 F1200 X118.239 Y100.137 E125.03558
G0 F3000 X118.239 Y99.571
G1 F1200 X101.759 Y83.092 E125.81073
G0 F3000 X101.759 Y82.526
G1 F1200 X118.239 Y99.006 E126.5859
G0 F3000 X118.239 Y98.44
G1 F1200 X101.759 Y81.96 E127.36107
G0 F3000 X101.759 Y81.395
G1 F1200 X118.239 Y97.874 E128.13621
G0 F3000 X118.239 Y97.309
G1 F1200 X101.759 Y80.829 E128.91138
G0 F3000 X101.759 Y80.263
G1 F1200 X118.239 Y96.743 E129.68655
G0 F3000 X118.239 Y96.177
G1 F1200 X101.759 Y79.698 E130.46169
G0 F3000 X101.759 Y79.132
G1 F1200 X118.239 Y95.612 E131.23686
G0 F3000 X118.239 Y95.046
G1 F1200 X101.759 Y78.566 E132.01203
G0 F3000 X101.759 Y78
G1 F1200 X118.239 Y94.48 E132.7872
G0 F3000 X118.239 Y93.915
G1 F1200 X101.759 Y77.435 E133.56237
G0 F3000 X101.759 Y76.869
G1 F1200 X118.239 Y93.349 E134.33754
G0 F3000 X118.239 Y92.783
G1 F1200 X101.759 Y76.303 E135.1127
G0 F3000 X101.759 Y75.738
G1 F1200 X118.239 Y92.218 E135.88787
G0 F3000 X118.239 Y91.652
G1 F1200 X101.759 Y75.172 E136.66304
G0 F3000 X101.759 Y74.606
G1 F1200 X118.239 Y91.086 E137.43821
G0 F3000 X118.239 Y90.52
G1 F1200 X101.759 Y74.041 E138.21336
G0 F3000 X101.759 Y73.475
G1 F1200 X118.239 Y89.955 E138.98852
G0 F3000 X118.239 Y89.389
G1 F1200 X101.759 Y72.909 E139.76369
G0 F3000 X101.759 Y72.344
G1 F1200 X118.239 Y88.823 E140.53884
G0 F3000 X118.239 Y88.258
G1 F1200 X101.759 Y71.778 E141.31401
G0 F3000 X101.759 Y71.212
G1 F1200 X118.239 Y87.692 E142.08918
G0 F3000 X118.239 Y87.126
G1 F1200 X101.759 Y70.647 E142.86432
G0 F3000 X101.759 Y70.081
G1 F1200 X118.239 Y86.561 E143.63949
G0 F3000 X118.239 Y85.995
G1 F1200 X101.759 Y69.515 E144.41466
G0 F3000 X101.759 Y68.949
G1 F1200 X118.239 Y85.429 E145.18983
G0 F3000 X118.239 Y84.864
G1 F1200 X102.045 Y68.669 E145.95157
G0 F3000 X102.611 Y68.669
