;FLAVOR:Marlin
;TIME:1752
;Filament used: 0.521925m
;Layer height: 0.1
;MINX:15.695
;MINY:15.695
;MINZ:0.2
;MAXX:201.133
;MAXY:201.13
;MAXZ:3
;Generated with Cura_SteamEngine master
M82 ;absolute extrusion mode
;Sliced at: Sat 29-10-2022 19:45:16
;Basic settings: Layer height: 0.1 Walls: 0.8 Fill: 30.0
G21 ;metric values
G90 ;absolute positioning
M82 ;set extruder to absolute mode
M107 ;start with the fan off
M117 Start heating ...
M104 S200
M117 Homing X/Y ...
G28 X0 Y0 ;move X/Y to min endstops
M117 Homing Z ...
G28 Z0 ;move Z to min endstops
G1 Z15.0 F100 ;move the platform down 15mm
M117 Heating ...
M109 S200
M117 Start cleaning ...
G92 E0 ;zero the extruded length
G1 F200 E10 ;extrude 10mm of feed stock
G92 E0 ;zero the extruded length again
M117 Intro line ...
G1 Z2.0 F3000 ; Move Z Axis up little to prevent scratching of Heat Bed
G1 X0.1 Y20 Z0.1 F5000.0 ; Move to start position
G1 X0.1 Y200.0 Z0.1 F1500.0 E15 ; Draw the first line
G1 X0.4 Y200.0 Z0.1 F5000.0 ; Move to side a little
G1 X0.4 Y20 Z0.3 F1500.0 E30 ; Draw the second line
G92 E0 ; Reset Extruder
G1 E-1 F500 ; Retract filiment by 1 mm
G1 Z2.0 F3000 ; Move Z Axis up little to prevent scratching of Heat Bed
G1 X5 Y20 Z0.3 F100 ; Move over to prevent blob squish
G1 F100
G92 E0 ; Reset Extruder
M117 Printing...

G92 E0
G92 E0
G1 F1800 E-7
;LAYER_COUNT:29
;LAYER:0
M107
G1 F300 Z0.4
G0 F3000 X24.169 Y17.288 Z0.4
;TYPE:SKIRT
G1 F300 Z0.2
G1 F1800 E0
G1 F1200 X24.65 Y16.82 E0.02232
G1 X25.082 Y16.455 E0.04113
G1 X25.561 Y16.155 E0.05993
G1 X26.077 Y15.926 E0.07871
G1 X26.621 Y15.771 E0.09752
G1 X27.181 Y15.695 E0.11632
G1 X27.747 Y15.699 E0.13514
G1 X28.306 Y15.782 E0.15394
G1 X28.848 Y15.943 E0.17274
G1 X29.361 Y16.179 E0.19153
G1 X29.837 Y16.485 E0.21035
G1 X30.413 Y16.993 E0.23589
G1 X33.534 Y20.112 E0.38265
G1 X34.148 Y20.738 E0.41181
G1 X199.567 Y192.48 E8.34271
G1 X200.054 Y192.999 E8.36639
G1 X200.411 Y193.437 E8.38518
G1 X200.702 Y193.922 E8.40399
G1 X200.922 Y194.443 E8.4228
G1 X201.067 Y194.989 E8.44159
G1 X201.133 Y195.551 E8.46041
G1 X201.119 Y196.116 E8.47921
G1 X201.026 Y196.673 E8.49799
G1 X200.855 Y197.212 E8.5168
G1 X200.609 Y197.722 E8.53563
G1 X200.295 Y198.191 E8.5544
G1 X199.92 Y198.617 E8.57328
G1 X199.24 Y199.312 E8.60562
G1 X198.53 Y200.004 E8.6386
G1 X198.098 Y200.368 E8.65739
G1 X197.619 Y200.669 E8.6762
G1 X197.103 Y200.899 E8.69499
G1 X196.559 Y201.054 E8.71381
G1 X195.999 Y201.13 E8.7326
G1 X195.434 Y201.127 E8.75139
G1 X194.874 Y201.045 E8.77022
G1 X194.332 Y200.884 E8.78902
G1 X193.819 Y200.648 E8.8078
G1 X193.343 Y200.343 E8.82661
G1 X192.934 Y199.996 E8.84445
G1 X192.535 Y199.621 E8.86266
G1 X20.707 Y34.119 E16.79754
G1 X20.085 Y33.506 E16.82659
G1 X17.287 Y30.708 E16.95819
G1 X16.82 Y30.228 E16.98047
G1 X16.455 Y29.796 E16.99928
G1 X16.155 Y29.317 E17.01808
G1 X15.926 Y28.801 E17.03685
G1 X15.771 Y28.257 E17.05567
G1 X15.695 Y27.696 E17.0745
G1 X15.699 Y27.131 E17.09329
G1 X15.782 Y26.572 E17.11209
G1 X15.943 Y26.03 E17.13089
G1 X16.179 Y25.516 E17.1497
G1 X16.485 Y25.041 E17.1685
G1 X16.985 Y24.474 E17.19364
G1 X24.169 Y17.288 E17.5316
G0 F3000 X24.448 Y17.575
G1 F1200 X24.929 Y17.107 E17.55392
G1 X25.34 Y16.762 E17.57177
G1 X25.797 Y16.483 E17.58958
G1 X26.292 Y16.275 E17.60744
G1 X26.811 Y16.142 E17.62525
G1 X27.345 Y16.088 E17.64311
G1 X27.88 Y16.114 E17.66092
G1 X28.406 Y16.219 E17.67876
G1 X28.911 Y16.402 E17.69663
G1 X29.382 Y16.657 E17.71444
G1 X29.909 Y17.068 E17.73667
G1 X30.214 Y17.357 E17.75064
G1 X33.248 Y20.392 E17.89338
G1 X33.86 Y21.016 E17.92245
G1 X199.275 Y192.754 E25.85316
G1 X199.762 Y193.273 E25.87684
G1 X200.099 Y193.69 E25.89467
G1 X200.37 Y194.153 E25.91251
G1 X200.569 Y194.651 E25.93035
G1 X200.693 Y195.172 E25.94816
G1 X200.737 Y195.707 E25.96602
G1 X200.701 Y196.242 E25.98385
G1 X200.587 Y196.766 E26.00169
G1 X200.395 Y197.267 E26.01953
G1 X200.132 Y197.734 E26.03736
G1 X199.787 Y198.173 E26.05593
G1 X199.633 Y198.337 E26.06341
G1 X198.961 Y199.025 E26.0954
G1 X198.251 Y199.717 E26.12837
G1 X197.84 Y200.062 E26.14622
G1 X197.382 Y200.342 E26.16407
G1 X196.888 Y200.55 E26.1819
G1 X196.369 Y200.683 E26.19972
G1 X195.835 Y200.738 E26.21758
G1 X195.3 Y200.712 E26.23539
G1 X194.774 Y200.607 E26.25323
G1 X194.269 Y200.426 E26.27107
G1 X193.797 Y200.171 E26.28892
G1 X193.341 Y199.825 E26.30796
G1 X192.845 Y199.364 E26.33048
G1 X20.988 Y33.834 E34.2667
G1 X20.367 Y33.224 E34.29565
G1 X17.574 Y30.429 E34.42707
G1 X17.107 Y29.949 E34.44935
G1 X16.762 Y29.538 E34.46719
G1 X16.483 Y29.08 E34.48503
G1 X16.275 Y28.586 E34.50286
G1 X16.142 Y28.067 E34.52068
G1 X16.088 Y27.533 E34.53853
G1 X16.114 Y26.997 E34.55638
G1 X16.219 Y26.472 E34.57419
G1 X16.402 Y25.967 E34.59205
G1 X16.657 Y25.495 E34.60989
G1 X17.066 Y24.971 E34.632
G1 X17.351 Y24.67 E34.64579
G1 X24.448 Y17.575 E34.97956
G0 F3000 X24.726 Y17.861
G1 F1200 X25.207 Y17.393 E35.00189
G1 X25.597 Y17.071 E35.01871
G1 X26.032 Y16.813 E35.03553
G1 X26.502 Y16.627 E35.05234
G1 X26.995 Y16.518 E35.06913
G1 X27.5 Y16.488 E35.08596
G1 X28.003 Y16.537 E35.10277
G1 X28.492 Y16.665 E35.11958
G1 X28.955 Y16.869 E35.13641
G1 X29.38 Y17.143 E35.15323
G1 X29.864 Y17.575 E35.1748
G1 X32.963 Y20.672 E35.32053
G1 X33.572 Y21.293 E35.34945
G1 X198.984 Y193.027 E43.28001
G1 X199.471 Y193.546 E43.30368
G1 X199.786 Y193.941 E43.32048
G1 X200.036 Y194.381 E43.33731
G1 X200.213 Y194.854 E43.35411
G1 X200.314 Y195.35 E43.37095
G1 X200.335 Y195.855 E43.38776
G1 X200.276 Y196.357 E43.40457
G1 X200.139 Y196.844 E43.42139
G1 X199.927 Y197.303 E43.43821
G1 X199.493 Y197.902 E43.46281
G1 X199.347 Y198.058 E43.46992
G1 X198.682 Y198.739 E43.50158
G1 X197.972 Y199.431 E43.53455
G1 X197.583 Y199.754 E43.55137
G1 X197.148 Y200.012 E43.56819
G1 X196.678 Y200.198 E43.585
G1 X196.184 Y200.308 E43.60184
G1 X195.68 Y200.338 E43.61863
G1 X195.177 Y200.289 E43.63544
G1 X194.687 Y200.162 E43.65227
G1 X194.224 Y199.958 E43.6691
G1 X193.607 Y199.527 E43.69413
G1 X193.119 Y199.072 E43.71633
G1 X21.268 Y33.549 E51.65224
G1 X20.669 Y32.96 E51.68018
G1 X17.86 Y30.15 E51.81233
G1 X17.393 Y29.67 E51.83461
G1 X17.071 Y29.281 E51.8514
G1 X16.813 Y28.846 E51.86822
G1 X16.627 Y28.376 E51.88504
G1 X16.518 Y27.883 E51.90183
G1 X16.488 Y27.378 E51.91865
G1 X16.537 Y26.875 E51.93546
G1 X16.665 Y26.386 E51.95228
G1 X16.869 Y25.923 E51.9691
G1 X17.143 Y25.498 E51.98592
G1 X17.567 Y25.022 E52.00712
G1 X24.726 Y17.861 E52.34391
G1 F1800 E45.34391
G1 F300 Z0.4
G0 F3000 X30.167 Y25.433 Z0.4
;TYPE:SUPPORT
G1 F300 Z0.2
G1 F1800 E52.34391
G1 F1200 X32.874 Y28.244 E52.47371
G1 X32.688 Y28.284 E52.48003
G1 X28.285 Y32.687 E52.68714
G1 X28.245 Y32.876 E52.69356
G1 X25.432 Y30.164 E52.82352
G1 X25.567 Y30.029 E52.82987
G1 X25.625 Y30.059 E52.83205
G1 X26.245 Y30.291 E52.85406
G1 X26.387 Y30.327 E52.85894
G1 X27.039 Y30.403 E52.88077
G1 X27.172 Y30.403 E52.88519
G1 X27.729 Y30.345 E52.90382
G1 X27.864 Y30.313 E52.90843
G1 X28.489 Y30.097 E52.93043
G1 X28.621 Y30.031 E52.93534
G1 X29.188 Y29.658 E52.95791
G1 X29.302 Y29.561 E52.96289
G1 X29.75 Y29.071 E52.98497
G1 X29.835 Y28.951 E52.98986
G1 X30.157 Y28.352 E53.01248
G1 X30.211 Y28.208 E53.0176
G1 X30.372 Y27.553 E53.04003
G1 X30.39 Y27.404 E53.04502
G1 X30.382 Y26.704 E53.0683
G1 X30.358 Y26.554 E53.07336
G1 X30.189 Y25.929 E53.09489
G1 X30.018 Y25.582 E53.10776
G1 X30.167 Y25.433 E53.11477
G0 F3000 X30.539 Y26.67
G1 F1200 X31.137 Y26.67 E53.13466
G0 F3000 X32.004 Y27.572
G1 F1200 X32.004 Y28.743 E53.1736
G0 F3000 X31.408 Y29.337
G1 F1200 X29.723 Y29.337 E53.22965
G0 F3000 X29.337 Y29.741
G1 F1200 X29.337 Y31.41 E53.28516
G0 F3000 X28.741 Y32.004
G1 F1200 X27.57 Y32.004 E53.32411
G0 F3000 X26.67 Y31.134
G1 F1200 X26.67 Y30.521 E53.34449
G1 F1800 E46.34449
G1 F300 Z0.4
G0 F3000 X102.371 Y104.332 Z0.4
G1 F300 Z0.2
G1 F1800 E53.34449
G1 F1200 X102.525 Y104.332 E53.34962
G1 X104.443 Y102.487 E53.43813
G1 X156.809 Y156.809 E55.94769
G1 X102.371 Y104.332 E58.46259
G0 F3000 X103.088 Y104.013
G1 F1200 X105.693 Y104.013 E58.54923
G0 F3000 X106.68 Y105.038
G1 F1200 X106.68 Y108.262 E58.65647
G1 F1800 E51.65647
G1 F300 Z0.4
G0 F3000 X107.804 Y109.347 Z0.4
G1 F300 Z0.2
G1 F1800 E58.65647
G1 F1200 X110.834 Y109.347 E58.75724
G1 F1800 E51.75724
G1 F300 Z0.4
G0 F3000 X112.014 Y110.572 Z0.4
G1 F300 Z0.2
G1 F1800 E58.75724
G1 F1200 X112.014 Y113.404 E58.85144
G1 F1800 E51.85144
G1 F300 Z0.4
G0 F3000 X113.337 Y114.681 Z0.4
G1 F300 Z0.2
G1 F1800 E58.85144
G1 F1200 X115.976 Y114.681 E58.93921
G1 F1800 E51.93921
G1 F300 Z0.4
G0 F3000 X114.681 Y115.975 Z0.4
G1 F300 Z0.2
G1 F1800 E58.93921
G1 F1200 X114.681 Y113.338 E59.02692
G1 F1800 E52.02692
G1 F300 Z0.4
G0 F3000 X113.405 Y112.014 Z0.4
G1 F300 Z0.2
G1 F1800 E59.02692
G1 F1200 X110.571 Y112.014 E59.12118
G1 F1800 E52.12118
G1 F300 Z0.4
G0 F3000 X109.347 Y110.833 Z0.4
G1 F300 Z0.2
G1 F1800 E59.12118
G1 F1200 X109.347 Y107.805 E59.22189
G1 F1800 E52.22189
G1 F300 Z0.4
G0 F3000 X108.264 Y106.68 Z0.4
G1 F300 Z0.2
G1 F1800 E59.22189
G1 F1200 X105.037 Y106.68 E59.32922
G0 F3000 X104.013 Y105.691
G1 F1200 X104.013 Y103.122 E59.41466
G1 F1800 E52.41466
G1 F300 Z0.4
G0 F3000 X117.348 Y116.105 Z0.4
G1 F300 Z0.2
G1 F1800 E59.41466
G1 F1200 X117.348 Y118.546 E59.49585
G1 F1800 E52.49585
G1 F300 Z0.4
G0 F3000 X118.547 Y117.348 Z0.4
G1 F300 Z0.2
G1 F1800 E59.49585
G1 F1200 X116.104 Y117.348 E59.57711
G1 F1800 E52.57711
G1 F300 Z0.4
G0 F3000 X118.87 Y120.015 Z0.4
G1 F300 Z0.2
G1 F1800 E59.57711
G1 F1200 X121.117 Y120.015 E59.65184
G1 F1800 E52.65184
G1 F300 Z0.4
G0 F3000 X120.015 Y121.117 Z0.4
G1 F300 Z0.2
G1 F1800 E59.65184
G1 F1200 X120.015 Y118.872 E59.72651
G1 F1800 E52.72651
G1 F300 Z0.4
G0 F3000 X122.682 Y121.638 Z0.4
G1 F300 Z0.2
G1 F1800 E59.72651
G1 F1200 X122.682 Y123.688 E59.79469
G0 F3000 X123.688 Y122.682
G1 F1200 X121.637 Y122.682 E59.86291
G1 F1800 E52.86291
G1 F300 Z0.4
G0 F3000 X124.403 Y125.349 Z0.4
G1 F300 Z0.2
G1 F1800 E59.86291
G1 F1200 X126.259 Y125.349 E59.92464
G0 F3000 X125.349 Y126.259
G1 F1200 X125.349 Y124.405 E59.98631
G1 F1800 E52.98631
G1 F300 Z0.4
G0 F3000 X128.016 Y127.172 Z0.4
G1 F300 Z0.2
G1 F1800 E59.98631
G1 F1200 X128.016 Y128.83 E60.04145
G0 F3000 X128.83 Y128.016
G1 F1200 X127.17 Y128.016 E60.09666
G1 F1800 E53.09666
G1 F300 Z0.4
G0 F3000 X129.937 Y130.683 Z0.4
G1 F300 Z0.2
G1 F1800 E60.09666
G1 F1200 X131.402 Y130.683 E60.14539
G0 F3000 X130.683 Y131.401
G1 F1200 X130.683 Y129.938 E60.19405
G1 F1800 E53.19405
G1 F300 Z0.4
G0 F3000 X133.35 Y132.705 Z0.4
G1 F300 Z0.2
G1 F1800 E60.19405
G1 F1200 X133.35 Y133.972 E60.23619
G0 F3000 X133.973 Y133.35
G1 F1200 X132.704 Y133.35 E60.2784
G1 F1800 E53.2784
G1 F300 Z0.4
G0 F3000 X135.471 Y136.017 Z0.4
G1 F300 Z0.2
G1 F1800 E60.2784
G1 F1200 X136.544 Y136.017 E60.31408
G0 F3000 X136.017 Y136.542
G1 F1200 X136.017 Y135.472 E60.34967
G1 F1800 E53.34967
G1 F300 Z0.4
G0 F3000 X138.684 Y138.238 Z0.4
G1 F300 Z0.2
G1 F1800 E60.34967
G1 F1200 X138.684 Y139.113 E60.37877
G0 F3000 X139.114 Y138.684
G1 F1200 X138.238 Y138.684 E60.40791
G1 F1800 E53.40791
G1 F300 Z0.4
G0 F3000 X141.004 Y141.351 Z0.4
G1 F300 Z0.2
G1 F1800 E60.40791
G1 F1200 X141.685 Y141.351 E60.43056
G0 F3000 X141.351 Y141.684
G1 F1200 X141.351 Y141.005 E60.45314
G1 F1800 E53.45314
G1 F300 Z0.4
G0 F3000 X144.018 Y143.772 Z0.4
G1 F300 Z0.2
G1 F1800 E60.45314
G1 F1200 X144.018 Y144.255 E60.46921
G0 F3000 X144.256 Y144.018
G1 F1200 X143.771 Y144.018 E60.48534
G1 F1800 E53.48534
G1 F300 Z0.4
G0 F3000 X146.538 Y146.685 Z0.4
G1 F300 Z0.2
G1 F1800 E60.48534
G1 F1200 X146.827 Y146.685 E60.49495
G0 F3000 X146.685 Y146.826
G1 F1200 X146.685 Y146.539 E60.5045
G1 F1800 E53.5045
G1 F300 Z0.4
;MESH:clock-minutehand.stl
G0 F3000 X28.268 Y25.071 Z0.4
;TYPE:WALL-INNER
G1 F300 Z0.2
G1 F1800 E60.5045
G1 F1200 X27.864 Y24.873 E60.51946
G1 X27.289 Y24.752 E60.53901
G1 X26.599 Y24.796 E60.562
G1 X26.045 Y24.993 E60.58156
G1 X25.56 Y25.317 E60.60096
G1 X25.17 Y25.746 E60.62024
G1 X24.897 Y26.262 E60.63966
G1 X24.76 Y26.828 E60.65903
G1 X24.763 Y27.407 E60.67828
G1 X24.914 Y27.977 E60.6979
G1 X25.072 Y28.262 E60.70873
G1 X23.209 Y30.126 E60.79639
G1 X20.522 Y27.439 E60.92278
G1 X27.439 Y20.522 E61.24813
G1 X30.126 Y23.21 E61.37454
G1 X28.268 Y25.071 E61.46201
G1 F1800 E54.46201
G0 F3000 X27.269 Y25.015
G0 X26.163 Y25.229
G0 X25.384 Y25.898
G0 X25.021 Y26.857
G0 X25.349 Y28.344
G1 F1800 E61.46201
G0 F3000 X25.523 Y28.248
;TYPE:WALL-OUTER
G1 F1200 X25.871 Y28.613 E61.47878
G1 X26.282 Y28.869 E61.49489
G1 X26.743 Y29.015 E61.51097
G1 X27.227 Y29.044 E61.5271
G1 X27.703 Y28.95 E61.54323
G1 X28.141 Y28.745 E61.55932
G1 X28.515 Y28.436 E61.57545
G1 X28.801 Y28.046 E61.59154
G1 X28.982 Y27.595 E61.6077
G1 X29.047 Y27.116 E61.62378
G1 X28.992 Y26.634 E61.63992
G1 X28.82 Y26.184 E61.65594
G1 X28.541 Y25.787 E61.67208
G1 X28.167 Y25.467 E61.68845
G1 X27.733 Y25.254 E61.70453
G1 X27.26 Y25.155 E61.7206
G1 X26.68 Y25.192 E61.73993
G1 X26.226 Y25.353 E61.75595
G1 X25.823 Y25.622 E61.77207
G1 X25.5 Y25.978 E61.78806
G1 X25.274 Y26.405 E61.80413
G1 X25.16 Y26.875 E61.82021
G1 X25.163 Y27.354 E61.83614
G1 X25.288 Y27.826 E61.85238
G1 X25.523 Y28.248 E61.86845
G0 F3000 X25.661 Y28.392
G0 X24.963 Y28.315
G1 F1800 E54.86845
G0 F3000 X23.36 Y30.359
G1 F1800 E61.86845
G0 F3000 X23.323 Y30.577
G1 F1200 X23.475 Y30.745 E61.87598
G1 X195.77 Y196.836 E69.83564
G1 X195.735 Y196.871 E69.83729
G1 X23.348 Y30.831 E71.81831
G1 X19.956 Y27.439 E71.97786
G1 X27.439 Y19.956 E72.32983
G1 X30.83 Y23.348 E72.48936
G1 X196.871 Y195.735 E80.45007
G1 X196.836 Y195.77 E80.45171
G1 X30.589 Y23.313 E82.42601
G1 X28.446 Y25.459 E82.52688
G1 X28.797 Y25.855 E82.54131
G1 X29.048 Y26.307 E82.55516
G1 X29.183 Y26.804 E82.56851
G1 X29.189 Y27.339 E82.58224
G1 X29.063 Y27.853 E82.59589
G1 X28.812 Y28.319 E82.61044
G1 X28.469 Y28.695 E82.62431
G1 X28.022 Y28.988 E82.63883
G1 X27.532 Y29.158 E82.65303
G1 X27.11 Y29.203 E82.66275
G1 X26.602 Y29.144 E82.67321
G1 X26.116 Y28.961 E82.68363
G1 X25.679 Y28.654 E82.69456
G1 X25.458 Y28.442 E82.69801
G1 X23.323 Y30.577 E82.79843
G0 F3000 X23.457 Y30.725
G0 X23.491 Y30.692
G0 X23.405 Y29.773
G0 X23.209 Y29.576
;TYPE:SKIN
G1 F1200 X21.072 Y27.439 E82.89895
G1 X27.439 Y21.072 E83.19843
G1 X29.576 Y23.21 E83.29897
G1 X28.19 Y24.598 E83.36421
G1 X27.992 Y24.501 E83.37155
G1 X27.317 Y24.36 E83.39448
G1 X26.519 Y24.41 E83.42108
G1 X25.869 Y24.642 E83.44403
G1 X25.304 Y25.019 E83.46662
G1 X24.848 Y25.52 E83.48915
G1 X24.53 Y26.123 E83.51183
G1 X24.37 Y26.783 E83.53442
G1 X24.373 Y27.459 E83.5569
G1 X24.549 Y28.123 E83.57975
G1 X24.589 Y28.195 E83.58249
G1 X23.209 Y29.576 E83.64742
G0 F3000 X23.437 Y29.093
G1 F1200 X21.554 Y27.21 E83.73599
G0 F3000 X21.836 Y26.928
G1 F1200 X23.719 Y28.811 E83.82456
G0 F3000 X24.002 Y28.528
G1 F1200 X22.119 Y26.645 E83.91313
G0 F3000 X22.402 Y26.362
G1 F1200 X24.285 Y28.245 E84.0017
G0 F3000 X24.23 Y27.624
G1 F1200 X22.685 Y26.079 E84.07438
G0 F3000 X22.968 Y25.796
G1 F1200 X24.191 Y27.019 E84.1319
G0 F3000 X24.25 Y26.512
G1 F1200 X23.251 Y25.513 E84.17889
G0 F3000 X23.533 Y25.23
G1 F1200 X24.361 Y26.058 E84.21784
G0 F3000 X24.556 Y25.687
G1 F1200 X23.816 Y24.948 E84.25262
G0 F3000 X24.099 Y24.665
G1 F1200 X24.771 Y25.337 E84.28423
G0 F3000 X25.04 Y25.04
G1 F1200 X24.382 Y24.382 E84.31518
G0 F3000 X24.665 Y24.099
G1 F1200 X25.341 Y24.776 E84.347
G0 F3000 X25.681 Y24.55
G1 F1200 X24.948 Y23.816 E84.3815
G0 F3000 X25.23 Y23.533
G1 F1200 X26.073 Y24.376 E84.42116
G0 F3000 X26.493 Y24.23
G1 F1200 X25.513 Y23.251 E84.46723
G0 F3000 X25.796 Y22.968
G1 F1200 X27.025 Y24.197 E84.52504
G0 F3000 X27.637 Y24.243
G1 F1200 X26.079 Y22.685 E84.59832
G0 F3000 X26.362 Y22.402
G1 F1200 X28.246 Y24.286 E84.68694
G0 F3000 X28.528 Y24.003
G1 F1200 X26.645 Y22.119 E84.77553
G0 F3000 X26.928 Y21.836
G1 F1200 X28.811 Y23.72 E84.86413
G0 F3000 X29.094 Y23.437
G1 F1200 X27.21 Y21.554 E84.95272
G1 X27.14 Y21.484
M104 S200
G0 F3000 X26.879 Y21.222
G1 F1800 E77.95272
G1 F300 Z0.4
;MESH:NONMESH
G0 F3000 X26.879 Y21.222 Z0.4
G0 X26.67 Y30.373
;TIME_ELAPSED:181.862517
;LAYER:1
M106 S255
G0 F4500 X26.67 Y30.373 Z0.5
;TYPE:SUPPORT
G1 F300 Z0.3
G1 F1800 E84.95272
G1 X26.373 Y30.307 E84.95778
G1 X26.67 Y30.593 E84.96464
