;FLAVOR:Marlin
;TIME:4083
;Filament used: 0.788134m
;Layer height: 0.1
;MINX:97.013
;MINY:69.838
;MINZ:0.1
;MAXX:122.982
;MAXY:150.167
;MAXZ:5
;Generated with Cura_SteamEngine master
M82 ;absolute extrusion mode
;Sliced at: Sat 04-03-2023 15:46:05
;Basic settings: Layer height: 0.1 Walls: 0.8 Fill: 100
G21 ;metric values
G90 ;absolute positioning
M82 ;set extruder to absolute mode
M107 ;start with the fan off
M117 Start heating ...
M104 S200
M117 Homing X/Y ...
G28 X0 Y0 ;move X/Y to min endstops
M117 Homing Z ...
G28 Z0 ;move Z to min endstops
G1 Z15.0 F50 ;move the platform down 15mm
M117 Heating ...
M109 S200
M117 Start cleaning ...
G92 E0 ;zero the extruded length
G1 F200 E10 ;extrude 10mm of feed stock
G92 E0 ;zero the extruded length again
M117 Intro line ...
G1 Z2.0 F3000 ; Move Z Axis up little to prevent scratching of Heat Bed
G1 X0.1 Y20 Z0.1 F5000.0 ; Move to start position
G1 X0.1 Y200.0 Z0.1 F1500.0 E15 ; Draw the first line
G1 X0.4 Y200.0 Z0.1 F5000.0 ; Move to side a little
G1 X0.4 Y20 Z0.3 F1500.0 E30 ; Draw the second line
G92 E0 ; Reset Extruder
G1 E-1 F500 ; Retract filiment by 1 mm
G1 Z2.0 F3000 ; Move Z Axis up little to prevent scratching of Heat Bed
G1 X5 Y20 Z0.3 F50 ; Move over to prevent blob squish
G1 F50
G92 E0 ; Reset Extruder
M117 Printing...

G92 E0
G92 E0
G1 F1800 E-7
;LAYER_COUNT:48
;LAYER:0
M107
G1 F300 Z0.3
G0 F1500 X99.807 Y74.794 Z0.3
;TYPE:SKIRT
G1 F300 Z0.1
G1 F1800 E0
G1 F900 X100.15 Y74.369 E0.00908
G1 X100.564 Y73.903 E0.01945
G1 X100.872 Y73.591 E0.02674
G1 X101.298 Y73.186 E0.03651
G1 X101.711 Y72.828 E0.0456
G1 X101.848 Y72.718 E0.04853
G1 X102.324 Y72.351 E0.05852
G1 X102.86 Y71.981 E0.06935
G1 X103.408 Y71.639 E0.08009
G1 X103.992 Y71.317 E0.09119
G1 X104.645 Y71.004 E0.10323
G1 X105.408 Y70.686 E0.11697
G1 X105.783 Y70.551 E0.1236
G1 X106.628 Y70.294 E0.13829
G1 X107.163 Y70.155 E0.14748
G1 X107.6 Y70.067 E0.1549
G1 X108.132 Y69.981 E0.16386
G1 X108.392 Y69.948 E0.16822
G1 X109.183 Y69.873 E0.18143
G1 X109.709 Y69.843 E0.19019
G1 X109.95 Y69.838 E0.1942
G1 X110.826 Y69.863 E0.20877
G1 X111.522 Y69.93 E0.2204
G1 X112.038 Y70.004 E0.22907
G1 X112.279 Y70.047 E0.23314
G1 X112.972 Y70.191 E0.24491
G1 X113.563 Y70.339 E0.25505
G1 X114.049 Y70.49 E0.26351
G1 X114.698 Y70.727 E0.275
G1 X115.586 Y71.106 E0.29105
G1 X116.272 Y71.454 E0.30385
G1 X116.804 Y71.768 E0.31412
G1 X117.008 Y71.899 E0.31815
G1 X117.637 Y72.33 E0.33083
G1 X118.192 Y72.747 E0.34238
G1 X118.897 Y73.371 E0.35803
G1 X119.073 Y73.543 E0.36213
G1 X119.573 Y74.06 E0.37409
G1 X120.027 Y74.575 E0.3855
G1 X120.353 Y74.993 E0.39432
G1 X120.683 Y75.454 E0.40375
G1 X121.168 Y76.208 E0.41866
G1 X121.433 Y76.661 E0.42739
G1 X121.658 Y77.103 E0.43563
G1 X121.908 Y77.643 E0.44553
G1 X122.109 Y78.127 E0.45424
G1 X122.328 Y78.748 E0.4652
G1 X122.403 Y78.99 E0.46941
G1 X122.628 Y79.809 E0.48353
G1 X122.712 Y80.187 E0.48997
G1 X122.871 Y81.115 E0.50563
G1 X122.949 Y81.809 E0.51724
G1 X122.982 Y82.6 E0.53041
G1 X122.982 Y82.834 E0.5343
G1 X122.957 Y83.687 E0.54849
G1 X122.897 Y84.397 E0.56034
G1 X122.849 Y84.738 E0.56607
G1 X122.757 Y85.288 E0.57534
G1 X122.614 Y85.936 E0.58638
G1 X122.381 Y86.792 E0.60113
G1 X121.702 Y89.435 E0.64651
G1 X121.106 Y92.056 E0.69121
G1 X120.574 Y94.745 E0.7368
G1 X120.128 Y97.39 E0.7814
G1 X119.751 Y100.096 E0.82684
G1 X119.452 Y102.796 E0.87202
G1 X119.227 Y105.529 E0.91762
G1 X119.083 Y108.197 E0.96205
G1 X119.013 Y110.94 E1.00768
G1 X119.021 Y113.648 E1.05272
G1 X119.105 Y116.354 E1.09774
G1 X119.266 Y119.058 E1.14279
G1 X119.507 Y121.793 E1.18845
G1 X119.819 Y124.478 E1.2334
G1 X120.207 Y127.144 E1.2782
G1 X120.927 Y131.129 E1.34555
G1 X120.989 Y131.728 E1.35556
G1 X121 Y132.16 E1.36275
G1 X121 Y139.618 E1.48678
G1 X120.99 Y140.319 E1.49843
G1 X120.909 Y141.064 E1.5109
G1 X120.86 Y141.288 E1.51471
G1 X120.717 Y141.881 E1.52485
G1 X119.858 Y145.237 E1.58246
G1 X119.833 Y145.358 E1.58452
G1 X119.679 Y145.959 E1.59484
G1 X119.373 Y147.086 E1.61426
G1 X119.187 Y147.62 E1.62366
G1 X118.928 Y148.122 E1.63305
G1 X118.6 Y148.583 E1.64246
G1 X118.308 Y148.904 E1.64968
G1 X117.89 Y149.285 E1.65909
G1 X117.423 Y149.603 E1.66848
G1 X116.915 Y149.852 E1.67789
G1 X116.377 Y150.027 E1.6873
G1 X115.82 Y150.124 E1.6967
G1 X115.496 Y150.144 E1.7021
G1 X114.363 Y150.167 E1.72094
G1 X105.243 Y150.167 E1.87261
G1 X104.562 Y150.157 E1.88394
G1 X103.999 Y150.108 E1.89334
G1 X103.448 Y149.981 E1.90274
G1 X102.921 Y149.778 E1.91213
G1 X102.246 Y149.376 E1.9252
G1 X102.124 Y149.286 E1.92772
G1 X101.694 Y148.919 E1.93712
G1 X101.32 Y148.495 E1.94652
G1 X101.01 Y148.023 E1.95591
G1 X100.769 Y147.511 E1.96532
G1 X100.641 Y147.124 E1.9721
G1 X100.344 Y146.035 E1.99087
G1 X100.106 Y145.096 E2.00698
G1 X99.3 Y141.94 E2.06115
G1 X99.123 Y141.21 E2.07364
G1 X99.013 Y140.412 E2.08704
G1 X99.006 Y140.205 E2.09048
G1 X99 Y139.702 E2.09885
G1 X99 Y132.475 E2.21903
G1 X99.011 Y131.769 E2.23078
G1 X99.078 Y131.1 E2.24196
G1 X99.346 Y129.663 E2.26627
G1 X99.393 Y129.423 E2.27033
G1 X99.846 Y126.761 E2.31524
G1 X100.226 Y124.056 E2.36067
G1 X100.529 Y121.359 E2.4058
G1 X100.755 Y118.654 E2.45094
G1 X100.903 Y115.957 E2.49586
G1 X100.977 Y113.212 E2.54153
G1 X100.973 Y110.506 E2.58653
G1 X100.892 Y107.796 E2.63161
G1 X100.735 Y105.094 E2.67662
G1 X100.501 Y102.391 E2.72174
G1 X100.188 Y99.672 E2.76726
G1 X99.802 Y96.988 E2.81235
G1 X99.344 Y94.343 E2.85699
G1 X98.808 Y91.686 E2.90207
G1 X98.192 Y89.029 E2.94743
G1 X97.763 Y87.434 E2.9749
G1 X97.716 Y87.192 E2.979
G1 X97.384 Y85.926 E3.00076
G1 X97.258 Y85.337 E3.01078
G1 X97.15 Y84.691 E3.02167
G1 X97.064 Y83.967 E3.0338
G1 X97.022 Y83.415 E3.043
G1 X97.013 Y82.902 E3.05153
G1 X97.031 Y82.255 E3.0623
G1 X97.097 Y81.406 E3.07646
G1 X97.154 Y80.95 E3.0841
G1 X97.265 Y80.315 E3.09482
G1 X97.373 Y79.781 E3.10388
G1 X97.576 Y79.044 E3.1166
G1 X97.749 Y78.514 E3.12587
G1 X98.051 Y77.757 E3.13942
G1 X98.298 Y77.21 E3.1494
G1 X98.401 Y76.998 E3.15332
G1 X98.638 Y76.547 E3.16179
G1 X99.015 Y75.909 E3.17412
G1 X99.37 Y75.392 E3.18455
G1 X99.441 Y75.292 E3.18659
G1 X99.807 Y74.794 E3.19687
G0 F1500 X100.073 Y75.105
G1 F900 X100.386 Y74.71 E3.20525
G1 X100.85 Y74.182 E3.21694
G1 X101.148 Y73.881 E3.22398
G1 X101.574 Y73.476 E3.23375
G1 X101.969 Y73.134 E3.24244
G1 X102.092 Y73.035 E3.24507
G1 X102.568 Y72.668 E3.25506
G1 X103.072 Y72.32 E3.26525
G1 X103.62 Y71.978 E3.27599
G1 X104.168 Y71.676 E3.2864
G1 X104.799 Y71.373 E3.29804
G1 X105.562 Y71.055 E3.31179
G1 X105.899 Y70.934 E3.31774
G1 X106.744 Y70.677 E3.33243
G1 X107.246 Y70.546 E3.34106
G1 X107.664 Y70.462 E3.34815
G1 X108.196 Y70.376 E3.35711
G1 X108.43 Y70.346 E3.36103
G1 X109.221 Y70.271 E3.37425
G1 X109.729 Y70.242 E3.38271
G1 X110.314 Y70.244 E3.39244
G1 X110.999 Y70.275 E3.40384
G1 X111.553 Y70.338 E3.41311
G1 X112.197 Y70.438 E3.42395
G1 X112.89 Y70.582 E3.43572
G1 X113.448 Y70.722 E3.44529
G1 X114.33 Y71.013 E3.46073
G1 X114.541 Y71.095 E3.4645
G1 X115.417 Y71.469 E3.48034
G1 X116.082 Y71.806 E3.49274
G1 X116.598 Y72.111 E3.5027
G1 X116.782 Y72.229 E3.50634
G1 X117.411 Y72.66 E3.51902
G1 X117.933 Y73.052 E3.52988
G1 X118.627 Y73.667 E3.5453
G1 X118.786 Y73.821 E3.54898
G1 X119.286 Y74.338 E3.56094
G1 X119.712 Y74.821 E3.57165
G1 X120.038 Y75.239 E3.58046
G1 X120.347 Y75.67 E3.58928
G1 X120.832 Y76.424 E3.60419
G1 X121.219 Y77.117 E3.61739
G1 X121.295 Y77.271 E3.62025
G1 X121.545 Y77.811 E3.63014
G1 X121.738 Y78.276 E3.63852
G1 X121.95 Y78.878 E3.64913
G1 X122.017 Y79.096 E3.65292
G1 X122.242 Y79.915 E3.66705
G1 X122.318 Y80.256 E3.67286
G1 X122.475 Y81.17 E3.68828
G1 X122.55 Y81.842 E3.69952
G1 X122.582 Y82.612 E3.71234
G1 X122.583 Y82.823 E3.71585
G1 X122.563 Y83.55 E3.72794
G1 X122.527 Y84.099 E3.73709
G1 X122.455 Y84.672 E3.7467
G1 X122.363 Y85.222 E3.75597
G1 X122.228 Y85.831 E3.76635
G1 X121.995 Y86.687 E3.7811
G1 X121.31 Y89.352 E3.82686
G1 X120.719 Y91.954 E3.87123
G1 X120.18 Y94.679 E3.91743
G1 X119.731 Y97.339 E3.96229
G1 X119.352 Y100.063 E4.00803
G1 X119.053 Y102.755 E4.05307
G1 X118.829 Y105.475 E4.09846
G1 X118.683 Y108.2 E4.14384
G1 X118.613 Y110.931 E4.18927
G1 X118.621 Y113.661 E4.23467
G1 X118.705 Y116.356 E4.27951
G1 X118.869 Y119.116 E4.32549
G1 X119.106 Y121.807 E4.37041
G1 X119.421 Y124.511 E4.41569
G1 X119.814 Y127.212 E4.46108
G1 X120.534 Y131.2 E4.52847
G1 X120.59 Y131.739 E4.53748
G1 X120.6 Y132.16 E4.54448
G1 X120.6 Y139.612 E4.66841
G1 X120.59 Y140.313 E4.68007
G1 X120.517 Y140.983 E4.69128
G1 X120.472 Y141.194 E4.69487
G1 X120.329 Y141.782 E4.70493
G1 X119.458 Y145.184 E4.76333
G1 X119.445 Y145.259 E4.7646
G1 X119.293 Y145.854 E4.77481
G1 X118.987 Y146.981 E4.79423
G1 X118.809 Y147.487 E4.80315
G1 X118.557 Y147.961 E4.81208
G1 X118.119 Y148.522 E4.82391
G1 X118.018 Y148.628 E4.82635
G1 X117.62 Y148.988 E4.83527
G1 X117.174 Y149.285 E4.84418
G1 X116.688 Y149.511 E4.8531
G1 X116.173 Y149.664 E4.86203
G1 X115.487 Y149.744 E4.87352
G1 X114.363 Y149.767 E4.89221
G1 X105.249 Y149.767 E5.04378
G1 X104.568 Y149.757 E5.05511
G1 X104.034 Y149.709 E5.06402
G1 X103.513 Y149.582 E5.07294
G1 X103.016 Y149.38 E5.08186
G1 X102.484 Y149.054 E5.09224
G1 X102.362 Y148.964 E5.09476
G1 X101.955 Y148.614 E5.10369
G1 X101.605 Y148.208 E5.1126
G1 X101.319 Y147.755 E5.12151
G1 X101.027 Y147.018 E5.13469
G1 X100.732 Y145.936 E5.15334
G1 X99.688 Y141.845 E5.22356
G1 X99.511 Y141.115 E5.23605
G1 X99.412 Y140.398 E5.24809
G1 X99.406 Y140.2 E5.25138
G1 X99.4 Y139.697 E5.25975
G1 X99.4 Y132.481 E5.37975
G1 X99.411 Y131.775 E5.39149
G1 X99.472 Y131.173 E5.40155
G1 X99.738 Y129.74 E5.42579
G1 X99.788 Y129.489 E5.43005
G1 X100.242 Y126.812 E5.4752
G1 X100.621 Y124.12 E5.52041
G1 X100.93 Y121.366 E5.5665
G1 X101.152 Y118.71 E5.61082
G1 X101.303 Y115.955 E5.65671
G1 X101.377 Y113.221 E5.70219
G1 X101.373 Y110.493 E5.74756
G1 X101.292 Y107.797 E5.79241
G1 X101.134 Y105.069 E5.83785
G1 X100.895 Y102.312 E5.88388
G1 X100.588 Y99.64 E5.9286
G1 X100.198 Y96.935 E5.97405
G1 X99.736 Y94.261 E6.01918
G1 X99.198 Y91.595 E6.06441
G1 X98.577 Y88.919 E6.11009
G1 X98.15 Y87.33 E6.13746
G1 X98.107 Y87.106 E6.14125
G1 X97.774 Y85.836 E6.16308
G1 X97.652 Y85.266 E6.17278
G1 X97.547 Y84.644 E6.18327
G1 X97.461 Y83.92 E6.19539
G1 X97.422 Y83.405 E6.20398
G1 X97.42 Y82.503 E6.21898
G1 X97.43 Y82.286 E6.2226
G1 X97.496 Y81.437 E6.23676
G1 X97.548 Y81.019 E6.24376
G1 X97.659 Y80.384 E6.25448
G1 X97.765 Y79.861 E6.26336
G1 X97.959 Y79.157 E6.2755
G1 X98.128 Y78.64 E6.28455
G1 X98.419 Y77.914 E6.29755
G1 X98.662 Y77.375 E6.30739
G1 X98.755 Y77.184 E6.31092
G1 X98.992 Y76.733 E6.31939
G1 X99.344 Y76.135 E6.33093
G1 X99.699 Y75.618 E6.34136
G1 X100.073 Y75.105 E6.35192
G0 F1500 X100.441 Y75.282
G1 F900 X101.01 Y74.599 E6.3667
G1 X101.423 Y74.171 E6.37659
G1 X101.849 Y73.766 E6.38637
G1 X102.336 Y73.352 E6.397
G1 X102.812 Y72.985 E6.40699
G1 X103.284 Y72.659 E6.41653
G1 X103.832 Y72.317 E6.42727
G1 X104.345 Y72.034 E6.43702
G1 X104.953 Y71.742 E6.44823
G1 X105.716 Y71.424 E6.46198
G1 X106.016 Y71.316 E6.46728
G1 X106.861 Y71.059 E6.48197
G1 X107.574 Y70.886 E6.49417
G1 X107.727 Y70.857 E6.49676
G1 X108.259 Y70.771 E6.50572
G1 X108.468 Y70.744 E6.50923
G1 X109.259 Y70.669 E6.52244
G1 X109.942 Y70.638 E6.53381
G1 X110.795 Y70.662 E6.548
G1 X111.425 Y70.725 E6.55853
G1 X111.924 Y70.796 E6.56692
G1 X112.116 Y70.83 E6.57016
G1 X112.809 Y70.974 E6.58193
G1 X113.332 Y71.105 E6.59089
G1 X114.197 Y71.39 E6.60604
G1 X114.385 Y71.463 E6.60939
G1 X115.152 Y71.789 E6.62325
G1 X115.619 Y72.011 E6.63185
G1 X116.392 Y72.454 E6.64667
G1 X116.556 Y72.559 E6.64991
G1 X117.185 Y72.99 E6.66259
G1 X117.674 Y73.357 E6.67276
G1 X118.357 Y73.962 E6.68793
G1 X118.498 Y74.099 E6.6912
G1 X118.998 Y74.616 E6.70316
G1 X119.396 Y75.067 E6.71316
G1 X119.787 Y75.571 E6.72377
G1 X120.01 Y75.887 E6.7302
G1 X120.495 Y76.641 E6.74511
G1 X120.865 Y77.302 E6.75771
G1 X120.932 Y77.439 E6.76025
G1 X121.182 Y77.979 E6.77014
G1 X121.425 Y78.581 E6.78094
G1 X121.632 Y79.202 E6.79182
G1 X121.857 Y80.021 E6.80595
G1 X121.924 Y80.324 E6.81111
G1 X122.062 Y81.122 E6.82458
G1 X122.133 Y81.65 E6.83344
G1 X122.182 Y82.624 E6.84965
G1 X122.183 Y82.812 E6.85278
G1 X122.163 Y83.539 E6.86488
G1 X122.13 Y84.056 E6.87349
G1 X122.06 Y84.606 E6.88271
G1 X121.968 Y85.156 E6.89198
G1 X121.842 Y85.725 E6.90168
G1 X121.609 Y86.581 E6.91643
G1 X120.925 Y89.244 E6.96215
G1 X120.322 Y91.893 E7.00733
G1 X119.794 Y94.566 E7.05264
G1 X119.327 Y97.334 E7.09933
G1 X118.956 Y100 E7.14409
G1 X118.655 Y102.714 E7.1895
G1 X118.429 Y105.454 E7.23522
G1 X118.283 Y108.17 E7.28045
G1 X118.213 Y110.922 E7.32623
G1 X118.221 Y113.675 E7.37202
G1 X118.306 Y116.393 E7.41724
G1 X118.467 Y119.103 E7.46239
G1 X118.709 Y121.852 E7.50828
G1 X119.026 Y124.577 E7.5539
G1 X119.42 Y127.284 E7.59939
G1 X120.14 Y131.271 E7.66677
G1 X120.199 Y132.07 E7.68009
G1 X120.2 Y139.607 E7.80544
G1 X120.19 Y140.308 E7.81709
G1 X120.125 Y140.903 E7.82705
G1 X120.083 Y141.1 E7.8304
G1 X119.942 Y141.683 E7.84037
G1 X119.065 Y145.107 E7.89915
G1 X119.058 Y145.16 E7.90004
G1 X118.907 Y145.75 E7.91017
G1 X118.601 Y146.877 E7.92959
G1 X118.431 Y147.353 E7.938
G1 X118.188 Y147.796 E7.9464
G1 X117.83 Y148.246 E7.95596
G1 X117.729 Y148.352 E7.9584
G1 X117.352 Y148.69 E7.96682
G1 X116.927 Y148.964 E7.97523
G1 X116.464 Y149.167 E7.98363
G1 X115.975 Y149.295 E7.99204
G1 X115.479 Y149.344 E8.00033
G1 X114.363 Y149.367 E8.01889
G1 X105.255 Y149.367 E8.17036
G1 X104.574 Y149.357 E8.18168
G1 X104.071 Y149.309 E8.19009
G1 X103.581 Y149.183 E8.1985
G1 X103.117 Y148.982 E8.20691
G1 X102.599 Y148.642 E8.21721
G1 X102.217 Y148.311 E8.22562
G1 X101.893 Y147.923 E8.23403
G1 X101.633 Y147.49 E8.24243
G1 X101.413 Y146.912 E8.25271
G1 X101.119 Y145.837 E8.27124
G1 X100.883 Y144.904 E8.28725
G1 X100.077 Y141.751 E8.34137
G1 X99.9 Y141.021 E8.35386
G1 X99.812 Y140.383 E8.36457
G1 X99.806 Y140.195 E8.3677
G1 X99.8 Y139.692 E8.37606
G1 X99.8 Y132.487 E8.49588
G1 X99.811 Y131.781 E8.50763
G1 X99.865 Y131.246 E8.51657
G1 X100.13 Y129.818 E8.54072
G1 X100.181 Y129.562 E8.54506
G1 X100.638 Y126.869 E8.59049
G1 X101.022 Y124.144 E8.63625
G1 X101.324 Y121.447 E8.68138
G1 X101.554 Y118.695 E8.72731
G1 X101.703 Y115.987 E8.77241
G1 X101.777 Y113.232 E8.81824
G1 X101.773 Y110.516 E8.86341
G1 X101.69 Y107.762 E8.90923
G1 X101.531 Y105.013 E8.95502
G1 X101.296 Y102.303 E9.00026
G1 X100.982 Y99.57 E9.04601
G1 X100.595 Y96.881 E9.09119
G1 X100.128 Y94.185 E9.13669
G1 X99.584 Y91.49 E9.18241
G1 X98.97 Y88.841 E9.22763
G1 X98.536 Y87.226 E9.25544
G1 X98.498 Y87.022 E9.2589
G1 X98.186 Y85.837 E9.27927
G1 X98.063 Y85.285 E9.28868
G1 X97.972 Y84.782 E9.29718
G1 X97.944 Y84.596 E9.30031
G1 X97.858 Y83.872 E9.31243
G1 X97.813 Y83.056 E9.32602
G1 X97.819 Y82.51 E9.3351
G1 X97.829 Y82.317 E9.33832
G1 X97.895 Y81.468 E9.35248
G1 X97.942 Y81.088 E9.35885
G1 X98.07 Y80.361 E9.37112
G1 X98.223 Y79.676 E9.3828
G1 X98.372 Y79.177 E9.39146
G1 X98.566 Y78.605 E9.4015
G1 X98.787 Y78.07 E9.41113
G1 X99.027 Y77.54 E9.4208
G1 X99.109 Y77.37 E9.42394
G1 X99.346 Y76.919 E9.43241
G1 X99.674 Y76.362 E9.44316
G1 X100.086 Y75.764 E9.45524
G1 X100.441 Y75.282 E9.46519
G1 F1800 E2.46519
G1 F300 Z0.3
G0 F1500 X103.13 Y77.345 Z0.3
;TYPE:SUPPORT
G1 F300 Z0.1
G1 F1800 E9.46519
G1 F900 X103.561 Y76.832 E9.47634
G1 X104.185 Y76.224 E9.49083
G1 X104.864 Y75.682 E9.50527
G1 X105.595 Y75.211 E9.51974
G1 X106.414 Y74.794 E9.53502
G1 X107.187 Y74.491 E9.54883
G1 X108.031 Y74.253 E9.56341
G1 X108.954 Y74.093 E9.57899
G1 X109.759 Y74.033 E9.59241
G1 X109.965 Y74.033 E9.59584
G1 X110.637 Y74.048 E9.60702
G1 X111.542 Y74.167 E9.6222
G1 X112.367 Y74.354 E9.63626
G1 X113.236 Y74.647 E9.65152
G1 X114.013 Y74.996 E9.66568
G1 X114.763 Y75.431 E9.6801
G1 X115.482 Y75.943 E9.69478
G1 X116.162 Y76.548 E9.70991
G1 X116.716 Y77.144 E9.72345
G1 X116.745 Y77.178 E9.72419
G1 X117.272 Y77.874 E9.73871
G1 X117.728 Y78.618 E9.75322
G1 X118.106 Y79.402 E9.76769
G1 X118.419 Y80.266 E9.78298
G1 X118.619 Y81.054 E9.7965
G1 X118.756 Y81.942 E9.81144
G1 X118.798 Y82.832 E9.82626
G1 X118.757 Y83.726 E9.84114
G1 X118.626 Y84.587 E9.85562
G1 X118.413 Y85.413 E9.86981
G1 X118.105 Y86.255 E9.88472
G1 X117.728 Y87.039 E9.89918
G1 X117.269 Y87.794 E9.91388
