;FLAVOR:Marlin
;TIME:9572
;Filament used: 4.21426m
;Layer height: 0.2
;MINX:43.634
;MINY:64.802
;MINZ:0.2
;MAXX:136.683
;MAXY:168.031
;MAXZ:3.2
;Generated with Cura_SteamEngine master
M82 ;absolute extrusion mode
;Sliced at: Mon 27-02-2023 21:35:46
;Basic settings: Layer height: 0.2 Walls: 0.8 Fill: 30
G21 ;metric values
G90 ;absolute positioning
M82 ;set extruder to absolute mode
M107 ;start with the fan off
M117 Start heating ...
M104 S200
M117 Homing X/Y ...
G28 X0 Y0 ;move X/Y to min endstops
M117 Homing Z ...
G28 Z0 ;move Z to min endstops
G1 Z15.0 F100 ;move the platform down 15mm
M117 Heating ...
M109 S200
M117 Start cleaning ...
G92 E0 ;zero the extruded length
G1 F200 E10 ;extrude 10mm of feed stock
G92 E0 ;zero the extruded length again
M117 Intro line ...
G1 Z2.0 F3000 ; Move Z Axis up little to prevent scratching of Heat Bed
G1 X0.1 Y20 Z0.2 F5000.0 ; Move to start position
G1 X0.1 Y200.0 Z0.2 F1500.0 E15 ; Draw the first line
G1 X0.4 Y200.0 Z0.2 F5000.0 ; Move to side a little
G1 X0.4 Y20 Z0.3 F1500.0 E30 ; Draw the second line
G92 E0 ; Reset Extruder
G1 E-1 F500 ; Retract filiment by 1 mm
G1 Z2.0 F3000 ; Move Z Axis up little to prevent scratching of Heat Bed
G1 X5 Y20 Z0.3 F100 ; Move over to prevent blob squish
G1 F100
G92 E0 ; Reset Extruder
M117 Printing...

G92 E0
G92 E0
G1 F1800 E-7
;LAYER_COUNT:15
;LAYER:0
M107
G1 F300 Z0.4
G0 F3000 X54.794 Y78.263 Z0.4
;TYPE:SKIRT
G1 F300 Z0.2
G1 F1800 E0
G1 F1200 X55.29 Y77.992 E0.0188
G1 X55.819 Y77.793 E0.0376
G1 X56.371 Y77.671 E0.0564
G1 X56.817 Y77.63 E0.0713
G1 X58.196 Y77.582 E0.11719
G1 X60.904 Y77.449 E0.20737
G1 X63.604 Y77.24 E0.29744
G1 X66.334 Y76.951 E0.38875
G1 X68.982 Y76.595 E0.47761
G1 X71.694 Y76.152 E0.56901
G1 X74.344 Y75.641 E0.65877
G1 X77.017 Y75.047 E0.74984
G1 X79.6 Y74.397 E0.83843
G1 X82.267 Y73.644 E0.93061
G1 X84.856 Y72.834 E1.02083
G1 X87.379 Y71.964 E1.1096
G1 X89.958 Y70.993 E1.20125
G1 X92.467 Y69.966 E1.29142
G1 X94.932 Y68.875 E1.38108
G1 X97.794 Y67.504 E1.48663
G1 X98.508 Y67.15 E1.51314
G1 X99.059 Y66.903 E1.53322
G1 X99.906 Y66.561 E1.5636
G1 X100.203 Y66.45 E1.57415
G1 X101.016 Y66.168 E1.60277
G1 X101.341 Y66.065 E1.61411
G1 X102.199 Y65.813 E1.64385
G1 X102.536 Y65.724 E1.65544
G1 X103.497 Y65.49 E1.68834
G1 X103.707 Y65.446 E1.69547
G1 X104.693 Y65.254 E1.72889
G1 X104.862 Y65.225 E1.73459
G1 X105.923 Y65.066 E1.77027
G1 X106.268 Y65.023 E1.78183
G1 X107.237 Y64.923 E1.81424
G1 X107.856 Y64.875 E1.83488
G1 X108.922 Y64.816 E1.87039
G1 X109.282 Y64.806 E1.88237
G1 X110.828 Y64.802 E1.93379
G1 X110.973 Y64.804 E1.93862
G1 X111.625 Y64.826 E1.96031
G1 X111.764 Y64.833 E1.96494
G1 X112.654 Y64.894 E1.99461
G1 X112.803 Y64.907 E1.99959
G1 X113.828 Y65.016 E2.03387
G1 X113.995 Y65.038 E2.03947
G1 X114.827 Y65.162 E2.06745
G1 X114.976 Y65.187 E2.07248
G1 X116.029 Y65.385 E2.10811
G1 X116.155 Y65.411 E2.11239
G1 X116.656 Y65.522 E2.12946
G1 X116.839 Y65.567 E2.13573
G1 X117.653 Y65.788 E2.16378
G1 X117.817 Y65.836 E2.16947
G1 X118.641 Y66.098 E2.19822
G1 X118.812 Y66.157 E2.20424
G1 X119.599 Y66.447 E2.23214
G1 X119.767 Y66.513 E2.23814
G1 X120.547 Y66.841 E2.26628
G1 X120.713 Y66.915 E2.27233
G1 X121.439 Y67.26 E2.29906
G1 X121.601 Y67.342 E2.3051
G1 X122.319 Y67.724 E2.33215
G1 X122.484 Y67.816 E2.33844
G1 X123.221 Y68.254 E2.36695
G1 X123.372 Y68.349 E2.37289
G1 X124.053 Y68.796 E2.39998
G1 X124.205 Y68.901 E2.40612
G1 X124.859 Y69.375 E2.43299
G1 X125.005 Y69.486 E2.43909
G1 X125.705 Y70.044 E2.46886
G1 X125.844 Y70.16 E2.47488
G1 X126.359 Y70.61 E2.49763
G1 X126.514 Y70.753 E2.50464
G1 X127.52 Y71.73 E2.55129
G1 X127.977 Y72.209 E2.57331
G1 X128.923 Y73.298 E2.62128
G1 X129.027 Y73.423 E2.62669
G1 X129.358 Y73.837 E2.64432
G1 X129.477 Y73.993 E2.65085
G1 X130.29 Y75.119 E2.69704
G1 X130.38 Y75.25 E2.70233
G1 X130.989 Y76.168 E2.73897
G1 X131.063 Y76.284 E2.74354
G1 X131.408 Y76.845 E2.76545
G1 X131.605 Y77.185 E2.77852
G1 X132.04 Y77.967 E2.80828
G1 X132.223 Y78.314 E2.82133
G1 X132.746 Y79.368 E2.86046
G1 X132.93 Y79.766 E2.87505
G1 X133.388 Y80.811 E2.913
G1 X133.529 Y81.159 E2.92548
G1 X133.894 Y82.101 E2.95908
G1 X134.103 Y82.684 E2.97968
G1 X134.411 Y83.597 E3.01173
G1 X134.688 Y84.503 E3.04324
G1 X134.964 Y85.47 E3.07669
G1 X135.06 Y85.837 E3.08931
G1 X135.216 Y86.467 E3.11089
G1 X135.428 Y87.37 E3.14174
G1 X135.455 Y87.494 E3.14596
G1 X135.686 Y88.644 E3.18498
G1 X135.873 Y89.656 E3.21921
G1 X135.913 Y89.904 E3.22756
G1 X136.106 Y91.192 E3.27088
G1 X136.236 Y92.161 E3.3034
G1 X136.265 Y92.422 E3.31213
G1 X136.403 Y93.775 E3.35737
G1 X136.498 Y94.854 E3.39339
G1 X136.573 Y96.107 E3.43514
G1 X136.657 Y98.24 E3.50614
G1 X136.678 Y99.358 E3.54333
G1 X136.683 Y100.808 E3.59156
G1 X136.667 Y101.651 E3.6196
G1 X136.608 Y103.078 E3.66711
G1 X136.593 Y103.319 E3.67514
G1 X136.46 Y105.136 E3.73573
G1 X136.448 Y105.276 E3.74041
G1 X136.294 Y106.692 E3.78778
G1 X136.138 Y107.827 E3.82589
G1 X136.12 Y107.945 E3.82986
G1 X135.932 Y109.057 E3.86737
G1 X135.91 Y109.177 E3.87142
G1 X135.691 Y110.269 E3.90847
G1 X135.661 Y110.406 E3.91313
G1 X135.41 Y111.463 E3.94926
G1 X135.377 Y111.591 E3.95366
G1 X135.116 Y112.548 E3.98665
G1 X135.076 Y112.687 E3.99146
G1 X134.76 Y113.7 E4.02676
G1 X134.71 Y113.848 E4.03195
G1 X134.363 Y114.825 E4.06644
G1 X133.268 Y117.679 E4.16811
G1 X132.366 Y120.243 E4.25851
G1 X131.529 Y122.859 E4.34986
G1 X130.778 Y125.452 E4.43965
G1 X130.103 Y128.063 E4.52935
G1 X129.493 Y130.727 E4.62025
G1 X128.958 Y133.417 E4.71147
G1 X128.513 Y136.036 E4.79983
G1 X128.128 Y138.761 E4.89136
G1 X127.827 Y141.447 E4.98126
G1 X127.601 Y144.148 E5.07141
G1 X127.451 Y146.859 E5.16171
G1 X127.372 Y150.047 E5.26778
G1 X127.361 Y151.243 E5.30756
G1 X127.315 Y151.807 E5.32638
G1 X127.191 Y152.358 E5.34516
G1 X126.99 Y152.887 E5.36399
G1 X126.717 Y153.382 E5.38279
G1 X126.377 Y153.833 E5.40157
G1 X125.976 Y154.232 E5.42039
G1 X125.523 Y154.57 E5.43919
G1 X125.027 Y154.841 E5.45799
G1 X124.498 Y155.04 E5.47678
G1 X123.946 Y155.162 E5.49559
G1 X123.503 Y155.202 E5.51038
G1 X122.168 Y155.249 E5.55481
G1 X119.413 Y155.384 E5.64655
G1 X116.715 Y155.593 E5.73656
G1 X113.982 Y155.882 E5.82796
G1 X111.334 Y156.238 E5.91683
G1 X108.636 Y156.679 E6.00776
G1 X105.952 Y157.197 E6.09867
G1 X103.307 Y157.784 E6.18879
G1 X100.702 Y158.44 E6.27813
G1 X98.068 Y159.184 E6.36917
G1 X95.48 Y159.994 E6.45936
G1 X92.898 Y160.884 E6.5502
G1 X90.366 Y161.838 E6.64019
G1 X87.874 Y162.857 E6.72974
G1 X85.373 Y163.965 E6.82072
G1 X82.525 Y165.329 E6.92575
G1 X81.809 Y165.684 E6.95233
G1 X81.258 Y165.931 E6.97241
G1 X80.42 Y166.269 E7.00247
G1 X80.136 Y166.375 E7.01255
G1 X79.228 Y166.69 E7.04452
G1 X79.006 Y166.76 E7.05226
G1 X78.082 Y167.031 E7.08429
G1 X77.821 Y167.1 E7.09326
G1 X76.868 Y167.332 E7.12589
G1 X76.572 Y167.395 E7.13595
G1 X75.637 Y167.577 E7.16763
G1 X75.462 Y167.607 E7.17354
G1 X74.333 Y167.775 E7.2115
G1 X74.165 Y167.797 E7.21714
G1 X73.145 Y167.905 E7.25125
G1 X72.464 Y167.958 E7.27397
G1 X71.37 Y168.018 E7.31041
G1 X71.068 Y168.026 E7.32046
G1 X69.471 Y168.031 E7.37358
G1 X69.326 Y168.029 E7.3784
G1 X68.718 Y168.009 E7.39864
G1 X68.576 Y168.002 E7.40336
G1 X67.6 Y167.935 E7.4359
G1 X67.447 Y167.921 E7.44101
G1 X66.534 Y167.823 E7.47155
G1 X66.378 Y167.803 E7.47678
G1 X65.516 Y167.676 E7.50576
G1 X65.357 Y167.65 E7.51112
G1 X64.499 Y167.488 E7.54016
G1 X64.339 Y167.454 E7.5456
G1 X63.267 Y167.206 E7.5822
G1 X62.657 Y167.044 E7.60319
G1 X62.483 Y166.993 E7.60922
G1 X61.664 Y166.732 E7.63781
G1 X61.498 Y166.675 E7.64365
G1 X60.734 Y166.394 E7.67073
G1 X60.561 Y166.326 E7.67691
G1 X59.769 Y165.992 E7.7055
G1 X59.61 Y165.921 E7.71129
G1 X58.882 Y165.576 E7.73808
G1 X58.71 Y165.489 E7.74449
G1 X57.954 Y165.085 E7.773
G1 X57.793 Y164.994 E7.77916
G1 X57.094 Y164.578 E7.80621
G1 X56.943 Y164.483 E7.81214
G1 X56.26 Y164.034 E7.83933
G1 X56.111 Y163.931 E7.84535
G1 X55.458 Y163.458 E7.87217
G1 X55.311 Y163.347 E7.8783
G1 X54.611 Y162.789 E7.90807
G1 X54.472 Y162.673 E7.91409
G1 X53.956 Y162.222 E7.93689
G1 X53.801 Y162.08 E7.94388
G1 X52.797 Y161.105 E7.99043
G1 X52.344 Y160.629 E8.01228
G1 X51.389 Y159.528 E8.06076
G1 X51.005 Y159.056 E8.081
G1 X50.872 Y158.882 E8.08828
G1 X49.995 Y157.667 E8.13812
G1 X49.904 Y157.536 E8.14342
G1 X49.324 Y156.661 E8.17834
G1 X49.255 Y156.553 E8.1826
G1 X48.969 Y156.09 E8.2007
G1 X48.711 Y155.646 E8.21778
G1 X48.25 Y154.816 E8.24936
G1 X47.994 Y154.324 E8.26781
G1 X47.565 Y153.455 E8.30004
G1 X47.381 Y153.055 E8.31469
G1 X46.907 Y151.971 E8.35404
G1 X46.763 Y151.612 E8.3669
G1 X46.422 Y150.73 E8.39835
G1 X46.187 Y150.07 E8.42165
G1 X45.906 Y149.236 E8.45093
G1 X45.629 Y148.333 E8.48234
G1 X45.329 Y147.273 E8.51898
G1 X45.257 Y146.995 E8.52853
G1 X45.101 Y146.366 E8.55009
G1 X44.87 Y145.377 E8.58387
G1 X44.813 Y145.106 E8.59308
G1 X44.63 Y144.191 E8.62411
G1 X44.447 Y143.195 E8.65779
G1 X44.398 Y142.89 E8.66807
G1 X44.221 Y141.702 E8.70802
G1 X44.07 Y140.581 E8.74564
G1 X43.913 Y139.058 E8.79656
G1 X43.825 Y138.06 E8.82989
G1 X43.744 Y136.732 E8.87414
G1 X43.66 Y134.593 E8.94534
G1 X43.639 Y133.474 E8.98256
G1 X43.634 Y132.022 E9.03085
G1 X43.65 Y131.189 E9.05856
G1 X43.71 Y129.759 E9.10617
G1 X43.724 Y129.515 E9.1143
G1 X43.859 Y127.672 E9.17576
G1 X43.871 Y127.534 E9.18037
G1 X44.018 Y126.176 E9.2258
G1 X44.173 Y125.045 E9.26377
G1 X44.191 Y124.927 E9.26774
G1 X44.412 Y123.626 E9.31163
G1 X44.621 Y122.592 E9.34672
G1 X44.648 Y122.47 E9.35087
G1 X44.899 Y121.401 E9.38739
G1 X44.935 Y121.26 E9.39223
G1 X45.213 Y120.243 E9.4273
G1 X45.253 Y120.104 E9.43211
G1 X45.559 Y119.126 E9.46619
G1 X45.607 Y118.983 E9.47121
G1 X45.953 Y118.007 E9.50565
G1 X47.053 Y115.141 E9.60776
G1 X47.957 Y112.571 E9.69837
G1 X48.788 Y109.972 E9.78912
G1 X49.539 Y107.379 E9.87891
G1 X50.218 Y104.754 E9.96909
G1 X50.822 Y102.111 E10.05926
G1 X51.356 Y99.442 E10.1498
G1 X51.807 Y96.774 E10.23979
G1 X52.189 Y94.07 E10.33062
G1 X52.49 Y91.384 E10.42052
G1 X52.716 Y88.683 E10.51067
G1 X52.866 Y85.972 E10.60097
G1 X52.945 Y82.785 E10.707
G1 X52.956 Y81.59 E10.74675
G1 X53.002 Y81.026 E10.76557
G1 X53.126 Y80.475 E10.78436
G1 X53.327 Y79.946 E10.80318
G1 X53.6 Y79.451 E10.82198
G1 X53.94 Y79 E10.84077
G1 X54.341 Y78.601 E10.85958
G1 X54.794 Y78.263 E10.87838
G0 F3000 X55.175 Y78.499
G1 F1200 X55.66 Y78.27 E10.89622
G1 X56.173 Y78.114 E10.91405
G1 X56.831 Y78.03 E10.93612
G1 X58.171 Y77.983 E10.98071
G1 X60.954 Y77.846 E11.07339
G1 X63.641 Y77.639 E11.16302
G1 X66.358 Y77.351 E11.2539
G1 X69.069 Y76.986 E11.34488
G1 X71.756 Y76.547 E11.43543
G1 X74.441 Y76.03 E11.52638
G1 X77.087 Y75.442 E11.61653
G1 X79.701 Y74.784 E11.70618
G1 X82.357 Y74.034 E11.79798
G1 X85 Y73.207 E11.89009
G1 X87.545 Y72.329 E11.97963
G1 X90.084 Y71.373 E12.06986
G1 X92.603 Y70.343 E12.16038
G1 X95.116 Y69.23 E12.25179
G1 X97.966 Y67.865 E12.3569
G1 X98.566 Y67.566 E12.37919
G1 X99.062 Y67.337 E12.39736
G1 X99.209 Y67.274 E12.40268
G1 X100.049 Y66.935 E12.43281
G1 X100.335 Y66.828 E12.44297
G1 X101.138 Y66.549 E12.47124
G1 X101.454 Y66.448 E12.48228
G1 X102.302 Y66.199 E12.51167
G1 X102.631 Y66.112 E12.52299
G1 X103.48 Y65.904 E12.55206
G1 X103.784 Y65.838 E12.56241
G1 X104.77 Y65.646 E12.59582
G1 X104.922 Y65.62 E12.60095
G1 X105.973 Y65.463 E12.63629
G1 X106.309 Y65.421 E12.64755
G1 X107.374 Y65.312 E12.68316
G1 X107.879 Y65.275 E12.7
G1 X108.935 Y65.216 E12.73518
G1 X109.283 Y65.206 E12.74676
G1 X110.829 Y65.202 E12.79818
G1 X110.959 Y65.204 E12.8025
G1 X111.611 Y65.226 E12.8242
G1 X111.736 Y65.232 E12.82837
G1 X112.626 Y65.293 E12.85804
G1 X112.761 Y65.305 E12.86254
G1 X113.786 Y65.414 E12.89683
G1 X113.936 Y65.433 E12.90186
G1 X114.768 Y65.557 E12.92983
G1 X114.902 Y65.58 E12.93436
G1 X116.069 Y65.801 E12.97386
G1 X116.57 Y65.912 E12.99093
G1 X116.734 Y65.953 E12.99655
G1 X117.548 Y66.174 E13.0246
G1 X117.696 Y66.217 E13.02973
G1 X118.52 Y66.479 E13.05849
G1 X118.674 Y66.532 E13.06391
G1 X119.461 Y66.822 E13.0918
G1 X119.611 Y66.881 E13.09716
G1 X120.391 Y67.209 E13.12531
G1 X120.541 Y67.276 E13.13077
G1 X121.267 Y67.621 E13.15751
G1 X121.413 Y67.695 E13.16295
G1 X122.131 Y68.077 E13.19
G1 X122.279 Y68.16 E13.19564
G1 X123.016 Y68.598 E13.22416
G1 X123.152 Y68.683 E13.22949
G1 X123.833 Y69.13 E13.25659
G1 X123.971 Y69.225 E13.26216
G1 X124.625 Y69.699 E13.28902
G1 X124.756 Y69.799 E13.2945
G1 X125.456 Y70.357 E13.32428
G1 X125.581 Y70.461 E13.32969
G1 X126.096 Y70.911 E13.35243
G1 X126.235 Y71.039 E13.35872
G1 X127.241 Y72.016 E13.40536
G1 X127.675 Y72.471 E13.42627
G1 X128.621 Y73.56 E13.47425
G1 X128.715 Y73.673 E13.47914
G1 X129.046 Y74.087 E13.49677
G1 X129.153 Y74.228 E13.50266
G1 X129.966 Y75.354 E13.54885
G1 X130.047 Y75.471 E13.55358
G1 X130.656 Y76.389 E13.59022
G1 X130.723 Y76.493 E13.59434
G1 X131.068 Y77.054 E13.61624
G1 X131.255 Y77.38 E13.62874
G1 X131.687 Y78.155 E13.65826
G1 X131.865 Y78.492 E13.67093
G1 X132.433 Y79.64 E13.71353
G1 X132.564 Y79.926 E13.72399
G1 X132.979 Y80.871 E13.75832
G1 X133.156 Y81.303 E13.77385
G1 X133.521 Y82.245 E13.80745
G1 X133.747 Y82.878 E13.82981
G1 X134.059 Y83.808 E13.86243
G1 X134.305 Y84.618 E13.89059
G1 X134.579 Y85.579 E13.92383
G1 X134.672 Y85.933 E13.936
G1 X134.827 Y86.558 E13.95742
G1 X135.039 Y87.461 E13.98827
G1 X135.283 Y88.665 E14.02913
G1 X135.462 Y89.625 E14.06161
G1 X135.517 Y89.963 E14.073
G1 X135.709 Y91.245 E14.11611
G1 X135.839 Y92.206 E14.14836
G1 X135.867 Y92.463 E14.15696
G1 X136.005 Y93.81 E14.202
G1 X136.099 Y94.881 E14.23776
G1 X136.114 Y95.106 E14.24526
G1 X136.177 Y96.201 E14.28174
G1 X136.259 Y98.33 E14.3526
G1 X136.278 Y99.36 E14.38686
G1 X136.283 Y100.801 E14.43479
G1 X136.267 Y101.635 E14.46254
G1 X136.208 Y103.055 E14.50981
G1 X136.194 Y103.29 E14.51764
G1 X136.061 Y105.107 E14.57823
G1 X136.05 Y105.233 E14.58244
G1 X135.896 Y106.649 E14.62981
G1 X135.742 Y107.772 E14.66751
G1 X135.726 Y107.878 E14.67108
G1 X135.538 Y108.99 E14.70859
G1 X135.518 Y109.098 E14.71224
G1 X135.299 Y110.19 E14.74929
G1 X135.272 Y110.314 E14.75351
G1 X135.021 Y111.371 E14.78964
G1 X134.73 Y112.443 E14.82659
G1 X134.694 Y112.568 E14.83091
G1 X134.378 Y113.581 E14.86621
G1 X134.333 Y113.714 E14.87088
G1 X133.986 Y114.691 E14.90536
G1 X132.888 Y117.55 E15.00722
G1 X131.988 Y120.111 E15.09751
G1 X131.15 Y122.731 E15.189
G1 X130.393 Y125.346 E15.27954
G1 X129.71 Y127.986 E15.37024
G1 X129.106 Y130.624 E15.46025
G1 X128.565 Y133.343 E15.55246
G1 X128.116 Y135.984 E15.64156
G1 X127.734 Y138.697 E15.73269
G1 X127.426 Y141.44 E15.82449
G1 X127.202 Y144.118 E15.91387
G1 X127.051 Y146.828 E16.00415
G1 X126.972 Y150.037 E16.11091
G1 X126.961 Y151.239 E16.15089
G1 X126.916 Y151.774 E16.16875
G1 X126.792 Y152.296 E16.18659
G1 X126.592 Y152.793 E16.20441
G1 X126.32 Y153.255 E16.22224
G1 X125.983 Y153.672 E16.24008
G1 X125.587 Y154.034 E16.25792
G1 X125.142 Y154.334 E16.27577
G1 X124.657 Y154.563 E16.29361
G1 X124.144 Y154.719 E16.31144
G1 X123.489 Y154.803 E16.33341
G1 X122.136 Y154.851 E16.37844
G1 X119.364 Y154.986 E16.47074
G1 X116.675 Y155.194 E16.56045
G1 X113.958 Y155.482 E16.65132
G1 X111.247 Y155.847 E16.7423
G1 X108.567 Y156.285 E16.83262
G1 X105.861 Y156.807 E16.92428
G1 X103.228 Y157.392 E17.01399
G1 X100.601 Y158.052 E17.10408
G1 X97.984 Y158.792 E17.19454
G1 X95.336 Y159.621 E17.28683
G1 X92.763 Y160.507 E17.37734
G1 X90.222 Y161.465 E17.46766
G1 X87.697 Y162.498 E17.5584
G1 X85.217 Y163.597 E17.64862
G1 X82.353 Y164.968 E17.75423
G1 X81.751 Y165.268 E17.7766
G1 X81.255 Y165.497 E17.79477
G1 X81.108 Y165.56 E17.80009
G1 X80.278 Y165.895 E17.82986
G1 X80.004 Y165.997 E17.83958
G1 X79.107 Y166.309 E17.87117
G1 X78.893 Y166.376 E17.87863
G1 X77.978 Y166.645 E17.91035
G1 X77.726 Y166.712 E17.91902
G1 X76.877 Y166.92 E17.94809
G1 X76.496 Y167.003 E17.96106
G1 X75.561 Y167.185 E17.99274
G1 X75.403 Y167.212 E17.99808
G1 X74.274 Y167.38 E18.03604
G1 X74.123 Y167.399 E18.0411
G1 X72.998 Y167.517 E18.07872
G1 X72.441 Y167.558 E18.0973
G1 X71.357 Y167.618 E18.13341
G1 X71.066 Y167.626 E18.14309
G1 X69.469 Y167.631 E18.19621
G1 X69.34 Y167.629 E18.2005
G1 X68.732 Y167.609 E18.22073
G1 X68.603 Y167.603 E18.22503
G1 X67.627 Y167.536 E18.25757
G1 X67.49 Y167.523 E18.26214
G1 X66.577 Y167.425 E18.29268
