;FLAVOR:Marlin
;TIME:7306
;Filament used: 3.26625m
;Layer height: 0.2
;MINX:62.815
;MINY:63.572
;MINZ:0.2
;MAXX:157.171
;MAXY:156.414
;MAXZ:3.2
;Generated with Cura_SteamEngine master
M82 ;absolute extrusion mode
;Sliced at: Sat 25-02-2023 21:20:27
;Basic settings: Layer height: 0.2 Walls: 0.8 Fill: 30.0
G21 ;metric values
G90 ;absolute positioning
M82 ;set extruder to absolute mode
M107 ;start with the fan off
M117 Start heating ...
M104 S200
M117 Homing X/Y ...
G28 X0 Y0 ;move X/Y to min endstops
M117 Homing Z ...
G28 Z0 ;move Z to min endstops
G1 Z15.0 F100 ;move the platform down 15mm
M117 Heating ...
M109 S200
M117 Start cleaning ...
G92 E0 ;zero the extruded length
G1 F200 E10 ;extrude 10mm of feed stock
G92 E0 ;zero the extruded length again
M117 Intro line ...
G1 Z2.0 F3000 ; Move Z Axis up little to prevent scratching of Heat Bed
G1 X0.1 Y20 Z0.2 F5000.0 ; Move to start position
G1 X0.1 Y200.0 Z0.2 F1500.0 E15 ; Draw the first line
G1 X0.4 Y200.0 Z0.2 F5000.0 ; Move to side a little
G1 X0.4 Y20 Z0.3 F1500.0 E30 ; Draw the second line
G92 E0 ; Reset Extruder
G1 E-1 F500 ; Retract filiment by 1 mm
G1 Z2.0 F3000 ; Move Z Axis up little to prevent scratching of Heat Bed
G1 X5 Y20 Z0.3 F100 ; Move over to prevent blob squish
G1 F100
G92 E0 ; Reset Extruder
M117 Printing...

G92 E0
G92 E0
G1 F1800 E-7
;LAYER_COUNT:15
;LAYER:0
M107
G1 F300 Z0.4
G0 F3000 X71.708 Y64.932 Z0.4
;TYPE:SKIRT
G1 F300 Z0.2
G1 F1800 E0
G1 F1200 X72.111 Y64.536 E0.01879
G1 X72.566 Y64.201 E0.03758
G1 X73.064 Y63.933 E0.05639
G1 X73.595 Y63.738 E0.07521
G1 X74.148 Y63.62 E0.09402
G1 X74.911 Y63.574 E0.11944
G1 X75.024 Y63.572 E0.1232
G1 X89.954 Y63.572 E0.61977
G1 X90.652 Y63.582 E0.64299
G1 X91.132 Y63.61 E0.65898
G1 X93.608 Y63.819 E0.74163
G1 X96.343 Y63.972 E0.83274
G1 X99.019 Y64.047 E0.92177
G1 X101.76 Y64.045 E1.01294
G1 X104.434 Y63.967 E1.10192
G1 X107.219 Y63.809 E1.19469
G1 X108.77 Y63.684 E1.24645
G1 X109.76 Y63.597 E1.2795
G1 X110.386 Y63.573 E1.30034
G1 X150.414 Y63.572 E2.63168
G1 X151.112 Y63.582 E2.65489
G1 X151.676 Y63.63 E2.67372
G1 X152.226 Y63.757 E2.69249
G1 X152.754 Y63.961 E2.71132
G1 X153.248 Y64.236 E2.73013
G1 X153.697 Y64.579 E2.74892
G1 X154.094 Y64.981 E2.76771
G1 X154.431 Y65.436 E2.78654
G1 X154.699 Y65.933 E2.80532
G1 X154.895 Y66.463 E2.82412
G1 X155.015 Y67.016 E2.84294
G1 X155.062 Y67.79 E2.86873
G1 X155.064 Y67.902 E2.87245
G1 X155.064 Y81.474 E3.32386
G1 X155.053 Y82.184 E3.34748
G1 X155.004 Y82.743 E3.36614
G1 X154.938 Y83.165 E3.38035
G1 X154.603 Y85.124 E3.44645
G1 X154.219 Y87.821 E3.53706
G1 X153.918 Y90.476 E3.62593
G1 X153.686 Y93.205 E3.71702
G1 X153.531 Y95.949 E3.80844
G1 X153.455 Y98.619 E3.89728
G1 X153.455 Y101.365 E3.98861
G1 X153.531 Y104.035 E4.07745
G1 X153.686 Y106.773 E4.16866
G1 X153.919 Y109.511 E4.26006
G1 X154.22 Y112.16 E4.34873
G1 X154.607 Y114.879 E4.44008
G1 X155.06 Y117.518 E4.52913
G1 X155.598 Y120.197 E4.62002
G1 X155.912 Y121.568 E4.6668
G1 X156.099 Y122.412 E4.69555
G1 X156.43 Y124.01 E4.74983
G1 X156.457 Y124.153 E4.75467
G1 X156.709 Y125.641 E4.80486
G1 X156.732 Y125.795 E4.81004
G1 X156.928 Y127.309 E4.86082
G1 X156.945 Y127.469 E4.86617
G1 X157.1 Y129.212 E4.92437
G1 X157.11 Y129.353 E4.92907
G1 X157.156 Y130.227 E4.95818
G1 X157.166 Y130.651 E4.97229
G1 X157.171 Y132.229 E5.02477
G1 X157.156 Y132.816 E5.0443
G1 X157.099 Y133.88 E5.07974
G1 X157.09 Y134.012 E5.08414
G1 X156.995 Y135.088 E5.12007
G1 X156.978 Y135.24 E5.12516
G1 X156.847 Y136.272 E5.15976
G1 X156.825 Y136.425 E5.1649
G1 X156.66 Y137.416 E5.19831
G1 X156.631 Y137.569 E5.20349
G1 X156.433 Y138.527 E5.23603
G1 X156.396 Y138.689 E5.24155
G1 X156.114 Y139.815 E5.28016
G1 X156.078 Y139.948 E5.28474
G1 X155.923 Y140.487 E5.3034
G1 X155.87 Y140.657 E5.30932
G1 X155.576 Y141.531 E5.33999
G1 X155.515 Y141.702 E5.34603
G1 X155.187 Y142.548 E5.37621
G1 X155.116 Y142.718 E5.38234
G1 X154.76 Y143.524 E5.41164
G1 X154.684 Y143.687 E5.41762
G1 X154.321 Y144.418 E5.44477
G1 X154.161 Y144.719 E5.45611
G1 X153.785 Y145.393 E5.48178
G1 X153.603 Y145.697 E5.49356
G1 X153.171 Y146.384 E5.52055
G1 X153.039 Y146.583 E5.5285
G1 X152.574 Y147.248 E5.55549
G1 X152.465 Y147.397 E5.56163
G1 X151.922 Y148.1 E5.59117
G1 X151.744 Y148.319 E5.60056
G1 X151.209 Y148.943 E5.62789
G1 X151.028 Y149.141 E5.63682
G1 X150.51 Y149.69 E5.66192
G1 X150.119 Y150.081 E5.68031
G1 X149.609 Y150.563 E5.70365
G1 X149.517 Y150.647 E5.7078
G1 X149.072 Y151.042 E5.72759
G1 X148.95 Y151.147 E5.73294
G1 X148.367 Y151.624 E5.75799
G1 X148.218 Y151.74 E5.76428
G1 X147.613 Y152.189 E5.78933
G1 X147.469 Y152.291 E5.7952
G1 X146.975 Y152.625 E5.81504
G1 X146.797 Y152.738 E5.82205
G1 X145.54 Y153.493 E5.87082
G1 X145.078 Y153.746 E5.88834
G1 X144.347 Y154.108 E5.91547
G1 X144.191 Y154.181 E5.9212
G1 X143.633 Y154.428 E5.94149
G1 X143.449 Y154.504 E5.94812
G1 X142.203 Y154.983 E5.99251
G1 X141.711 Y155.155 E6.00985
G1 X141.537 Y155.21 E6.01592
G1 X140.592 Y155.488 E6.04868
G1 X140.412 Y155.537 E6.05489
G1 X139.541 Y155.749 E6.0847
G1 X139.215 Y155.82 E6.0958
G1 X138.371 Y155.985 E6.1244
G1 X138.025 Y156.043 E6.13607
G1 X137.026 Y156.188 E6.16965
G1 X136.811 Y156.215 E6.17685
G1 X135.914 Y156.306 E6.20684
G1 X135.519 Y156.336 E6.22002
G1 X134.49 Y156.394 E6.25429
G1 X134.116 Y156.406 E6.26674
G1 X132.49 Y156.414 E6.32082
G1 X132.015 Y156.403 E6.33662
G1 X131.03 Y156.354 E6.36943
G1 X130.06 Y156.277 E6.40179
G1 X129.193 Y156.183 E6.4308
G1 X129.064 Y156.167 E6.43512
G1 X128.279 Y156.056 E6.46149
G1 X128.152 Y156.036 E6.46576
G1 X127.492 Y155.921 E6.48805
G1 X125.859 Y155.583 E6.54351
G1 X125.77 Y155.564 E6.54654
G1 X124.382 Y155.242 E6.59393
G1 X121.703 Y154.701 E6.68483
G1 X119.053 Y154.248 E6.77425
G1 X116.347 Y153.861 E6.86517
G1 X113.656 Y153.554 E6.95525
G1 X110.988 Y153.324 E7.04432
G1 X108.219 Y153.167 E7.13656
G1 X105.544 Y153.089 E7.22557
G1 X102.801 Y153.087 E7.3168
G1 X100.133 Y153.161 E7.40558
G1 X97.39 Y153.315 E7.49695
G1 X94.686 Y153.543 E7.58721
G1 X91.979 Y153.849 E7.67782
G1 X91.309 Y153.938 E7.7003
G1 X90.706 Y153.992 E7.72043
G1 X90.274 Y154.003 E7.73481
G1 X67.47 Y154.003 E8.49327
G1 X66.772 Y153.994 E8.51649
G1 X66.209 Y153.946 E8.53528
G1 X65.658 Y153.82 E8.55408
G1 X65.13 Y153.618 E8.57288
G1 X64.636 Y153.343 E8.59169
G1 X64.186 Y153.001 E8.61049
G1 X63.788 Y152.599 E8.6293
G1 X63.452 Y152.145 E8.64809
G1 X63.182 Y151.648 E8.6669
G1 X62.985 Y151.118 E8.68571
G1 X62.865 Y150.566 E8.70449
G1 X62.816 Y149.769 E8.73105
G1 X62.815 Y136.102 E9.18562
G1 X62.826 Y135.393 E9.2092
G1 X62.875 Y134.83 E9.228
G1 X63.003 Y134.279 E9.24681
G1 X63.115 Y133.963 E9.25796
G1 X63.523 Y132.947 E9.29438
G1 X63.772 Y132.352 E9.31583
G1 X64.751 Y129.813 E9.40634
G1 X65.644 Y127.288 E9.49542
G1 X66.489 Y124.661 E9.5872
G1 X67.235 Y122.1 E9.67592
G1 X67.93 Y119.433 E9.76759
G1 X68.54 Y116.79 E9.85781
G1 X69.07 Y114.142 E9.94763
G1 X69.526 Y111.484 E10.03732
G1 X69.916 Y108.757 E10.12895
G1 X70.221 Y106.078 E10.21863
G1 X70.449 Y103.409 E10.30772
G1 X70.607 Y100.634 E10.40017
G1 X70.684 Y97.958 E10.48921
G1 X70.694 Y96.533 E10.5366
G1 X70.695 Y68.18 E11.47963
G1 X70.706 Y67.515 E11.50175
G1 X70.755 Y66.952 E11.52055
G1 X70.883 Y66.401 E11.53936
G1 X71.088 Y65.874 E11.55817
G1 X71.364 Y65.381 E11.57696
G1 X71.708 Y64.932 E11.59577
G0 F3000 X72.101 Y65.095
G1 F1200 X72.499 Y64.736 E11.6136
G1 X72.946 Y64.44 E11.63143
G1 X73.432 Y64.214 E11.64926
G1 X73.946 Y64.062 E11.66709
G1 X74.603 Y63.982 E11.6891
G1 X75.024 Y63.972 E11.70311
G1 X89.949 Y63.972 E12.19951
G1 X90.647 Y63.982 E12.22273
G1 X91.098 Y64.009 E12.23776
G1 X93.586 Y64.219 E12.3208
G1 X96.274 Y64.37 E12.41035
G1 X99.044 Y64.447 E12.50251
G1 X101.772 Y64.445 E12.59325
G1 X104.468 Y64.367 E12.68295
G1 X107.186 Y64.212 E12.7735
G1 X108.833 Y64.081 E12.82846
G1 X109.795 Y63.996 E12.86058
G1 X110.386 Y63.973 E12.88025
G1 X150.409 Y63.972 E14.21142
G1 X151.107 Y63.982 E14.23464
G1 X151.641 Y64.03 E14.25247
G1 X152.162 Y64.156 E14.2703
G1 X152.659 Y64.359 E14.28815
G1 X153.12 Y64.633 E14.30599
G1 X153.535 Y64.972 E14.32381
G1 X153.895 Y65.37 E14.34166
G1 X154.192 Y65.816 E14.35948
G1 X154.42 Y66.302 E14.37734
G1 X154.572 Y66.816 E14.39517
G1 X154.654 Y67.481 E14.41745
G1 X154.664 Y67.902 E14.43146
G1 X154.664 Y81.468 E14.88267
G1 X154.653 Y82.178 E14.90628
G1 X154.609 Y82.681 E14.92308
G1 X154.544 Y83.098 E14.93711
G1 X154.206 Y85.073 E15.00376
G1 X153.824 Y87.757 E15.09393
G1 X153.516 Y90.468 E15.18468
G1 X153.286 Y93.183 E15.2753
G1 X153.133 Y95.88 E15.36515
G1 X153.055 Y98.644 E15.45711
G1 X153.055 Y101.34 E15.54678
G1 X153.133 Y104.103 E15.63872
G1 X153.286 Y106.796 E15.72843
G1 X153.518 Y109.518 E15.81929
G1 X153.825 Y112.225 E15.90991
G1 X154.211 Y114.931 E16.00082
G1 X154.667 Y117.592 E16.09062
G1 X155.211 Y120.301 E16.18252
G1 X155.521 Y121.655 E16.22871
G1 X155.707 Y122.493 E16.25727
G1 X156.038 Y124.091 E16.31154
G1 X156.062 Y124.22 E16.31591
G1 X156.314 Y125.708 E16.3661
G1 X156.335 Y125.847 E16.37078
G1 X156.531 Y127.361 E16.42155
G1 X156.547 Y127.504 E16.42634
G1 X156.702 Y129.247 E16.48454
G1 X156.711 Y129.375 E16.48881
G1 X156.756 Y130.238 E16.51755
G1 X156.766 Y130.652 E16.53133
G1 X156.771 Y132.219 E16.58344
G1 X156.752 Y132.912 E16.6065
G1 X156.7 Y133.858 E16.63801
G1 X156.596 Y135.053 E16.67791
G1 X156.581 Y135.189 E16.68246
G1 X156.45 Y136.221 E16.71706
G1 X156.43 Y136.359 E16.7217
G1 X156.265 Y137.35 E16.75511
G1 X156.239 Y137.488 E16.75978
G1 X156.041 Y138.446 E16.79232
G1 X156.008 Y138.592 E16.7973
G1 X155.726 Y139.718 E16.83591
G1 X155.694 Y139.838 E16.84004
G1 X155.539 Y140.377 E16.85869
G1 X155.491 Y140.53 E16.86402
G1 X155.197 Y141.404 E16.89469
G1 X155.142 Y141.557 E16.9001
G1 X154.814 Y142.403 E16.93028
G1 X154.75 Y142.557 E16.93583
G1 X154.394 Y143.363 E16.96513
G1 X154.325 Y143.509 E16.9705
G1 X153.913 Y144.336 E17.00124
G1 X153.812 Y144.524 E17.00833
G1 X153.436 Y145.198 E17.034
G1 X153.265 Y145.485 E17.04511
G1 X152.836 Y146.166 E17.07188
G1 X152.711 Y146.354 E17.07939
G1 X152.246 Y147.019 E17.10638
G1 X152.148 Y147.153 E17.1119
G1 X151.611 Y147.849 E17.14114
G1 X151.44 Y148.059 E17.15015
G1 X150.912 Y148.675 E17.17713
G1 X150.737 Y148.867 E17.18577
G1 X150.147 Y149.491 E17.21434
G1 X149.845 Y149.79 E17.22847
G1 X149.335 Y150.272 E17.25181
G1 X149.252 Y150.348 E17.25555
G1 X148.807 Y150.743 E17.27535
G1 X148.697 Y150.837 E17.28016
G1 X148.114 Y151.314 E17.30521
G1 X147.979 Y151.419 E17.3109
G1 X147.374 Y151.868 E17.33596
G1 X147.245 Y151.959 E17.34121
G1 X146.751 Y152.293 E17.36104
G1 X146.591 Y152.396 E17.36737
G1 X145.345 Y153.144 E17.41571
G1 X144.901 Y153.387 E17.43254
G1 X144.17 Y153.749 E17.45967
G1 X144.029 Y153.815 E17.46485
G1 X143.471 Y154.062 E17.48515
G1 X143.306 Y154.13 E17.49108
G1 X142.06 Y154.609 E17.53548
G1 X141.58 Y154.777 E17.5524
G1 X141.424 Y154.827 E17.55785
G1 X140.479 Y155.105 E17.59061
G1 X140.317 Y155.148 E17.59618
G1 X139.454 Y155.358 E17.62572
G1 X139.139 Y155.427 E17.63645
G1 X138.192 Y155.611 E17.66854
G1 X137.967 Y155.647 E17.67611
G1 X136.975 Y155.792 E17.70946
G1 X136.77 Y155.817 E17.71633
G1 X135.873 Y155.908 E17.74632
G1 X135.496 Y155.937 E17.75889
G1 X134.476 Y155.995 E17.79287
G1 X134.114 Y156.006 E17.80492
G1 X132.388 Y156.013 E17.86232
G1 X132.034 Y156.004 E17.8741
G1 X131.166 Y155.962 E17.90301
G1 X130.212 Y155.889 E17.93483
G1 X130.103 Y155.879 E17.93847
G1 X129.12 Y155.771 E17.97136
G1 X128.335 Y155.66 E17.99773
G1 X128.221 Y155.642 E18.00157
G1 X127.561 Y155.527 E18.02385
G1 X127.446 Y155.505 E18.02775
G1 X125.86 Y155.174 E18.08163
G1 X124.479 Y154.854 E18.12878
G1 X121.751 Y154.303 E18.22135
G1 X119.135 Y153.855 E18.30962
G1 X116.417 Y153.467 E18.40094
G1 X113.699 Y153.156 E18.49193
G1 X110.974 Y152.922 E18.5829
G1 X108.253 Y152.767 E18.67355
G1 X105.556 Y152.689 E18.76329
G1 X102.825 Y152.687 E18.85412
G1 X100.064 Y152.763 E18.94599
G1 X97.369 Y152.915 E19.03576
G1 X94.643 Y153.145 E19.12675
G1 X91.93 Y153.451 E19.21756
G1 X91.263 Y153.541 E19.23995
G1 X90.695 Y153.593 E19.25892
G1 X90.274 Y153.603 E19.27292
G1 X67.476 Y153.603 E20.03119
G1 X66.778 Y153.594 E20.05441
G1 X66.243 Y153.547 E20.07227
G1 X65.722 Y153.421 E20.0901
G1 X65.225 Y153.219 E20.10794
G1 X64.764 Y152.946 E20.12576
G1 X64.348 Y152.607 E20.14361
G1 X63.987 Y152.211 E20.16143
G1 X63.689 Y151.765 E20.17927
G1 X63.461 Y151.279 E20.19713
G1 X63.308 Y150.765 E20.21496
G1 X63.225 Y150.091 E20.23755
G1 X63.215 Y149.661 E20.25186
G1 X63.215 Y136.108 E20.70263
G1 X63.226 Y135.399 E20.72621
G1 X63.275 Y134.865 E20.74405
G1 X63.486 Y134.112 E20.77006
G1 X63.892 Y133.102 E20.80626
G1 X64.137 Y132.515 E20.82742
G1 X65.125 Y129.954 E20.91872
G1 X66.03 Y127.396 E21.00897
G1 X66.865 Y124.8 E21.09967
G1 X67.62 Y122.207 E21.18949
G1 X68.314 Y119.543 E21.28105
G1 X68.935 Y116.854 E21.37284
G1 X69.463 Y114.217 E21.46229
G1 X69.923 Y111.537 E21.55273
G1 X70.31 Y108.827 E21.64378
G1 X70.618 Y106.121 E21.73436
G1 X70.851 Y103.395 E21.82536
G1 X71.005 Y100.703 E21.91504
G1 X71.085 Y97.906 E22.00811
G1 X71.094 Y96.536 E22.05368
G1 X71.094 Y68.186 E22.9966
G1 X71.105 Y67.521 E23.01872
G1 X71.154 Y66.987 E23.03656
G1 X71.282 Y66.467 E23.05437
G1 X71.485 Y65.97 E23.07223
G1 X71.76 Y65.51 E23.09005
G1 X72.101 Y65.095 E23.10792
G0 F3000 X72.156 Y65.647
G1 F1200 X72.492 Y65.269 E23.12474
G1 X72.884 Y64.95 E23.14155
G1 X73.321 Y64.696 E23.15836
G1 X73.793 Y64.514 E23.17519
G1 X74.287 Y64.408 E23.19199
G1 X74.934 Y64.373 E23.21354
G1 X89.943 Y64.372 E23.71274
G1 X90.641 Y64.382 E23.73596
G1 X91.064 Y64.407 E23.75005
G1 X93.563 Y64.618 E23.83347
G1 X96.278 Y64.77 E23.92391
G1 X99.032 Y64.847 E24.01554
G1 X101.748 Y64.845 E24.10588
G1 X104.504 Y64.765 E24.19758
G1 X107.24 Y64.609 E24.28873
G1 X108.84 Y64.481 E24.34212
G1 X109.83 Y64.394 E24.37517
G1 X110.386 Y64.373 E24.39368
G1 X150.403 Y64.372 E25.72465
G1 X151.101 Y64.382 E25.74786
G1 X151.604 Y64.429 E25.76467
G1 X152.094 Y64.555 E25.78149
G1 X152.558 Y64.757 E25.79833
G1 X152.984 Y65.029 E25.81514
G1 X153.362 Y65.364 E25.83194
G1 X153.682 Y65.755 E25.84874
G1 X153.937 Y66.192 E25.86557
G1 X154.12 Y66.663 E25.88238
G1 X154.227 Y67.157 E25.89919
G1 X154.263 Y67.812 E25.92101
G1 X154.264 Y81.462 E26.37501
G1 X154.253 Y82.172 E26.39862
G1 X154.156 Y82.988 E26.42596
G1 X153.815 Y84.985 E26.49334
G1 X153.43 Y87.687 E26.58411
G1 X153.119 Y90.422 E26.67567
G1 X152.887 Y93.165 E26.76722
G1 X152.733 Y95.881 E26.8577
G1 X152.655 Y98.633 E26.94927
G1 X152.655 Y101.351 E27.03967
G1 X152.733 Y104.103 E27.13124
G1 X152.889 Y106.852 E27.22282
G1 X153.115 Y109.514 E27.31168
G1 X153.431 Y112.295 E27.40477
G1 X153.814 Y114.985 E27.49514
G1 X154.28 Y117.701 E27.5868
G1 X154.813 Y120.355 E27.67683
G1 X155.131 Y121.741 E27.72413
G1 X155.315 Y122.574 E27.7525
G1 X155.646 Y124.172 E27.80678
G1 X155.668 Y124.287 E27.81067
G1 X155.92 Y125.775 E27.86087
G1 X155.939 Y125.898 E27.86501
G1 X156.135 Y127.412 E27.91579
G1 X156.148 Y127.54 E27.92006
G1 X156.303 Y129.283 E27.97827
G1 X156.311 Y129.396 E27.98203
G1 X156.356 Y130.249 E28.01044
G1 X156.366 Y130.654 E28.02392
G1 X156.371 Y132.209 E28.07564
G1 X156.352 Y132.89 E28.0983
G1 X156.293 Y133.941 E28.13331
G1 X156.198 Y135.017 E28.16924
G1 X156.185 Y135.139 E28.17332
G1 X156.054 Y136.171 E28.20792
G1 X156.036 Y136.294 E28.21205
G1 X155.871 Y137.285 E28.24547
G1 X155.848 Y137.407 E28.24959
G1 X155.65 Y138.365 E28.28213
G1 X155.62 Y138.494 E28.28654
G1 X155.338 Y139.62 E28.32514
G1 X155.309 Y139.727 E28.32883
G1 X155.154 Y140.266 E28.34748
G1 X155.112 Y140.402 E28.35222
G1 X154.818 Y141.276 E28.38289
G1 X154.769 Y141.413 E28.38773
G1 X154.441 Y142.259 E28.41791
G1 X154.384 Y142.395 E28.42281
G1 X154.028 Y143.201 E28.45212
G1 X153.967 Y143.331 E28.45689
G1 X153.604 Y144.062 E28.48404
G1 X153.463 Y144.329 E28.49408
G1 X153.087 Y145.003 E28.51975
G1 X152.926 Y145.272 E28.53018
G1 X152.531 Y145.901 E28.55488
G1 X152.383 Y146.125 E28.56381
G1 X151.918 Y146.79 E28.5908
G1 X151.831 Y146.909 E28.5957
G1 X151.299 Y147.598 E28.62466
G1 X151.136 Y147.799 E28.63326
G1 X150.615 Y148.407 E28.6599
G1 X150.446 Y148.592 E28.66823
G1 X149.864 Y149.208 E28.69642
G1 X149.57 Y149.5 E28.7102
G1 X149.06 Y149.982 E28.73354
