;FLAVOR:Marlin
;TIME:4656
;Filament used: 2.05335m
;Layer height: 0.2
;MINX:83.376
;MINY:63.582
;MINZ:0.2
;MAXX:136.621
;MAXY:156.417
;MAXZ:3.2
;Generated with Cura_SteamEngine master
M82 ;absolute extrusion mode
;Sliced at: Sat 25-02-2023 21:21:29
;Basic settings: Layer height: 0.2 Walls: 0.8 Fill: 30.0
G21 ;metric values
G90 ;absolute positioning
M82 ;set extruder to absolute mode
M107 ;start with the fan off
M117 Start heating ...
M104 S200
M117 Homing X/Y ...
G28 X0 Y0 ;move X/Y to min endstops
M117 Homing Z ...
G28 Z0 ;move Z to min endstops
G1 Z15.0 F100 ;move the platform down 15mm
M117 Heating ...
M109 S200
M117 Start cleaning ...
G92 E0 ;zero the extruded length
G1 F200 E10 ;extrude 10mm of feed stock
G92 E0 ;zero the extruded length again
M117 Intro line ...
G1 Z2.0 F3000 ; Move Z Axis up little to prevent scratching of Heat Bed
G1 X0.1 Y20 Z0.2 F5000.0 ; Move to start position
G1 X0.1 Y200.0 Z0.2 F1500.0 E15 ; Draw the first line
G1 X0.4 Y200.0 Z0.2 F5000.0 ; Move to side a little
G1 X0.4 Y20 Z0.3 F1500.0 E30 ; Draw the second line
G92 E0 ; Reset Extruder
G1 E-1 F500 ; Retract filiment by 1 mm
G1 Z2.0 F3000 ; Move Z Axis up little to prevent scratching of Heat Bed
G1 X5 Y20 Z0.3 F100 ; Move over to prevent blob squish
G1 F100
G92 E0 ; Reset Extruder
M117 Printing...

G92 E0
G92 E0
G1 F1800 E-7
;LAYER_COUNT:15
;LAYER:0
M107
G1 F300 Z0.4
G0 F3000 X88.791 Y71.97 Z0.4
;TYPE:SKIRT
G1 F300 Z0.2
G1 F1800 E0
G1 F1200 X89.186 Y71.492 E0.02062
G1 X89.282 Y71.38 E0.02553
G1 X89.623 Y70.997 E0.04259
G1 X89.729 Y70.882 E0.04779
G1 X90.279 Y70.311 E0.07416
G1 X90.392 Y70.199 E0.07945
G1 X90.901 Y69.711 E0.1029
G1 X91.018 Y69.603 E0.1082
G1 X91.506 Y69.171 E0.12987
G1 X91.626 Y69.068 E0.13513
G1 X92.364 Y68.465 E0.16683
G1 X92.885 Y68.071 E0.18856
G1 X93.353 Y67.746 E0.20751
G1 X93.513 Y67.64 E0.21389
G1 X94.587 Y66.968 E0.25603
G1 X95.086 Y66.678 E0.27523
G1 X95.247 Y66.589 E0.28134
G1 X95.973 Y66.215 E0.30851
G1 X96.26 Y66.078 E0.31908
G1 X97.029 Y65.73 E0.34716
G1 X97.188 Y65.662 E0.35291
G1 X97.943 Y65.359 E0.37997
G1 X98.27 Y65.238 E0.39157
G1 X98.976 Y64.994 E0.41641
G1 X99.178 Y64.931 E0.42345
G1 X100.598 Y64.523 E0.47259
G1 X100.742 Y64.484 E0.47755
G1 X101.328 Y64.339 E0.49763
G1 X101.492 Y64.302 E0.50322
G1 X102.402 Y64.117 E0.53411
G1 X102.868 Y64.035 E0.54984
G1 X103.932 Y63.872 E0.58564
G1 X104.335 Y63.823 E0.59915
G1 X105.37 Y63.715 E0.63376
G1 X105.968 Y63.669 E0.65371
G1 X106.829 Y63.618 E0.68239
G1 X107.599 Y63.594 E0.70802
G1 X109.067 Y63.582 E0.75684
G1 X109.723 Y63.594 E0.77867
G1 X110.687 Y63.636 E0.81076
G1 X111.929 Y63.726 E0.85218
G1 X112.064 Y63.738 E0.85669
G1 X113.176 Y63.858 E0.89389
G1 X113.315 Y63.876 E0.89855
G1 X114.347 Y64.024 E0.93322
G1 X114.493 Y64.047 E0.93814
G1 X115.535 Y64.236 E0.97336
G1 X115.684 Y64.266 E0.97842
G1 X116.666 Y64.483 E1.01187
G1 X116.823 Y64.521 E1.01724
G1 X118.044 Y64.843 E1.05924
G1 X118.595 Y65.005 E1.07834
G1 X118.795 Y65.071 E1.08534
G1 X120.304 Y65.608 E1.13862
G1 X120.434 Y65.656 E1.14323
G1 X120.907 Y65.843 E1.16014
G1 X121.071 Y65.912 E1.16606
G1 X121.991 Y66.324 E1.19959
G1 X122.149 Y66.399 E1.20541
G1 X122.933 Y66.792 E1.23457
G1 X123.091 Y66.876 E1.24053
G1 X123.916 Y67.337 E1.27196
G1 X124.07 Y67.428 E1.27791
G1 X124.886 Y67.933 E1.30983
G1 X125.045 Y68.036 E1.31613
G1 X125.801 Y68.555 E1.34663
G1 X126.025 Y68.718 E1.35584
G1 X126.747 Y69.266 E1.38599
G1 X126.889 Y69.378 E1.392
G1 X127.481 Y69.871 E1.41763
G1 X127.644 Y70.015 E1.42486
G1 X128.761 Y71.053 E1.47558
G1 X129.132 Y71.421 E1.49296
G1 X129.282 Y71.578 E1.50018
G1 X130.292 Y72.704 E1.55049
G1 X130.394 Y72.823 E1.5557
G1 X130.728 Y73.226 E1.57311
G1 X130.837 Y73.364 E1.57896
G1 X131.432 Y74.151 E1.61177
G1 X131.553 Y74.321 E1.61871
G1 X132.056 Y75.055 E1.64831
G1 X132.153 Y75.205 E1.65425
G1 X132.67 Y76.037 E1.68683
G1 X132.759 Y76.186 E1.6926
G1 X133.135 Y76.854 E1.7181
G1 X133.239 Y77.053 E1.72557
G1 X133.929 Y78.458 E1.77763
G1 X134.148 Y78.94 E1.79524
G1 X134.225 Y79.124 E1.80187
G1 X134.79 Y80.577 E1.85372
G1 X134.837 Y80.704 E1.85823
G1 X135.04 Y81.286 E1.87873
G1 X135.088 Y81.439 E1.88406
G1 X135.408 Y82.508 E1.92118
G1 X135.508 Y82.883 E1.93408
G1 X135.757 Y83.887 E1.96849
G1 X135.863 Y84.369 E1.9849
G1 X136.04 Y85.258 E2.01505
G1 X136.131 Y85.787 E2.03291
G1 X136.277 Y86.743 E2.06507
G1 X136.294 Y86.865 E2.06917
G1 X136.37 Y87.498 E2.09037
G1 X136.465 Y88.405 E2.1207
G1 X136.476 Y88.53 E2.12488
G1 X136.539 Y89.388 E2.15349
G1 X136.589 Y90.269 E2.18284
G1 X136.614 Y91.158 E2.21242
G1 X136.621 Y92.664 E2.26251
G1 X136.598 Y93.554 E2.29212
G1 X136.593 Y93.676 E2.29618
G1 X136.54 Y94.587 E2.32654
G1 X136.53 Y94.719 E2.33094
G1 X136.414 Y95.989 E2.37335
G1 X136.399 Y96.131 E2.3781
G1 X136.29 Y96.985 E2.40674
G1 X136.272 Y97.109 E2.41091
G1 X136.157 Y97.823 E2.43496
G1 X136.028 Y98.498 E2.45782
G1 X135.457 Y101.263 E2.55172
G1 X134.982 Y103.956 E2.64267
G1 X134.585 Y106.641 E2.73295
G1 X134.265 Y109.329 E2.82298
G1 X134.017 Y112.066 E2.91439
G1 X133.852 Y114.73 E3.00316
G1 X133.76 Y117.473 E3.09445
G1 X133.745 Y120.181 E3.18452
G1 X133.808 Y122.89 E3.27464
G1 X133.996 Y126.333 E3.38933
G1 X134.056 Y127.388 E3.42447
G1 X134.076 Y128.136 E3.44936
G1 X134.086 Y129.715 E3.50188
G1 X134.07 Y130.551 E3.52969
G1 X134.018 Y131.744 E3.56941
G1 X133.906 Y133.299 E3.62126
G1 X133.894 Y133.433 E3.62574
G1 X133.765 Y134.644 E3.66624
G1 X133.748 Y134.782 E3.67087
G1 X133.567 Y136.058 E3.71373
G1 X133.544 Y136.202 E3.71858
G1 X133.331 Y137.39 E3.75872
G1 X133.303 Y137.533 E3.76357
G1 X133.059 Y138.656 E3.80179
G1 X133.025 Y138.801 E3.80675
G1 X132.787 Y139.729 E3.83861
G1 X132.583 Y140.438 E3.86315
G1 X132.552 Y140.542 E3.86676
G1 X132.326 Y141.25 E3.89148
G1 X132.028 Y142.093 E3.92122
G1 X131.983 Y142.214 E3.92551
G1 X131.667 Y143.017 E3.95421
G1 X131.416 Y143.604 E3.97545
G1 X131.362 Y143.724 E3.97982
G1 X131.076 Y144.336 E4.00229
G1 X131.016 Y144.459 E4.00684
G1 X130.639 Y145.199 E4.03446
G1 X130.567 Y145.333 E4.03952
G1 X130.271 Y145.863 E4.05971
G1 X130.204 Y145.979 E4.06417
G1 X129.9 Y146.483 E4.08375
G1 X129.826 Y146.601 E4.08838
G1 X129.386 Y147.276 E4.11518
G1 X129.302 Y147.4 E4.12016
G1 X128.96 Y147.884 E4.13987
G1 X128.869 Y148.008 E4.14499
G1 X128.369 Y148.661 E4.17234
G1 X127.971 Y149.151 E4.19334
G1 X127.823 Y149.323 E4.20088
G1 X127.217 Y149.986 E4.23076
G1 X127.12 Y150.089 E4.23547
G1 X126.748 Y150.468 E4.25313
G1 X126.629 Y150.584 E4.25866
G1 X126.115 Y151.066 E4.28209
G1 X125.971 Y151.194 E4.2885
G1 X125.421 Y151.662 E4.31252
G1 X125.284 Y151.774 E4.31841
G1 X124.655 Y152.261 E4.34486
G1 X124.505 Y152.371 E4.35105
G1 X123.917 Y152.783 E4.37493
G1 X123.758 Y152.889 E4.38129
G1 X123.15 Y153.273 E4.4052
G1 X122.991 Y153.368 E4.41136
G1 X122.37 Y153.721 E4.43512
G1 X122.211 Y153.807 E4.44113
G1 X121.523 Y154.158 E4.46682
G1 X121.345 Y154.243 E4.47338
G1 X120.671 Y154.546 E4.49796
G1 X120.513 Y154.613 E4.50367
G1 X119.801 Y154.897 E4.52917
G1 X119.636 Y154.959 E4.53503
G1 X118.948 Y155.199 E4.55926
G1 X118.781 Y155.253 E4.5651
G1 X117.975 Y155.495 E4.59309
G1 X117.799 Y155.544 E4.59917
G1 X116.918 Y155.764 E4.62937
G1 X116.712 Y155.809 E4.63638
G1 X115.772 Y155.997 E4.66827
G1 X115.539 Y156.037 E4.67613
G1 X114.527 Y156.189 E4.71017
G1 X114.366 Y156.208 E4.71556
G1 X113.345 Y156.314 E4.7497
G1 X113.04 Y156.338 E4.75988
G1 X112.083 Y156.394 E4.79176
G1 X111.649 Y156.407 E4.8062
G1 X110.153 Y156.417 E4.85596
G1 X109.786 Y156.41 E4.86817
G1 X108.822 Y156.368 E4.90026
G1 X107.45 Y156.265 E4.94602
G1 X107.314 Y156.252 E4.95057
G1 X106.287 Y156.138 E4.98494
G1 X105.573 Y156.036 E5.00892
G1 X104.727 Y155.891 E5.03747
G1 X104.072 Y155.76 E5.05969
G1 X103.953 Y155.734 E5.06374
G1 X103.157 Y155.548 E5.09093
G1 X103.024 Y155.515 E5.09549
G1 X102.276 Y155.313 E5.12126
G1 X101.715 Y155.143 E5.14075
G1 X101.59 Y155.102 E5.14513
G1 X100.699 Y154.796 E5.17646
G1 X100.571 Y154.75 E5.18099
G1 X100.071 Y154.559 E5.19879
G1 X99.936 Y154.504 E5.20364
G1 X99.349 Y154.255 E5.22484
G1 X99.213 Y154.195 E5.22979
G1 X98.492 Y153.857 E5.25627
G1 X98.353 Y153.788 E5.26143
G1 X97.883 Y153.545 E5.27903
G1 X97.752 Y153.475 E5.28397
G1 X97.152 Y153.136 E5.30689
G1 X97.023 Y153.059 E5.31189
G1 X96.44 Y152.7 E5.33466
G1 X96.309 Y152.616 E5.33984
G1 X95.823 Y152.29 E5.3593
G1 X95.689 Y152.196 E5.36475
G1 X95.119 Y151.779 E5.38824
G1 X94.994 Y151.684 E5.39346
G1 X94.553 Y151.334 E5.41218
G1 X94.433 Y151.235 E5.41736
G1 X93.893 Y150.771 E5.44104
G1 X93.784 Y150.673 E5.44591
G1 X93.397 Y150.315 E5.46345
G1 X93.273 Y150.196 E5.46916
G1 X92.656 Y149.574 E5.4983
G1 X92.259 Y149.149 E5.51765
G1 X91.975 Y148.82 E5.5321
G1 X91.417 Y148.135 E5.56149
G1 X91.328 Y148.023 E5.56625
G1 X90.995 Y147.583 E5.5846
G1 X90.887 Y147.433 E5.59075
G1 X90.434 Y146.773 E5.61737
G1 X90.337 Y146.625 E5.62326
G1 X89.892 Y145.911 E5.65124
G1 X89.795 Y145.745 E5.65764
G1 X89.398 Y145.034 E5.68472
G1 X89.311 Y144.871 E5.69087
G1 X88.98 Y144.208 E5.71551
G1 X88.895 Y144.026 E5.72219
G1 X88.348 Y142.777 E5.76754
G1 X88.295 Y142.65 E5.77212
G1 X88.103 Y142.167 E5.78941
G1 X88.04 Y141.998 E5.79541
G1 X87.685 Y140.97 E5.83158
G1 X87.626 Y140.781 E5.83817
G1 X87.318 Y139.735 E5.87443
G1 X87.27 Y139.552 E5.88073
G1 X86.995 Y138.432 E5.91908
G1 X86.957 Y138.26 E5.92494
G1 X86.743 Y137.186 E5.96137
G1 X86.664 Y136.72 E5.97709
G1 X86.498 Y135.631 E6.01372
G1 X86.418 Y134.984 E6.03541
G1 X86.311 Y133.977 E6.06909
G1 X86.287 Y133.69 E6.07867
G1 X86.241 Y133.04 E6.10034
G1 X86.182 Y132.023 E6.13422
G1 X86.17 Y131.661 E6.14627
G1 X86.143 Y130.52 E6.18423
G1 X86.131 Y129.439 E6.22019
G1 X86.131 Y128.83 E6.24044
G1 X86.142 Y128.112 E6.26433
G1 X86.162 Y127.778 E6.27546
G1 X86.274 Y126.647 E6.31326
G1 X86.507 Y123.889 E6.40531
G1 X86.661 Y121.146 E6.49669
G1 X86.736 Y118.474 E6.5856
G1 X86.736 Y115.729 E6.6769
G1 X86.659 Y113.059 E6.76574
G1 X86.501 Y110.285 E6.85815
G1 X86.273 Y107.619 E6.94715
G1 X85.967 Y104.933 E7.03706
G1 X85.577 Y102.202 E7.12882
G1 X85.128 Y99.579 E7.21733
G1 X84.587 Y96.887 E7.30865
G1 X83.964 Y94.188 E7.40078
G1 X83.633 Y92.88 E7.44566
G1 X83.513 Y92.2 E7.46862
G1 X83.482 Y91.899 E7.47869
G1 X83.407 Y90.769 E7.51635
G1 X83.4 Y90.635 E7.52082
G1 X83.38 Y89.978 E7.54268
G1 X83.376 Y88.953 E7.57677
G1 X83.388 Y88.42 E7.5945
G1 X83.435 Y87.389 E7.62883
G1 X83.443 Y87.261 E7.6331
G1 X83.549 Y85.898 E7.67857
G1 X83.564 Y85.745 E7.68368
G1 X83.719 Y84.414 E7.72825
G1 X83.736 Y84.287 E7.73251
G1 X83.84 Y83.59 E7.75595
G1 X83.86 Y83.468 E7.76006
G1 X84.002 Y82.683 E7.78659
G1 X84.177 Y81.844 E7.8151
G1 X84.203 Y81.728 E7.81905
G1 X84.398 Y80.926 E7.8465
G1 X84.595 Y80.205 E7.87136
G1 X84.844 Y79.391 E7.89968
G1 X84.884 Y79.267 E7.90401
G1 X85.104 Y78.626 E7.92655
G1 X85.147 Y78.506 E7.93079
G1 X85.408 Y77.818 E7.95526
G1 X85.462 Y77.683 E7.9601
G1 X85.76 Y76.976 E7.98562
G1 X85.816 Y76.849 E7.99024
G1 X86.029 Y76.389 E8.0071
G1 X86.089 Y76.265 E8.01168
G1 X86.492 Y75.468 E8.04138
G1 X86.558 Y75.343 E8.04608
G1 X86.834 Y74.842 E8.06511
G1 X86.909 Y74.713 E8.07007
G1 X87.232 Y74.175 E8.09094
G1 X87.305 Y74.057 E8.09556
G1 X87.691 Y73.462 E8.11915
G1 X87.782 Y73.329 E8.12451
G1 X88.157 Y72.799 E8.1461
G1 X88.245 Y72.679 E8.15105
G1 X88.697 Y72.088 E8.1758
G1 X88.791 Y71.97 E8.18081
G0 F3000 X89.099 Y72.225
G1 F1200 X89.494 Y71.747 E8.20144
G1 X89.58 Y71.646 E8.20585
G1 X89.921 Y71.263 E8.22291
G1 X90.017 Y71.16 E8.22759
G1 X90.567 Y70.589 E8.25396
G1 X90.669 Y70.487 E8.25876
G1 X91.178 Y69.999 E8.28221
G1 X91.283 Y69.902 E8.28696
G1 X91.771 Y69.47 E8.30864
G1 X91.879 Y69.378 E8.31336
G1 X92.617 Y68.775 E8.34506
G1 X93.114 Y68.399 E8.36579
G1 X93.582 Y68.074 E8.38474
G1 X93.725 Y67.979 E8.39045
G1 X94.799 Y67.307 E8.43258
G1 X95.286 Y67.024 E8.45132
G1 X95.431 Y66.945 E8.45681
G1 X96.148 Y66.575 E8.48365
G1 X96.425 Y66.442 E8.49387
G1 X97.194 Y66.094 E8.52194
G1 X97.337 Y66.033 E8.52711
G1 X98.092 Y65.73 E8.55417
G1 X98.401 Y65.616 E8.56512
G1 X99.107 Y65.372 E8.58997
G1 X99.289 Y65.315 E8.59631
G1 X100.709 Y64.907 E8.64545
G1 X100.838 Y64.872 E8.6499
G1 X101.424 Y64.727 E8.66998
G1 X101.572 Y64.694 E8.67502
G1 X102.578 Y64.491 E8.70915
G1 X102.929 Y64.43 E8.721
G1 X103.981 Y64.269 E8.7564
G1 X104.377 Y64.221 E8.76967
G1 X105.402 Y64.114 E8.80394
G1 X105.992 Y64.068 E8.82363
G1 X106.853 Y64.017 E8.85231
G1 X107.69 Y63.992 E8.88016
G1 X109.07 Y63.982 E8.92606
G1 X109.715 Y63.994 E8.94752
G1 X110.669 Y64.036 E8.97928
G1 X111.899 Y64.125 E9.0203
G1 X112.021 Y64.136 E9.02437
G1 X113.258 Y64.271 E9.06576
G1 X114.29 Y64.419 E9.10044
G1 X114.421 Y64.441 E9.10485
G1 X115.463 Y64.63 E9.14008
G1 X115.598 Y64.657 E9.14466
G1 X116.58 Y64.874 E9.17811
G1 X116.721 Y64.908 E9.18293
G1 X117.942 Y65.23 E9.22493
G1 X118.481 Y65.389 E9.24362
G1 X118.661 Y65.447 E9.24991
G1 X120.17 Y65.984 E9.30318
G1 X120.287 Y66.028 E9.30734
G1 X120.76 Y66.215 E9.32426
G1 X120.907 Y66.277 E9.32956
G1 X121.827 Y66.689 E9.36309
G1 X121.969 Y66.757 E9.36833
G1 X122.753 Y67.15 E9.3975
G1 X122.896 Y67.225 E9.40287
G1 X123.721 Y67.686 E9.4343
G1 X123.859 Y67.768 E9.43964
G1 X124.675 Y68.273 E9.47156
G1 X124.819 Y68.366 E9.47726
G1 X125.657 Y68.943 E9.5111
G1 X125.783 Y69.036 E9.51631
G1 X126.505 Y69.584 E9.54645
G1 X126.633 Y69.686 E9.5519
G1 X127.225 Y70.179 E9.57752
G1 X127.372 Y70.308 E9.58403
G1 X128.489 Y71.346 E9.63474
G1 X128.85 Y71.703 E9.65163
G1 X128.984 Y71.845 E9.65812
G1 X129.994 Y72.971 E9.70843
G1 X130.086 Y73.078 E9.71312
G1 X130.42 Y73.481 E9.73053
G1 X130.518 Y73.605 E9.73579
G1 X131.107 Y74.385 E9.7683
G1 X131.223 Y74.547 E9.77493
G1 X131.726 Y75.281 E9.80452
G1 X131.814 Y75.416 E9.80988
G1 X132.331 Y76.248 E9.84246
G1 X132.41 Y76.382 E9.84763
G1 X132.786 Y77.05 E9.87313
G1 X132.88 Y77.229 E9.87985
G1 X133.57 Y78.634 E9.93192
G1 X133.783 Y79.103 E9.94905
G1 X133.852 Y79.269 E9.95503
G1 X134.417 Y80.722 E10.00688
G1 X134.459 Y80.836 E10.01092
G1 X134.659 Y81.409 E10.03111
G1 X134.705 Y81.554 E10.03617
G1 X135.022 Y82.613 E10.07293
G1 X135.12 Y82.98 E10.08557
G1 X135.367 Y83.974 E10.11963
G1 X135.471 Y84.447 E10.13574
G1 X135.666 Y85.434 E10.1692
G1 X135.736 Y85.848 E10.18317
G1 X135.882 Y86.804 E10.21533
G1 X135.897 Y86.913 E10.21899
G1 X135.972 Y87.54 E10.24
G1 X136.067 Y88.447 E10.27033
G1 X136.077 Y88.559 E10.27407
G1 X136.139 Y89.411 E10.30248
G1 X136.193 Y90.381 E10.33479
G1 X136.214 Y91.167 E10.36094
G1 X136.221 Y92.666 E10.4108
G1 X136.22 Y92.78 E10.41459
G1 X136.199 Y93.543 E10.43998
G1 X136.141 Y94.564 E10.47399
G1 X136.132 Y94.682 E10.47793
G1 X136.016 Y95.952 E10.52035
G1 X136.002 Y96.081 E10.52466
G1 X135.893 Y96.935 E10.5533
G1 X135.877 Y97.046 E10.55703
G1 X135.781 Y97.648 E10.5773
G1 X135.637 Y98.417 E10.60332
G1 X135.059 Y101.218 E10.69845
G1 X134.586 Y103.894 E10.78883
G1 X134.19 Y106.577 E10.87904
G1 X133.864 Y109.313 E10.97068
G1 X133.62 Y112.004 E11.06055
G1 X133.451 Y114.729 E11.15136
G1 X133.36 Y117.457 E11.24214
G1 X133.345 Y120.187 E11.33294
G1 X133.407 Y122.89 E11.42287
G1 X133.597 Y126.356 E11.53832
G1 X133.656 Y127.4 E11.5731
G1 X133.676 Y128.145 E11.59789
G1 X133.686 Y129.718 E11.65021
G1 X133.67 Y130.543 E11.67765
G1 X133.613 Y131.827 E11.7204
G1 X133.508 Y133.27 E11.76852
G1 X133.497 Y133.39 E11.77253
G1 X133.368 Y134.601 E11.81304
G1 X133.352 Y134.726 E11.81723
G1 X133.171 Y136.002 E11.86009
G1 X133.15 Y136.131 E11.86444
G1 X132.937 Y137.319 E11.90458
G1 X132.912 Y137.448 E11.90895
G1 X132.668 Y138.571 E11.94718
G1 X132.637 Y138.701 E11.95162
G1 X132.37 Y139.736 E11.98717
G1 X132.171 Y140.421 E12.0109
G1 X131.945 Y141.129 E12.03562
G1 X131.908 Y141.239 E12.03948
G1 X131.652 Y141.96 E12.06492
G1 X131.341 Y142.757 E12.09338
G1 X131.048 Y143.446 E12.11828
G1 X130.999 Y143.555 E12.12225
G1 X130.66 Y144.277 E12.14878
G1 X130.283 Y145.017 E12.17641
G1 X130.218 Y145.138 E12.18097
G1 X129.862 Y145.772 E12.20516
G1 X129.558 Y146.276 E12.22474
G1 X129.491 Y146.383 E12.22893
G1 X129.051 Y147.058 E12.25573
G1 X128.975 Y147.169 E12.26021
G1 X128.633 Y147.653 E12.27992
G1 X128.551 Y147.765 E12.28454
G1 X128.051 Y148.418 E12.31189
G1 X127.661 Y148.899 E12.33249
G1 X127.528 Y149.053 E12.33925
G1 X126.922 Y149.716 E12.36913
