;FLAVOR:Marlin
;TIME:10203
;Filament used: 4.52331m
;Layer height: 0.2
;MINX:54.921
;MINY:55.817
;MINZ:0.2
;MAXX:165.065
;MAXY:164.172
;MAXZ:3.2
;Generated with Cura_SteamEngine master
M82 ;absolute extrusion mode
;Sliced at: Sun 15-01-2023 14:22:01
;Basic settings: Layer height: 0.2 Walls: 0.8 Fill: 30.0
G21 ;metric values
G90 ;absolute positioning
M82 ;set extruder to absolute mode
M107 ;start with the fan off
M117 Start heating ...
M104 S200
M117 Homing X/Y ...
G28 X0 Y0 ;move X/Y to min endstops
M117 Homing Z ...
G28 Z0 ;move Z to min endstops
G1 Z15.0 F100 ;move the platform down 15mm
M117 Heating ...
M109 S200
M117 Start cleaning ...
G92 E0 ;zero the extruded length
G1 F200 E10 ;extrude 10mm of feed stock
G92 E0 ;zero the extruded length again
M117 Intro line ...
G1 Z2.0 F3000 ; Move Z Axis up little to prevent scratching of Heat Bed
G1 X0.1 Y20 Z0.2 F5000.0 ; Move to start position
G1 X0.1 Y200.0 Z0.2 F1500.0 E15 ; Draw the first line
G1 X0.4 Y200.0 Z0.2 F5000.0 ; Move to side a little
G1 X0.4 Y20 Z0.3 F1500.0 E30 ; Draw the second line
G92 E0 ; Reset Extruder
G1 E-1 F500 ; Retract filiment by 1 mm
G1 Z2.0 F3000 ; Move Z Axis up little to prevent scratching of Heat Bed
G1 X5 Y20 Z0.3 F100 ; Move over to prevent blob squish
G1 F100
G92 E0 ; Reset Extruder
M117 Printing...

G92 E0
G92 E0
G1 F1800 E-7
;LAYER_COUNT:15
;LAYER:0
M107
G1 F300 Z0.4
G0 F3000 X65.249 Y57.182 Z0.4
;TYPE:SKIRT
G1 F300 Z0.2
G1 F1800 E0
G1 F1200 X65.652 Y56.785 E0.01882
G1 X66.106 Y56.449 E0.0376
G1 X66.604 Y56.18 E0.05643
G1 X67.134 Y55.985 E0.07521
G1 X67.687 Y55.866 E0.09402
G1 X68.458 Y55.819 E0.11971
G1 X68.57 Y55.817 E0.12344
G1 X86.409 Y55.817 E0.71677
G1 X87.107 Y55.827 E0.73999
G1 X87.441 Y55.846 E0.75111
G1 X88.738 Y55.974 E0.79446
G1 X89.291 Y56.036 E0.81297
G1 X91.986 Y56.26 E0.90291
G1 X94.697 Y56.41 E0.99322
G1 X97.436 Y56.483 E1.08435
G1 X100.143 Y56.479 E1.17439
G1 X102.853 Y56.398 E1.26456
G1 X105.555 Y56.241 E1.35458
G1 X108.262 Y56.006 E1.44496
G1 X109.713 Y55.849 E1.4935
G1 X110.281 Y55.82 E1.51242
G1 X110.404 Y55.818 E1.51651
G1 X157.915 Y55.817 E3.09673
G1 X158.613 Y55.826 E3.11995
G1 X159.176 Y55.874 E3.13874
G1 X159.727 Y56 E3.15754
G1 X160.255 Y56.202 E3.17634
G1 X160.749 Y56.477 E3.19515
G1 X161.199 Y56.819 E3.21395
G1 X161.597 Y57.221 E3.23276
G1 X161.933 Y57.675 E3.25155
G1 X162.203 Y58.172 E3.27036
G1 X162.4 Y58.702 E3.28916
G1 X162.52 Y59.254 E3.30795
G1 X162.568 Y60.035 E3.33398
G1 X162.57 Y60.147 E3.3377
G1 X162.57 Y76.372 E3.87735
G1 X162.56 Y77.073 E3.90067
G1 X162.472 Y77.85 E3.92668
G1 X162.358 Y78.385 E3.94487
G1 X161.828 Y81.034 E4.03472
G1 X161.363 Y83.75 E4.12637
G1 X160.987 Y86.4 E4.21539
G1 X160.679 Y89.119 E4.30641
G1 X160.45 Y91.825 E4.39673
G1 X160.297 Y94.556 E4.48771
G1 X160.222 Y97.232 E4.57674
G1 X160.223 Y99.977 E4.66804
G1 X160.298 Y102.646 E4.75685
G1 X160.457 Y105.42 E4.84926
G1 X160.685 Y108.086 E4.93826
G1 X160.991 Y110.772 E5.02817
G1 X161.38 Y113.496 E5.11969
G1 X161.835 Y116.146 E5.20912
G1 X162.363 Y118.783 E5.29857
G1 X162.984 Y121.472 E5.39036
G1 X163.7 Y124.345 E5.48884
G1 X163.774 Y124.669 E5.49989
G1 X164.156 Y126.473 E5.56123
G1 X164.184 Y126.62 E5.5662
G1 X164.507 Y128.487 E5.62922
G1 X164.531 Y128.643 E5.63447
G1 X164.777 Y130.499 E5.69674
G1 X164.796 Y130.666 E5.70233
G1 X164.973 Y132.629 E5.76789
G1 X164.983 Y132.772 E5.77266
G1 X165.041 Y133.854 E5.80869
G1 X165.056 Y134.426 E5.82773
G1 X165.065 Y136.124 E5.8842
G1 X165.064 Y136.25 E5.88839
G1 X165.041 Y137.116 E5.91721
G1 X164.985 Y138.17 E5.95231
G1 X164.978 Y138.28 E5.95598
G1 X164.893 Y139.321 E5.99072
G1 X164.777 Y140.367 E6.02572
G1 X164.761 Y140.493 E6.02995
G1 X164.61 Y141.537 E6.06503
G1 X164.589 Y141.666 E6.06938
G1 X164.428 Y142.569 E6.09988
G1 X164.402 Y142.702 E6.10439
G1 X164.188 Y143.705 E6.1385
G1 X164.158 Y143.836 E6.14297
G1 X163.954 Y144.656 E6.17108
G1 X163.639 Y145.762 E6.20933
G1 X163.596 Y145.903 E6.21423
G1 X163.356 Y146.638 E6.23995
G1 X163.309 Y146.774 E6.24473
G1 X162.961 Y147.722 E6.27832
G1 X162.905 Y147.867 E6.28349
G1 X162.578 Y148.661 E6.31205
G1 X162.515 Y148.805 E6.31728
G1 X162.157 Y149.586 E6.34585
G1 X162.091 Y149.724 E6.35094
G1 X161.692 Y150.513 E6.38035
G1 X161.614 Y150.66 E6.38588
G1 X161.154 Y151.483 E6.41724
G1 X161.073 Y151.62 E6.42253
G1 X160.653 Y152.306 E6.44929
G1 X160.565 Y152.443 E6.4547
G1 X160.076 Y153.173 E6.48393
G1 X159.986 Y153.303 E6.48919
G1 X159.481 Y153.996 E6.51771
G1 X159.377 Y154.132 E6.5234
G1 X158.65 Y155.045 E6.56222
G1 X158.285 Y155.476 E6.581
G1 X158.137 Y155.64 E6.58835
G1 X157.093 Y156.735 E6.63867
G1 X156.642 Y157.18 E6.65974
G1 X156.518 Y157.297 E6.66541
G1 X155.847 Y157.901 E6.69544
G1 X155.713 Y158.017 E6.70134
G1 X155.013 Y158.593 E6.73149
G1 X154.869 Y158.706 E6.73757
G1 X154.112 Y159.273 E6.76903
G1 X153.965 Y159.378 E6.77504
G1 X153.232 Y159.877 E6.80453
G1 X153.08 Y159.975 E6.81055
G1 X152.272 Y160.473 E6.84212
G1 X152.116 Y160.564 E6.84812
G1 X151.317 Y161.008 E6.87853
G1 X151.152 Y161.095 E6.88473
G1 X150.328 Y161.504 E6.91533
G1 X150.174 Y161.576 E6.92098
G1 X149.33 Y161.951 E6.9517
G1 X149.168 Y162.019 E6.95754
G1 X148.386 Y162.326 E6.98548
G1 X148.191 Y162.397 E6.99239
G1 X146.82 Y162.855 E7.04046
G1 X146.697 Y162.894 E7.04476
G1 X146.055 Y163.084 E7.06702
G1 X145.034 Y163.341 E7.10204
G1 X144.478 Y163.464 E7.12098
G1 X143.512 Y163.656 E7.15374
G1 X143.121 Y163.724 E7.16694
G1 X142.117 Y163.876 E7.20071
G1 X141.623 Y163.936 E7.21726
G1 X140.638 Y164.038 E7.2502
G1 X140.087 Y164.081 E7.26858
G1 X139.037 Y164.142 E7.30356
G1 X138.352 Y164.161 E7.32636
G1 X136.821 Y164.172 E7.37728
G1 X136.699 Y164.171 E7.38134
G1 X135.97 Y164.152 E7.40559
G1 X134.975 Y164.102 E7.43873
G1 X133.875 Y164.017 E7.47542
G1 X133.744 Y164.005 E7.4798
G1 X132.765 Y163.897 E7.51256
G1 X132.641 Y163.881 E7.51672
G1 X131.657 Y163.741 E7.54977
G1 X131.523 Y163.72 E7.55428
G1 X130.641 Y163.564 E7.58408
G1 X130.51 Y163.538 E7.58852
G1 X129.555 Y163.336 E7.62098
G1 X129.41 Y163.303 E7.62593
G1 X127.233 Y162.757 E7.70058
G1 X124.586 Y162.133 E7.79103
G1 X121.93 Y161.584 E7.88124
G1 X119.244 Y161.113 E7.97194
G1 X116.575 Y160.719 E8.06167
G1 X113.882 Y160.398 E8.15188
G1 X111.151 Y160.152 E8.24308
G1 X108.484 Y159.988 E8.33195
G1 X105.741 Y159.897 E8.42323
G1 X103.033 Y159.882 E8.5133
G1 X100.324 Y159.946 E8.60343
G1 X97.585 Y160.086 E8.69465
G1 X94.921 Y160.299 E8.78353
G1 X92.196 Y160.594 E8.8747
G1 X89.51 Y160.963 E8.96487
G1 X87.74 Y161.249 E9.02451
G1 X87.161 Y161.305 E9.04386
G1 X86.729 Y161.316 E9.05823
G1 X59.576 Y161.316 E9.96134
G1 X58.878 Y161.307 E9.98456
G1 X58.315 Y161.259 E10.00335
G1 X57.764 Y161.133 E10.02215
G1 X57.236 Y160.931 E10.04095
G1 X56.742 Y160.656 E10.05976
G1 X56.292 Y160.314 E10.07856
G1 X55.894 Y159.912 E10.09737
G1 X55.558 Y159.458 E10.11616
G1 X55.288 Y158.961 E10.13497
G1 X55.091 Y158.431 E10.15378
G1 X54.971 Y157.879 E10.17257
G1 X54.922 Y157.082 E10.19912
G1 X54.921 Y140.755 E10.74216
G1 X54.932 Y140.046 E10.76575
G1 X54.981 Y139.483 E10.78454
G1 X55.109 Y138.932 E10.80336
G1 X55.396 Y138.21 E10.8292
G1 X56.282 Y136.25 E10.90074
G1 X57.319 Y133.769 E10.99018
G1 X58.313 Y131.197 E11.08189
G1 X59.211 Y128.643 E11.17193
G1 X60.035 Y126.078 E11.26154
G1 X60.79 Y123.481 E11.35149
G1 X61.477 Y120.844 E11.44212
G1 X62.084 Y118.208 E11.53209
G1 X62.628 Y115.503 E11.62386
G1 X63.079 Y112.86 E11.71304
G1 X63.463 Y110.164 E11.80361
G1 X63.767 Y107.495 E11.89296
G1 X63.998 Y104.777 E11.98369
G1 X64.155 Y102.027 E12.0753
G1 X64.23 Y99.355 E12.16421
G1 X64.24 Y97.951 E12.21091
G1 X64.24 Y60.431 E13.45883
G1 X64.25 Y59.766 E13.48095
G1 X64.299 Y59.203 E13.49974
G1 X64.426 Y58.652 E13.51855
G1 X64.63 Y58.124 E13.53738
G1 X64.906 Y57.631 E13.55617
G1 X65.249 Y57.182 E13.57496
G0 F3000 X65.642 Y57.344
G1 F1200 X66.04 Y56.985 E13.59279
G1 X66.486 Y56.688 E13.61061
G1 X66.972 Y56.46 E13.62846
G1 X67.486 Y56.308 E13.64629
G1 X68.149 Y56.227 E13.66851
G1 X68.57 Y56.217 E13.68251
G1 X86.404 Y56.217 E14.27568
G1 X87.102 Y56.227 E14.29889
G1 X87.402 Y56.244 E14.30889
G1 X88.693 Y56.371 E14.35203
G1 X89.246 Y56.433 E14.37054
G1 X91.967 Y56.66 E14.46136
G1 X94.7 Y56.811 E14.5524
G1 X97.425 Y56.883 E14.64306
G1 X100.156 Y56.879 E14.73389
G1 X102.852 Y56.798 E14.8236
G1 X105.577 Y56.64 E14.91439
G1 X108.341 Y56.4 E15.00667
G1 X109.756 Y56.247 E15.054
G1 X110.293 Y56.22 E15.07189
G1 X110.404 Y56.218 E15.07558
G1 X157.909 Y56.217 E16.6556
G1 X158.607 Y56.226 E16.67882
G1 X159.142 Y56.273 E16.69668
G1 X159.663 Y56.399 E16.71451
G1 X160.16 Y56.601 E16.73235
G1 X160.621 Y56.874 E16.75017
G1 X161.037 Y57.213 E16.76802
G1 X161.398 Y57.609 E16.78585
G1 X161.696 Y58.055 E16.80369
G1 X161.924 Y58.541 E16.82154
G1 X162.077 Y59.055 E16.83938
G1 X162.16 Y59.725 E16.86183
G1 X162.17 Y60.147 E16.87587
G1 X162.17 Y76.366 E17.41532
G1 X162.16 Y77.067 E17.43864
G1 X162.081 Y77.766 E17.46203
G1 X161.967 Y78.301 E17.48023
G1 X161.427 Y81 E17.57177
G1 X160.972 Y83.662 E17.6616
G1 X160.588 Y86.365 E17.7524
G1 X160.281 Y89.076 E17.84315
G1 X160.05 Y91.802 E17.93414
G1 X159.899 Y94.487 E18.02358
G1 X159.822 Y97.256 E18.11572
G1 X159.823 Y99.953 E18.20542
G1 X159.901 Y102.716 E18.29735
G1 X160.055 Y105.406 E18.38697
G1 X160.288 Y108.133 E18.478
G1 X160.596 Y110.838 E18.56855
G1 X160.982 Y113.543 E18.65943
G1 X161.443 Y116.227 E18.75001
G1 X161.975 Y118.88 E18.84
G1 X162.596 Y121.574 E18.93196
G1 X163.311 Y124.442 E19.03027
G1 X163.383 Y124.752 E19.04085
G1 X163.765 Y126.556 E19.10218
G1 X163.79 Y126.688 E19.10665
G1 X164.113 Y128.555 E19.16967
G1 X164.135 Y128.696 E19.17442
G1 X164.381 Y130.552 E19.23669
G1 X164.397 Y130.702 E19.2417
G1 X164.574 Y132.665 E19.30726
G1 X164.584 Y132.793 E19.31153
G1 X164.641 Y133.867 E19.3473
G1 X164.656 Y134.435 E19.3662
G1 X164.665 Y136.126 E19.42244
G1 X164.664 Y136.24 E19.42623
G1 X164.637 Y137.204 E19.45831
G1 X164.586 Y138.148 E19.48975
G1 X164.494 Y139.288 E19.52779
G1 X164.379 Y140.322 E19.5624
G1 X164.365 Y140.435 E19.56618
G1 X164.214 Y141.479 E19.60127
G1 X164.195 Y141.596 E19.60521
G1 X164.034 Y142.499 E19.63572
G1 X164.011 Y142.618 E19.63975
G1 X163.797 Y143.621 E19.67386
G1 X163.77 Y143.739 E19.67789
G1 X163.566 Y144.559 E19.70599
G1 X163.533 Y144.681 E19.71019
G1 X163.255 Y145.652 E19.74379
G1 X163.216 Y145.778 E19.74817
G1 X162.976 Y146.513 E19.77389
G1 X162.933 Y146.637 E19.77826
G1 X162.585 Y147.585 E19.81184
G1 X162.535 Y147.715 E19.81648
G1 X162.208 Y148.509 E19.84504
G1 X162.152 Y148.638 E19.84971
G1 X161.794 Y149.419 E19.87829
G1 X161.734 Y149.544 E19.8829
G1 X161.335 Y150.333 E19.91231
G1 X161.264 Y150.464 E19.91726
G1 X160.804 Y151.287 E19.94862
G1 X160.732 Y151.411 E19.95339
G1 X160.312 Y152.097 E19.98015
G1 X160.233 Y152.221 E19.98504
G1 X159.744 Y152.951 E20.01426
G1 X159.662 Y153.067 E20.01898
G1 X159.157 Y153.76 E20.0475
G1 X159.064 Y153.883 E20.05263
G1 X158.337 Y154.796 E20.09145
G1 X157.981 Y155.217 E20.10979
G1 X157.848 Y155.364 E20.11638
G1 X156.804 Y156.459 E20.1667
G1 X156.362 Y156.895 E20.18735
G1 X156.25 Y157 E20.19246
G1 X155.579 Y157.604 E20.22249
G1 X155.458 Y157.708 E20.22779
G1 X154.758 Y158.284 E20.25794
G1 X154.629 Y158.385 E20.26339
G1 X153.872 Y158.952 E20.29485
G1 X153.74 Y159.047 E20.30026
G1 X153.007 Y159.546 E20.32975
G1 X152.87 Y159.635 E20.33519
G1 X152.062 Y160.133 E20.36675
G1 X151.922 Y160.215 E20.37215
G1 X151.123 Y160.659 E20.40255
G1 X150.975 Y160.737 E20.40812
G1 X150.151 Y161.146 E20.43871
G1 X150.012 Y161.211 E20.44382
G1 X149.168 Y161.586 E20.47453
G1 X149.022 Y161.647 E20.4798
G1 X148.24 Y161.954 E20.50774
G1 X148.065 Y162.018 E20.51394
G1 X146.694 Y162.476 E20.56201
G1 X146.583 Y162.511 E20.56588
G1 X146.057 Y162.668 E20.58414
G1 X145.792 Y162.739 E20.59327
G1 X144.834 Y162.978 E20.62611
G1 X144.4 Y163.072 E20.64088
G1 X143.434 Y163.264 E20.67363
G1 X143.061 Y163.328 E20.68622
G1 X141.945 Y163.496 E20.72376
G1 X141.581 Y163.539 E20.73595
G1 X140.604 Y163.64 E20.76862
G1 X140.058 Y163.682 E20.78683
G1 X139.024 Y163.742 E20.82128
G1 X138.344 Y163.761 E20.84391
G1 X136.818 Y163.772 E20.89466
G1 X136.079 Y163.756 E20.91925
G1 X135.108 Y163.71 E20.95158
G1 X133.906 Y163.618 E20.99167
G1 X133.788 Y163.607 E20.99562
G1 X132.809 Y163.499 E21.02838
G1 X132.697 Y163.485 E21.03213
G1 X131.713 Y163.345 E21.06519
G1 X131.593 Y163.326 E21.06923
G1 X130.711 Y163.17 E21.09902
G1 X130.593 Y163.147 E21.10302
G1 X129.638 Y162.945 E21.13548
G1 X129.507 Y162.915 E21.13995
G1 X127.344 Y162.373 E21.21412
G1 X124.687 Y161.746 E21.30492
G1 X121.982 Y161.187 E21.39679
G1 X119.299 Y160.716 E21.48739
G1 X116.643 Y160.324 E21.57669
G1 X113.894 Y159.997 E21.66876
G1 X111.211 Y159.755 E21.75836
G1 X108.488 Y159.588 E21.8491
G1 X105.756 Y159.497 E21.94002
G1 X103.026 Y159.482 E22.03082
G1 X100.295 Y159.546 E22.12168
G1 X97.601 Y159.684 E22.2114
G1 X94.847 Y159.904 E22.30329
G1 X92.135 Y160.198 E22.39402
G1 X89.472 Y160.564 E22.48342
G1 X87.683 Y160.853 E22.54369
G1 X87.15 Y160.906 E22.56151
G1 X86.729 Y160.916 E22.57552
G1 X59.582 Y160.916 E23.47843
G1 X58.884 Y160.907 E23.50165
G1 X58.349 Y160.86 E23.51951
G1 X57.828 Y160.734 E23.53734
G1 X57.331 Y160.532 E23.55518
G1 X56.87 Y160.259 E23.573
G1 X56.454 Y159.92 E23.59085
G1 X56.093 Y159.524 E23.60867
G1 X55.795 Y159.078 E23.62651
G1 X55.567 Y158.592 E23.64437
G1 X55.414 Y158.078 E23.6622
G1 X55.331 Y157.404 E23.68479
G1 X55.321 Y156.974 E23.6991
G1 X55.321 Y140.761 E24.23834
G1 X55.332 Y140.052 E24.26193
G1 X55.381 Y139.518 E24.27976
G1 X55.508 Y138.997 E24.2976
G1 X55.763 Y138.371 E24.32008
G1 X56.648 Y136.41 E24.39164
G1 X57.695 Y133.907 E24.48188
G1 X58.683 Y131.348 E24.57311
G1 X59.585 Y128.785 E24.66349
G1 X60.414 Y126.207 E24.75355
G1 X61.178 Y123.579 E24.84458
G1 X61.866 Y120.937 E24.93538
G1 X62.482 Y118.264 E25.02662
G1 X63.014 Y115.617 E25.11642
G1 X63.476 Y112.912 E25.20769
G1 X63.859 Y110.225 E25.29796
G1 X64.168 Y107.507 E25.38895
G1 X64.398 Y104.798 E25.47937
G1 X64.552 Y102.097 E25.56935
G1 X64.631 Y99.3 E25.66242
G1 X64.64 Y97.954 E25.70719
G1 X64.64 Y60.437 E26.95501
G1 X64.65 Y59.772 E26.97713
G1 X64.698 Y59.238 E26.99496
G1 X64.825 Y58.717 E27.0128
G1 X65.028 Y58.22 E27.03065
G1 X65.302 Y57.759 E27.04849
G1 X65.642 Y57.344 E27.06634
G0 F3000 X65.698 Y57.895
G1 F1200 X66.034 Y57.518 E27.08313
G1 X66.425 Y57.197 E27.09996
G1 X66.862 Y56.943 E27.11677
G1 X67.333 Y56.76 E27.13358
G1 X67.828 Y56.654 E27.15041
G1 X68.48 Y56.618 E27.17213
G1 X86.398 Y56.617 E27.76809
G1 X87.096 Y56.627 E27.7913
G1 X87.363 Y56.642 E27.8002
G1 X88.649 Y56.769 E27.84318
G1 X89.204 Y56.831 E27.86175
G1 X91.947 Y57.06 E27.9533
G1 X94.667 Y57.21 E28.04391
G1 X97.416 Y57.283 E28.13537
G1 X100.133 Y57.279 E28.22574
G1 X102.887 Y57.196 E28.31738
G1 X105.636 Y57.037 E28.40897
G1 X108.37 Y56.8 E28.50024
G1 X109.799 Y56.645 E28.54805
G1 X110.306 Y56.62 E28.56493
G1 X110.404 Y56.618 E28.56819
G1 X157.904 Y56.617 E30.14805
G1 X158.602 Y56.626 E30.17126
G1 X159.106 Y56.673 E30.1881
G1 X159.596 Y56.798 E30.20492
G1 X160.06 Y56.999 E30.22174
G1 X160.486 Y57.27 E30.23853
G1 X160.865 Y57.605 E30.25536
G1 X161.186 Y57.996 E30.27218
G1 X161.441 Y58.432 E30.28898
G1 X161.625 Y58.903 E30.3058
G1 X161.732 Y59.397 E30.32261
G1 X161.769 Y60.057 E30.3446
G1 X161.77 Y76.361 E30.88687
G1 X161.76 Y77.062 E30.91019
G1 X161.69 Y77.683 E30.93097
G1 X161.576 Y78.218 E30.94917
G1 X161.036 Y80.92 E31.04081
G1 X160.575 Y83.61 E31.13159
G1 X160.193 Y86.3 E31.22195
G1 X159.883 Y89.034 E31.31347
G1 X159.651 Y91.779 E31.40509
G1 X159.499 Y94.491 E31.49544
G1 X159.422 Y97.245 E31.58707
G1 X159.423 Y99.965 E31.67754
G1 X159.501 Y102.715 E31.76904
G1 X159.657 Y105.462 E31.86055
G1 X159.89 Y108.176 E31.95115
G1 X160.196 Y110.868 E32.04127
G1 X160.587 Y113.601 E32.13309
G1 X161.049 Y116.295 E32.224
G1 X161.588 Y118.983 E32.31519
G1 X162.207 Y121.666 E32.40677
G1 X162.937 Y124.594 E32.50713
G1 X162.992 Y124.835 E32.51536
G1 X163.374 Y126.639 E32.57669
G1 X163.396 Y126.756 E32.58065
G1 X163.719 Y128.623 E32.64367
G1 X163.738 Y128.749 E32.64791
G1 X163.984 Y130.605 E32.71018
G1 X163.999 Y130.738 E32.71463
G1 X164.176 Y132.701 E32.78018
G1 X164.184 Y132.815 E32.78398
G1 X164.241 Y133.88 E32.81946
