;FLAVOR:Marlin
;TIME:2231
;Filament used: 1.00224m
;Layer height: 0.2
;MINX:99
;MINY:68.33
;MINZ:0.2
;MAXX:121
;MAXY:151.67
;MAXZ:3.2
;Generated with Cura_SteamEngine master
M82 ;absolute extrusion mode
;Sliced at: Sun 04-12-2022 01:27:48
;Basic settings: Layer height: 0.2 Walls: 0.8 Fill: 30.0
G21 ;metric values
G90 ;absolute positioning
M82 ;set extruder to absolute mode
M107 ;start with the fan off
M117 Start heating ...
M104 S200
M117 Homing X/Y ...
G28 X0 Y0 ;move X/Y to min endstops
M117 Homing Z ...
G28 Z0 ;move Z to min endstops
G1 Z15.0 F100 ;move the platform down 15mm
M117 Heating ...
M109 S200
M117 Start cleaning ...
G92 E0 ;zero the extruded length
G1 F200 E10 ;extrude 10mm of feed stock
G92 E0 ;zero the extruded length again
M117 Intro line ...
G1 Z2.0 F3000 ; Move Z Axis up little to prevent scratching of Heat Bed
G1 X0.1 Y20 Z0.2 F5000.0 ; Move to start position
G1 X0.1 Y200.0 Z0.2 F1500.0 E15 ; Draw the first line
G1 X0.4 Y200.0 Z0.2 F5000.0 ; Move to side a little
G1 X0.4 Y20 Z0.3 F1500.0 E30 ; Draw the second line
G92 E0 ; Reset Extruder
G1 E-1 F500 ; Retract filiment by 1 mm
G1 Z2.0 F3000 ; Move Z Axis up little to prevent scratching of Heat Bed
G1 X5 Y20 Z0.3 F100 ; Move over to prevent blob squish
G1 F100
G92 E0 ; Reset Extruder
M117 Printing...

G92 E0
G92 E0
G1 F1800 E-7
;LAYER_COUNT:15
;LAYER:0
M107
G1 F300 Z0.4
G0 F3000 X99.662 Y70.149 Z0.4
;TYPE:SKIRT
G1 F300 Z0.2
G1 F1800 E0
G1 F1200 X100.004 Y69.699 E0.0188
G1 X100.406 Y69.302 E0.03759
G1 X100.86 Y68.965 E0.0564
G1 X101.357 Y68.696 E0.07519
G1 X101.887 Y68.499 E0.094
G1 X102.44 Y68.38 E0.11281
G1 X103.218 Y68.332 E0.13874
G1 X103.33 Y68.33 E0.14246
G1 X116.35 Y68.33 E0.57551
G1 X117.048 Y68.34 E0.59873
G1 X117.612 Y68.388 E0.61756
G1 X118.162 Y68.515 E0.63633
G1 X118.69 Y68.719 E0.65516
G1 X119.184 Y68.994 E0.67396
G1 X119.633 Y69.337 E0.69275
G1 X120.03 Y69.739 E0.71155
G1 X120.367 Y70.194 E0.73038
G1 X120.635 Y70.691 E0.74916
G1 X120.831 Y71.221 E0.76795
G1 X120.951 Y71.774 E0.78677
G1 X120.998 Y72.548 E0.81256
G1 X121 Y72.66 E0.81629
G1 X121 Y146.984 E3.28832
G1 X120.991 Y147.711 E3.3125
G1 X120.944 Y148.274 E3.33129
G1 X120.818 Y148.825 E3.35009
G1 X120.616 Y149.353 E3.36889
G1 X120.341 Y149.847 E3.3877
G1 X119.999 Y150.297 E3.40649
G1 X119.597 Y150.695 E3.42531
G1 X119.144 Y151.032 E3.44409
G1 X118.647 Y151.302 E3.4629
G1 X118.117 Y151.499 E3.48171
G1 X117.565 Y151.62 E3.5005
G1 X116.782 Y151.668 E3.52659
G1 X116.67 Y151.67 E3.53032
G1 X103.655 Y151.67 E3.9632
G1 X102.957 Y151.661 E3.98642
G1 X102.394 Y151.613 E4.00521
G1 X101.843 Y151.487 E4.02401
G1 X101.315 Y151.285 E4.04281
G1 X100.821 Y151.01 E4.06162
G1 X100.371 Y150.668 E4.08042
G1 X99.973 Y150.266 E4.09923
G1 X99.637 Y149.812 E4.11802
G1 X99.367 Y149.315 E4.13683
G1 X99.17 Y148.785 E4.15564
G1 X99.05 Y148.233 E4.17442
G1 X99.001 Y147.436 E4.20098
G1 X99 Y72.95 E6.6784
G1 X99.009 Y72.285 E6.70052
G1 X99.057 Y71.722 E6.71931
G1 X99.183 Y71.171 E6.73811
G1 X99.386 Y70.643 E6.75692
G1 X99.662 Y70.149 E6.77575
G0 F3000 X100.058 Y70.277
G1 F1200 X100.397 Y69.861 E6.79359
G1 X100.794 Y69.501 E6.81142
G1 X101.241 Y69.203 E6.82929
G1 X101.726 Y68.975 E6.84711
G1 X102.24 Y68.822 E6.86495
G1 X102.908 Y68.74 E6.88733
G1 X103.33 Y68.73 E6.90137
G1 X116.345 Y68.73 E7.33425
G1 X117.043 Y68.74 E7.35747
G1 X117.577 Y68.788 E7.3753
G1 X118.098 Y68.914 E7.39313
G1 X118.595 Y69.117 E7.41099
G1 X119.056 Y69.391 E7.42883
G1 X119.471 Y69.73 E7.44665
G1 X119.831 Y70.128 E7.4645
G1 X120.128 Y70.574 E7.48232
G1 X120.356 Y71.06 E7.50017
G1 X120.508 Y71.574 E7.518
G1 X120.59 Y72.239 E7.54029
G1 X120.6 Y72.66 E7.55429
G1 X120.6 Y146.979 E10.02615
G1 X120.591 Y147.706 E10.05034
G1 X120.544 Y148.24 E10.06817
G1 X120.419 Y148.761 E10.08599
G1 X120.217 Y149.258 E10.10383
G1 X119.944 Y149.72 E10.12168
G1 X119.606 Y150.136 E10.13951
G1 X119.209 Y150.497 E10.15735
G1 X118.763 Y150.795 E10.17519
G1 X118.278 Y151.023 E10.19302
G1 X117.764 Y151.177 E10.21086
G1 X117.092 Y151.26 E10.23338
G1 X116.67 Y151.27 E10.24742
G1 X103.661 Y151.27 E10.68011
G1 X102.963 Y151.261 E10.70332
G1 X102.428 Y151.214 E10.72119
G1 X101.907 Y151.088 E10.73901
G1 X101.41 Y150.886 E10.75686
G1 X100.949 Y150.613 E10.77468
G1 X100.533 Y150.274 E10.79253
G1 X100.172 Y149.878 E10.81035
G1 X99.874 Y149.432 E10.82819
G1 X99.646 Y148.946 E10.84604
G1 X99.493 Y148.432 E10.86388
G1 X99.41 Y147.758 E10.88647
G1 X99.4 Y147.328 E10.90077
G1 X99.4 Y72.955 E13.37443
G1 X99.409 Y72.29 E13.39655
G1 X99.457 Y71.756 E13.41438
G1 X99.583 Y71.235 E13.43221
G1 X99.785 Y70.738 E13.45005
G1 X100.058 Y70.277 E13.46787
G0 F3000 X100.454 Y70.412
G1 F1200 X100.789 Y70.034 E13.48467
G1 X101.18 Y69.713 E13.5015
G1 X101.617 Y69.458 E13.51833
G1 X102.088 Y69.274 E13.53514
G1 X102.582 Y69.168 E13.55195
G1 X103.24 Y69.131 E13.57387
G1 X116.339 Y69.13 E14.00954
G1 X117.037 Y69.14 E14.03276
G1 X117.54 Y69.187 E14.04956
G1 X118.03 Y69.313 E14.06639
G1 X118.494 Y69.515 E14.08322
G1 X118.92 Y69.787 E14.10003
G1 X119.298 Y70.122 E14.11683
G1 X119.618 Y70.513 E14.13364
G1 X119.873 Y70.95 E14.15047
G1 X120.056 Y71.421 E14.16727
G1 X120.163 Y71.915 E14.18408
G1 X120.199 Y72.57 E14.2059
G1 X120.2 Y146.974 E16.68059
G1 X120.191 Y147.701 E16.70477
G1 X120.145 Y148.204 E16.72157
G1 X120.02 Y148.694 E16.73839
G1 X119.819 Y149.158 E16.75521
G1 X119.548 Y149.585 E16.77203
G1 X119.213 Y149.964 E16.78885
G1 X118.823 Y150.285 E16.80565
G1 X118.387 Y150.541 E16.82247
G1 X117.916 Y150.724 E16.83928
G1 X117.422 Y150.832 E16.8561
G1 X116.76 Y150.869 E16.87815
G1 X103.666 Y150.87 E17.31366
G1 X102.968 Y150.861 E17.33687
G1 X102.464 Y150.814 E17.35371
G1 X101.974 Y150.689 E17.37053
G1 X101.51 Y150.488 E17.38735
G1 X101.084 Y150.217 E17.40414
G1 X100.705 Y149.882 E17.42096
G1 X100.384 Y149.491 E17.43779
G1 X100.129 Y149.055 E17.45459
G1 X99.945 Y148.584 E17.47141
G1 X99.838 Y148.09 E17.48822
G1 X99.801 Y147.414 E17.51074
G1 X99.8 Y72.961 E19.98705
G1 X99.809 Y72.296 E20.00917
G1 X99.856 Y71.792 E20.02601
G1 X99.982 Y71.303 E20.04281
G1 X100.183 Y70.839 E20.05962
G1 X100.454 Y70.412 E20.07644
G1 F1800 E13.07644
G1 F300 Z0.4
;MESH:clock-I.stl
G0 F3000 X116.4 Y147.07 Z0.4
;TYPE:WALL-INNER
G1 F300 Z0.2
G1 F1800 E20.07644
G1 F1200 X103.6 Y147.07 E20.50217
G1 X103.6 Y72.93 E22.96808
G1 X116.4 Y72.93 E23.39381
G1 X116.4 Y147.07 E25.85972
G0 F3000 X116.8 Y147.47
;TYPE:WALL-OUTER
G1 F1200 X103.2 Y147.47 E26.31206
G1 X103.2 Y72.53 E28.80457
G1 X116.8 Y72.53 E29.25691
G1 X116.8 Y147.47 E31.74942
G0 F3000 X116.6 Y147.47
G0 X116.36 Y147.03
G0 X116.01 Y146.68
;TYPE:SKIN
G1 F1200 X103.99 Y146.68 E32.14921
G1 X103.99 Y73.32 E34.58917
G1 X116.01 Y73.32 E34.98896
G1 X116.01 Y146.68 E37.42892
G0 F3000 X116.29 Y146.68
G0 X104.638 Y146.96
G0 X104.638 Y146.499
G1 F1200 X104.169 Y146.03 E37.45098
G0 F3000 X104.169 Y145.464
G1 F1200 X105.204 Y146.499 E37.49967
G0 F3000 X105.769 Y146.499
G1 F1200 X104.169 Y144.898 E37.57495
G0 F3000 X104.169 Y144.333
G1 F1200 X106.335 Y146.499 E37.67683
G0 F3000 X106.901 Y146.499
G1 F1200 X104.169 Y143.767 E37.80534
G0 F3000 X104.169 Y143.201
G1 F1200 X107.466 Y146.499 E37.96044
G0 F3000 X108.032 Y146.499
G1 F1200 X104.169 Y142.636 E38.14214
G0 F3000 X104.169 Y142.07
G1 F1200 X108.598 Y146.499 E38.35047
G0 F3000 X109.163 Y146.499
G1 F1200 X104.169 Y141.504 E38.5854
G0 F3000 X104.169 Y140.939
G1 F1200 X109.729 Y146.499 E38.84692
G0 F3000 X110.295 Y146.499
G1 F1200 X104.169 Y140.373 E39.13507
G0 F3000 X104.169 Y139.807
G1 F1200 X110.86 Y146.499 E39.44982
G0 F3000 X111.426 Y146.499
G1 F1200 X104.169 Y139.242 E39.79116
G0 F3000 X104.169 Y138.676
G1 F1200 X111.992 Y146.499 E40.15913
G0 F3000 X112.557 Y146.499
G1 F1200 X104.169 Y138.11 E40.5537
G0 F3000 X104.169 Y137.544
G1 F1200 X113.123 Y146.499 E40.9749
G0 F3000 X113.689 Y146.499
G1 F1200 X104.169 Y136.979 E41.42269
G0 F3000 X104.169 Y136.413
G1 F1200 X114.255 Y146.499 E41.8971
G0 F3000 X114.82 Y146.499
G1 F1200 X104.169 Y135.847 E42.39812
G0 F3000 X104.169 Y135.282
G1 F1200 X115.386 Y146.499 E42.92573
G0 F3000 X115.83 Y146.377
G1 F1200 X104.169 Y134.716 E43.47423
G0 F3000 X104.169 Y134.15
G1 F1200 X115.83 Y145.811 E44.02272
G0 F3000 X115.83 Y145.246
G1 F1200 X104.169 Y133.585 E44.57122
G0 F3000 X104.169 Y133.019
G1 F1200 X115.83 Y144.68 E45.11972
G0 F3000 X115.83 Y144.114
G1 F1200 X104.169 Y132.453 E45.66822
G0 F3000 X104.169 Y131.888
G1 F1200 X115.83 Y143.549 E46.21672
G0 F3000 X115.83 Y142.983
G1 F1200 X104.169 Y131.322 E46.76521
G0 F3000 X104.169 Y130.756
G1 F1200 X115.83 Y142.417 E47.31371
G0 F3000 X115.83 Y141.851
G1 F1200 X104.169 Y130.191 E47.86218
G0 F3000 X104.169 Y129.625
G1 F1200 X115.83 Y141.286 E48.41068
G0 F3000 X115.83 Y140.72
G1 F1200 X104.169 Y129.059 E48.95918
G0 F3000 X104.169 Y128.494
G1 F1200 X115.83 Y140.154 E49.50765
G0 F3000 X115.83 Y139.589
G1 F1200 X104.169 Y127.928 E50.05615
G0 F3000 X104.169 Y127.362
G1 F1200 X115.83 Y139.023 E50.60465
G0 F3000 X115.83 Y138.457
G1 F1200 X104.169 Y126.796 E51.15315
G0 F3000 X104.169 Y126.231
G1 F1200 X115.83 Y137.892 E51.70165
G0 F3000 X115.83 Y137.326
G1 F1200 X104.169 Y125.665 E52.25014
G0 F3000 X104.169 Y125.099
G1 F1200 X115.83 Y136.76 E52.79864
G0 F3000 X115.83 Y136.195
G1 F1200 X104.169 Y124.534 E53.34714
G0 F3000 X104.169 Y123.968
G1 F1200 X115.83 Y135.629 E53.89564
G0 F3000 X115.83 Y135.063
G1 F1200 X104.169 Y123.402 E54.44413
G0 F3000 X104.169 Y122.837
G1 F1200 X115.83 Y134.498 E54.99263
G0 F3000 X115.83 Y133.932
G1 F1200 X104.169 Y122.271 E55.54113
G0 F3000 X104.169 Y121.705
G1 F1200 X115.83 Y133.366 E56.08963
G0 F3000 X115.83 Y132.801
G1 F1200 X104.169 Y121.14 E56.63812
G0 F3000 X104.169 Y120.574
G1 F1200 X115.83 Y132.235 E57.18662
G0 F3000 X115.83 Y131.669
G1 F1200 X104.169 Y120.008 E57.73512
G0 F3000 X104.169 Y119.443
G1 F1200 X115.83 Y131.103 E58.28359
G0 F3000 X115.83 Y130.538
G1 F1200 X104.169 Y118.877 E58.83209
G0 F3000 X104.169 Y118.311
G1 F1200 X115.83 Y129.972 E59.38059
G0 F3000 X115.83 Y129.406
G1 F1200 X104.169 Y117.746 E59.92906
G0 F3000 X104.169 Y117.18
G1 F1200 X115.83 Y128.841 E60.47756
G0 F3000 X115.83 Y128.275
G1 F1200 X104.169 Y116.614 E61.02606
G0 F3000 X104.169 Y116.048
G1 F1200 X115.83 Y127.709 E61.57456
G0 F3000 X115.83 Y127.144
G1 F1200 X104.169 Y115.483 E62.12305
G0 F3000 X104.169 Y114.917
G1 F1200 X115.83 Y126.578 E62.67155
G0 F3000 X115.83 Y126.012
G1 F1200 X104.169 Y114.351 E63.22005
G0 F3000 X104.169 Y113.786
G1 F1200 X115.83 Y125.447 E63.76855
G0 F3000 X115.83 Y124.881
G1 F1200 X104.169 Y113.22 E64.31705
G0 F3000 X104.169 Y112.654
G1 F1200 X115.83 Y124.315 E64.86554
G0 F3000 X115.83 Y123.75
G1 F1200 X104.169 Y112.089 E65.41404
G0 F3000 X104.169 Y111.523
G1 F1200 X115.83 Y123.184 E65.96254
G0 F3000 X115.83 Y122.618
G1 F1200 X104.169 Y110.957 E66.51104
G0 F3000 X104.169 Y110.392
G1 F1200 X115.83 Y122.052 E67.05951
G0 F3000 X115.83 Y121.487
G1 F1200 X104.168 Y109.825 E67.60805
G0 F3000 X104.168 Y109.26
G1 F1200 X115.83 Y120.921 E68.15658
G0 F3000 X115.83 Y120.355
G1 F1200 X104.168 Y108.694 E68.7051
G0 F3000 X104.168 Y108.128
G1 F1200 X115.83 Y119.79 E69.25364
G0 F3000 X115.83 Y119.224
G1 F1200 X104.168 Y107.562 E69.80219
G0 F3000 X104.168 Y106.997
G1 F1200 X115.83 Y118.658 E70.35071
G0 F3000 X115.83 Y118.093
G1 F1200 X104.168 Y106.431 E70.89925
G0 F3000 X104.168 Y105.865
G1 F1200 X115.83 Y117.527 E71.4478
G0 F3000 X115.83 Y116.961
G1 F1200 X104.168 Y105.3 E71.99632
G0 F3000 X104.168 Y104.734
G1 F1200 X115.83 Y116.396 E72.54486
G0 F3000 X115.83 Y115.83
G1 F1200 X104.168 Y104.168 E73.09341
G0 F3000 X104.168 Y103.603
G1 F1200 X115.83 Y115.264 E73.64193
G0 F3000 X115.83 Y114.699
G1 F1200 X104.168 Y103.037 E74.19047
G0 F3000 X104.168 Y102.471
G1 F1200 X115.83 Y114.133 E74.73902
G0 F3000 X115.83 Y113.567
G1 F1200 X104.168 Y101.906 E75.28754
G0 F3000 X104.168 Y101.34
G1 F1200 X115.83 Y113.002 E75.83608
G0 F3000 X115.83 Y112.436
G1 F1200 X104.168 Y100.774 E76.38463
G0 F3000 X104.168 Y100.209
G1 F1200 X115.83 Y111.87 E76.93315
G0 F3000 X115.83 Y111.304
G1 F1200 X104.168 Y99.643 E77.48167
G0 F3000 X104.168 Y99.077
G1 F1200 X115.83 Y110.739 E78.03022
G0 F3000 X115.83 Y110.173
G1 F1200 X104.168 Y98.511 E78.57876
G0 F3000 X104.168 Y97.946
G1 F1200 X115.829 Y109.607 E79.12726
G0 F3000 X115.829 Y109.041
G1 F1200 X104.168 Y97.38 E79.67576
G0 F3000 X104.168 Y96.814
G1 F1200 X115.829 Y108.475 E80.22425
G0 F3000 X115.829 Y107.91
G1 F1200 X104.168 Y96.249 E80.77275
G0 F3000 X104.168 Y95.683
G1 F1200 X115.829 Y107.344 E81.32125
G0 F3000 X115.829 Y106.778
G1 F1200 X104.168 Y95.117 E81.86975
G0 F3000 X104.168 Y94.552
G1 F1200 X115.829 Y106.213 E82.41824
G0 F3000 X115.829 Y105.647
G1 F1200 X104.168 Y93.986 E82.96674
G0 F3000 X104.168 Y93.42
G1 F1200 X115.829 Y105.081 E83.51524
G0 F3000 X115.829 Y104.516
G1 F1200 X104.168 Y92.855 E84.06374
G0 F3000 X104.168 Y92.289
G1 F1200 X115.829 Y103.95 E84.61224
G0 F3000 X115.829 Y103.384
G1 F1200 X104.168 Y91.723 E85.16073
G0 F3000 X104.168 Y91.158
G1 F1200 X115.829 Y102.818 E85.70921
G0 F3000 X115.829 Y102.253
G1 F1200 X104.168 Y90.592 E86.25771
G0 F3000 X104.168 Y90.026
G1 F1200 X115.829 Y101.687 E86.8062
G0 F3000 X115.829 Y101.121
G1 F1200 X104.168 Y89.461 E87.35468
G0 F3000 X104.168 Y88.895
G1 F1200 X115.829 Y100.556 E87.90317
G0 F3000 X115.829 Y99.99
G1 F1200 X104.168 Y88.329 E88.45167
G0 F3000 X104.168 Y87.763
G1 F1200 X115.829 Y99.424 E89.00017
G0 F3000 X115.829 Y98.859
G1 F1200 X104.168 Y87.198 E89.54867
G0 F3000 X104.168 Y86.632
G1 F1200 X115.829 Y98.293 E90.09717
G0 F3000 X115.829 Y97.727
G1 F1200 X104.168 Y86.066 E90.64566
G0 F3000 X104.168 Y85.501
G1 F1200 X115.829 Y97.162 E91.19416
G0 F3000 X115.829 Y96.596
G1 F1200 X104.168 Y84.935 E91.74266
G0 F3000 X104.168 Y84.369
G1 F1200 X115.829 Y96.03 E92.29116
G0 F3000 X115.829 Y95.465
G1 F1200 X104.168 Y83.804 E92.83965
G0 F3000 X104.168 Y83.238
G1 F1200 X115.829 Y94.899 E93.38815
G0 F3000 X115.829 Y94.333
G1 F1200 X104.168 Y82.672 E93.93665
G0 F3000 X104.168 Y82.107
G1 F1200 X115.829 Y93.768 E94.48515
G0 F3000 X115.829 Y93.202
G1 F1200 X104.168 Y81.541 E95.03364
G0 F3000 X104.168 Y80.975
G1 F1200 X115.829 Y92.636 E95.58214
G0 F3000 X115.829 Y92.07
G1 F1200 X104.168 Y80.41 E96.13062
G0 F3000 X104.168 Y79.844
G1 F1200 X115.829 Y91.505 E96.67911
G0 F3000 X115.829 Y90.939
G1 F1200 X104.168 Y79.278 E97.22761
G0 F3000 X104.168 Y78.713
G1 F1200 X115.829 Y90.373 E97.77609
G0 F3000 X115.829 Y89.808
G1 F1200 X104.168 Y78.147 E98.32458
G0 F3000 X104.168 Y77.581
G1 F1200 X115.829 Y89.242 E98.87308
G0 F3000 X115.829 Y88.676
G1 F1200 X104.168 Y77.015 E99.42158
G0 F3000 X104.168 Y76.45
G1 F1200 X115.829 Y88.111 E99.97008
G0 F3000 X115.829 Y87.545
G1 F1200 X104.168 Y75.884 E100.51857
G0 F3000 X104.168 Y75.318
G1 F1200 X115.829 Y86.979 E101.06707
G0 F3000 X115.829 Y86.414
G1 F1200 X104.168 Y74.753 E101.61557
G0 F3000 X104.168 Y74.187
G1 F1200 X115.829 Y85.848 E102.16407
G0 F3000 X115.829 Y85.282
G1 F1200 X104.168 Y73.621 E102.71257
G0 F3000 X104.612 Y73.5
G1 F1200 X115.829 Y84.717 E103.24018
G0 F3000 X115.829 Y84.151
G1 F1200 X105.178 Y73.5 E103.74117
G0 F3000 X105.744 Y73.5
G1 F1200 X115.829 Y83.585 E104.21554
G0 F3000 X115.829 Y83.019
G1 F1200 X106.309 Y73.5 E104.6633
G0 F3000 X106.875 Y73.5
G1 F1200 X115.829 Y82.454 E105.08447
G0 F3000 X115.829 Y81.888
G1 F1200 X107.441 Y73.5 E105.47902
G0 F3000 X108.007 Y73.5
G1 F1200 X115.829 Y81.322 E105.84694
G0 F3000 X115.829 Y80.757
G1 F1200 X108.572 Y73.5 E106.18829
G0 F3000 X109.138 Y73.5
G1 F1200 X115.829 Y80.191 E106.50301
G0 F3000 X115.829 Y79.625
G1 F1200 X109.704 Y73.5 E106.79111
G0 F3000 X110.269 Y73.5
G1 F1200 X115.829 Y79.06 E107.05264
G0 F3000 X115.829 Y78.494
G1 F1200 X110.835 Y73.5 E107.28754
G0 F3000 X111.401 Y73.5
G1 F1200 X115.829 Y77.928 E107.49582
G0 F3000 X115.829 Y77.363
G1 F1200 X111.966 Y73.5 E107.67753
G0 F3000 X112.532 Y73.5
G1 F1200 X115.829 Y76.797 E107.83261
G0 F3000 X115.829 Y76.231
G1 F1200 X113.098 Y73.5 E107.96106
G0 F3000 X113.663 Y73.5
G1 F1200 X115.829 Y75.666 E108.06295
G0 F3000 X115.829 Y75.1
G1 F1200 X114.229 Y73.5 E108.13821
G0 F3000 X114.795 Y73.5
G1 F1200 X115.829 Y74.534 E108.18684
G0 F3000 X115.829 Y73.969
G1 F1200 X115.36 Y73.5 E108.2089
M104 S200
G0 F3000 X115.36 Y73.13
