;FLAVOR:Marlin
;TIME:6173
;Filament used: 2.7462m
;Layer height: 0.2
;MINX:66.53
;MINY:67.222
;MINZ:0.2
;MAXX:153.456
;MAXY:152.764
;MAXZ:3.2
;Generated with Cura_SteamEngine master
M82 ;absolute extrusion mode
;Sliced at: Sun 04-12-2022 01:20:29
;Basic settings: Layer height: 0.2 Walls: 0.8 Fill: 30.0
G21 ;metric values
G90 ;absolute positioning
M82 ;set extruder to absolute mode
M107 ;start with the fan off
M117 Start heating ...
M104 S200
M117 Homing X/Y ...
G28 X0 Y0 ;move X/Y to min endstops
M117 Homing Z ...
G28 Z0 ;move Z to min endstops
G1 Z15.0 F100 ;move the platform down 15mm
M117 Heating ...
M109 S200
M117 Start cleaning ...
G92 E0 ;zero the extruded length
G1 F200 E10 ;extrude 10mm of feed stock
G92 E0 ;zero the extruded length again
M117 Intro line ...
G1 Z2.0 F3000 ; Move Z Axis up little to prevent scratching of Heat Bed
G1 X0.1 Y20 Z0.2 F5000.0 ; Move to start position
G1 X0.1 Y200.0 Z0.2 F1500.0 E15 ; Draw the first line
G1 X0.4 Y200.0 Z0.2 F5000.0 ; Move to side a little
G1 X0.4 Y20 Z0.3 F1500.0 E30 ; Draw the second line
G92 E0 ; Reset Extruder
G1 E-1 F500 ; Retract filiment by 1 mm
G1 Z2.0 F3000 ; Move Z Axis up little to prevent scratching of Heat Bed
G1 X5 Y20 Z0.3 F100 ; Move over to prevent blob squish
G1 F100
G92 E0 ; Reset Extruder
M117 Printing...

G92 E0
G92 E0
G1 F1800 E-7
;LAYER_COUNT:15
;LAYER:0
M107
G1 F300 Z0.4
G0 F3000 X74.74 Y68.587 Z0.4
;TYPE:SKIRT
G1 F300 Z0.2
G1 F1800 E0
G1 F1200 X75.143 Y68.19 E0.01882
G1 X75.597 Y67.854 E0.0376
G1 X76.095 Y67.585 E0.05643
G1 X76.625 Y67.39 E0.07521
G1 X77.178 Y67.271 E0.09402
G1 X77.949 Y67.224 E0.11971
G1 X78.061 Y67.222 E0.12344
G1 X91.623 Y67.222 E0.57451
G1 X92.321 Y67.232 E0.59773
G1 X92.547 Y67.242 E0.60526
G1 X93.616 Y67.318 E0.6409
G1 X94.441 Y67.388 E0.66844
G1 X97.187 Y67.543 E0.75992
G1 X99.856 Y67.618 E0.84872
G1 X102.599 Y67.618 E0.93996
G1 X105.274 Y67.541 E1.02896
G1 X108.046 Y67.384 E1.12131
G1 X109.794 Y67.244 E1.17963
G1 X110.375 Y67.223 E1.19897
G1 X146.882 Y67.222 E2.4132
G1 X147.58 Y67.232 E2.43642
G1 X148.144 Y67.28 E2.45524
G1 X148.694 Y67.407 E2.47402
G1 X149.222 Y67.611 E2.49284
G1 X149.716 Y67.886 E2.51165
G1 X150.165 Y68.229 E2.53044
G1 X150.562 Y68.631 E2.54923
G1 X150.899 Y69.086 E2.56806
G1 X151.167 Y69.583 E2.58685
G1 X151.363 Y70.113 E2.60564
G1 X151.483 Y70.666 E2.62446
G1 X151.53 Y71.419 E2.64955
G1 X151.532 Y71.537 E2.65348
G1 X151.532 Y83.872 E3.06374
G1 X151.521 Y84.578 E3.08723
G1 X151.473 Y85.134 E3.10579
G1 X151.38 Y85.729 E3.12582
G1 X150.995 Y88.431 E3.2166
G1 X150.692 Y91.091 E3.30564
G1 X150.46 Y93.82 E3.39673
G1 X150.304 Y96.565 E3.48818
G1 X150.227 Y99.236 E3.57706
G1 X150.227 Y101.979 E3.66829
G1 X150.302 Y104.653 E3.75726
G1 X150.456 Y107.389 E3.8484
G1 X150.688 Y110.122 E3.93963
G1 X150.989 Y112.781 E4.02863
G1 X151.37 Y115.461 E4.11867
G1 X151.831 Y118.155 E4.20957
G1 X152.408 Y121.024 E4.30691
G1 X152.692 Y122.338 E4.35162
G1 X152.722 Y122.487 E4.35668
G1 X152.994 Y124.024 E4.40859
G1 X153.019 Y124.187 E4.41408
G1 X153.238 Y125.813 E4.46865
G1 X153.254 Y125.949 E4.4732
G1 X153.349 Y126.908 E4.50525
G1 X153.382 Y127.358 E4.52026
G1 X153.438 Y128.384 E4.55444
G1 X153.449 Y128.772 E4.56735
G1 X153.456 Y130.251 E4.61654
G1 X153.455 Y130.378 E4.62076
G1 X153.439 Y130.972 E4.64053
G1 X153.388 Y131.917 E4.672
G1 X153.38 Y132.034 E4.6759
G1 X153.313 Y132.823 E4.70224
G1 X153.233 Y133.534 E4.72604
G1 X153.219 Y133.644 E4.72972
G1 X153.11 Y134.409 E4.75543
G1 X153.089 Y134.54 E4.75984
G1 X152.924 Y135.467 E4.79115
G1 X152.803 Y136.047 E4.81086
G1 X152.602 Y136.879 E4.83933
G1 X152.569 Y137.005 E4.84366
G1 X152.391 Y137.644 E4.86572
G1 X152.351 Y137.781 E4.87047
G1 X152.133 Y138.468 E4.89444
G1 X152.085 Y138.608 E4.89937
G1 X151.842 Y139.286 E4.92332
G1 X151.792 Y139.419 E4.92805
G1 X151.594 Y139.915 E4.94581
G1 X151.536 Y140.052 E4.95076
G1 X151.222 Y140.761 E4.97655
G1 X151.162 Y140.892 E4.98134
G1 X150.923 Y141.383 E4.9995
G1 X150.849 Y141.526 E5.00486
G1 X150.483 Y142.207 E5.03057
G1 X150.408 Y142.341 E5.03568
G1 X150.088 Y142.885 E5.05667
G1 X150.007 Y143.016 E5.06179
G1 X149.689 Y143.512 E5.08139
G1 X149.599 Y143.647 E5.08679
G1 X149.251 Y144.144 E5.10697
G1 X149.162 Y144.266 E5.11199
G1 X148.664 Y144.923 E5.13941
G1 X148.3 Y145.371 E5.15861
G1 X148.195 Y145.494 E5.16399
G1 X147.452 Y146.325 E5.20106
G1 X147.021 Y146.768 E5.22162
G1 X146.428 Y147.324 E5.24866
G1 X146.312 Y147.43 E5.25388
G1 X145.584 Y148.06 E5.28591
G1 X145.195 Y148.371 E5.30247
G1 X144.28 Y149.04 E5.34017
G1 X143.885 Y149.306 E5.35601
G1 X143.09 Y149.79 E5.38697
G1 X142.945 Y149.874 E5.39254
G1 X142.091 Y150.346 E5.42499
G1 X141.592 Y150.598 E5.44359
G1 X140.897 Y150.914 E5.46898
G1 X140.727 Y150.987 E5.47513
G1 X140.097 Y151.239 E5.4977
G1 X139.657 Y151.401 E5.5133
G1 X138.922 Y151.65 E5.53911
G1 X138.75 Y151.704 E5.5451
G1 X137.944 Y151.936 E5.573
G1 X137.746 Y151.987 E5.5798
G1 X137.038 Y152.155 E5.604
G1 X136.835 Y152.197 E5.6109
G1 X135.444 Y152.452 E5.65793
G1 X135.302 Y152.476 E5.66272
G1 X134.776 Y152.553 E5.6804
G1 X134.599 Y152.575 E5.68634
G1 X133.748 Y152.661 E5.71478
G1 X133.24 Y152.701 E5.73173
G1 X132.229 Y152.754 E5.7654
G1 X132.037 Y152.759 E5.77179
G1 X130.528 Y152.764 E5.82198
G1 X129.972 Y152.749 E5.84048
G1 X129.159 Y152.706 E5.86756
G1 X129.05 Y152.699 E5.87119
G1 X128.287 Y152.637 E5.89665
G1 X128.164 Y152.625 E5.90076
G1 X127.399 Y152.539 E5.92637
G1 X126.665 Y152.435 E5.95103
G1 X126.535 Y152.414 E5.95541
G1 X125.636 Y152.253 E5.98578
G1 X124.15 Y151.937 E6.03631
G1 X121.483 Y151.41 E6.12673
G1 X118.836 Y150.964 E6.21601
G1 X116.119 Y150.585 E6.30725
G1 X113.424 Y150.286 E6.39744
G1 X110.691 Y150.061 E6.48865
G1 X108.023 Y149.917 E6.57752
G1 X105.28 Y149.847 E6.66878
G1 X102.571 Y149.854 E6.75888
G1 X99.867 Y149.938 E6.84886
G1 X97.147 Y150.1 E6.93949
G1 X93.244 Y150.467 E7.06987
G1 X92.716 Y150.527 E7.08755
G1 X92.056 Y150.56 E7.10953
G1 X91.943 Y150.562 E7.11329
G1 X71.185 Y150.562 E7.8037
G1 X70.487 Y150.553 E7.82692
G1 X69.924 Y150.505 E7.84571
G1 X69.373 Y150.379 E7.86451
G1 X68.845 Y150.177 E7.88331
G1 X68.351 Y149.902 E7.90212
G1 X67.901 Y149.56 E7.92092
G1 X67.503 Y149.158 E7.93973
G1 X67.167 Y148.704 E7.95852
G1 X66.897 Y148.207 E7.97733
G1 X66.7 Y147.677 E7.99614
G1 X66.58 Y147.125 E8.01492
G1 X66.531 Y146.328 E8.04148
G1 X66.53 Y133.912 E8.45444
G1 X66.541 Y133.206 E8.47792
G1 X66.59 Y132.642 E8.49675
G1 X66.808 Y131.832 E8.52465
G1 X67.789 Y129.28 E8.61559
G1 X68.709 Y126.676 E8.70744
G1 X69.529 Y124.123 E8.79663
G1 X70.289 Y121.506 E8.88727
G1 X70.974 Y118.872 E8.97779
G1 X71.584 Y116.22 E9.0683
G1 X72.113 Y113.578 E9.15792
G1 X72.574 Y110.884 E9.24882
G1 X72.953 Y108.224 E9.33819
G1 X73.262 Y105.499 E9.4294
G1 X73.491 Y102.805 E9.51933
G1 X73.645 Y100.089 E9.60981
G1 X73.731 Y95.995 E9.746
G1 X73.731 Y71.836 E10.54954
G1 X73.741 Y71.171 E10.57166
G1 X73.79 Y70.608 E10.59045
G1 X73.917 Y70.057 E10.60926
G1 X74.121 Y69.529 E10.62809
G1 X74.397 Y69.036 E10.64688
G1 X74.74 Y68.587 E10.66567
G0 F3000 X75.133 Y68.749
G1 F1200 X75.531 Y68.39 E10.6835
G1 X75.977 Y68.093 E10.70132
G1 X76.463 Y67.865 E10.71917
G1 X76.977 Y67.713 E10.737
G1 X77.64 Y67.632 E10.75922
G1 X78.061 Y67.622 E10.77322
G1 X91.618 Y67.622 E11.22413
G1 X92.316 Y67.632 E11.24735
G1 X92.519 Y67.641 E11.25411
G1 X93.583 Y67.717 E11.28959
G1 X94.421 Y67.788 E11.31756
G1 X97.119 Y67.941 E11.40744
G1 X99.881 Y68.018 E11.49934
G1 X102.576 Y68.018 E11.58897
G1 X105.342 Y67.939 E11.68101
G1 X108.06 Y67.785 E11.77156
G1 X109.826 Y67.643 E11.83048
G1 X110.375 Y67.623 E11.84875
G1 X146.877 Y67.622 E13.06282
G1 X147.575 Y67.632 E13.08603
G1 X148.109 Y67.68 E13.10387
G1 X148.63 Y67.806 E13.12169
G1 X149.127 Y68.009 E13.13955
G1 X149.588 Y68.283 E13.15739
G1 X150.003 Y68.622 E13.17521
G1 X150.363 Y69.02 E13.19306
G1 X150.66 Y69.466 E13.21088
G1 X150.888 Y69.952 E13.22874
G1 X151.04 Y70.466 E13.24656
G1 X151.121 Y71.126 E13.26868
G1 X151.132 Y71.537 E13.28236
G1 X151.132 Y83.866 E13.69242
G1 X151.121 Y84.572 E13.7159
G1 X151.078 Y85.072 E13.7326
G1 X150.985 Y85.667 E13.75263
G1 X150.6 Y88.367 E13.84334
G1 X150.291 Y91.083 E13.93425
G1 X150.06 Y93.799 E14.02491
G1 X149.906 Y96.496 E14.11476
G1 X149.827 Y99.259 E14.2067
G1 X149.827 Y101.955 E14.29637
G1 X149.904 Y104.72 E14.38837
G1 X150.056 Y107.412 E14.47805
G1 X150.286 Y110.13 E14.56877
G1 X150.595 Y112.846 E14.65969
G1 X150.98 Y115.554 E14.75066
G1 X151.437 Y118.23 E14.84095
G1 X152.005 Y121.05 E14.93663
G1 X152.302 Y122.422 E14.98332
G1 X152.328 Y122.557 E14.98789
G1 X152.6 Y124.094 E15.03981
G1 X152.623 Y124.24 E15.04473
G1 X152.842 Y125.866 E15.09929
G1 X152.856 Y125.988 E15.10338
G1 X152.95 Y126.938 E15.13513
G1 X152.982 Y127.381 E15.1499
G1 X153.038 Y128.397 E15.18375
G1 X153.049 Y128.774 E15.19629
G1 X153.056 Y130.253 E15.24548
G1 X153.055 Y130.367 E15.24928
G1 X153.035 Y131.063 E15.27243
G1 X152.989 Y131.895 E15.30015
G1 X152.914 Y132.79 E15.33002
G1 X152.904 Y132.894 E15.3335
G1 X152.836 Y133.489 E15.35341
G1 X152.714 Y134.353 E15.38244
G1 X152.553 Y135.275 E15.41357
G1 X152.532 Y135.385 E15.41729
G1 X152.385 Y136.082 E15.44098
G1 X152.214 Y136.784 E15.46501
G1 X152.184 Y136.898 E15.46893
G1 X152.006 Y137.537 E15.491
G1 X151.969 Y137.66 E15.49527
G1 X151.751 Y138.347 E15.51924
G1 X151.709 Y138.473 E15.52366
G1 X151.466 Y139.151 E15.54761
G1 X151.42 Y139.271 E15.55189
G1 X151.171 Y139.89 E15.57408
G1 X150.857 Y140.599 E15.59987
G1 X150.802 Y140.717 E15.6042
G1 X150.563 Y141.208 E15.62236
G1 X150.497 Y141.336 E15.62715
G1 X150.131 Y142.017 E15.65287
G1 X150.063 Y142.138 E15.65748
G1 X149.743 Y142.682 E15.67848
G1 X149.671 Y142.8 E15.68307
G1 X149.353 Y143.296 E15.70267
G1 X149.271 Y143.418 E15.70756
G1 X148.923 Y143.915 E15.72774
G1 X148.843 Y144.025 E15.73226
G1 X148.345 Y144.682 E15.75968
G1 X147.991 Y145.117 E15.77834
G1 X147.896 Y145.228 E15.7832
G1 X147.23 Y145.975 E15.81648
G1 X146.866 Y146.359 E15.83408
G1 X146.676 Y146.544 E15.8429
G1 X146.155 Y147.032 E15.86664
G1 X146.05 Y147.127 E15.87135
G1 X145.233 Y147.832 E15.90724
G1 X144.959 Y148.048 E15.91885
G1 X144.044 Y148.717 E15.95655
G1 X143.677 Y148.964 E15.97126
G1 X142.882 Y149.448 E16.00222
G1 X142.751 Y149.524 E16.00726
G1 X141.897 Y149.996 E16.03971
G1 X141.426 Y150.234 E16.05726
G1 X140.731 Y150.55 E16.08265
G1 X140.578 Y150.616 E16.0882
G1 X139.948 Y150.868 E16.11076
G1 X139.529 Y151.022 E16.12561
G1 X138.794 Y151.271 E16.15142
G1 X138.639 Y151.319 E16.15682
G1 X137.841 Y151.549 E16.18444
G1 X137.653 Y151.598 E16.1909
G1 X136.945 Y151.766 E16.21511
G1 X136.763 Y151.804 E16.22129
G1 X135.372 Y152.059 E16.26833
G1 X135.244 Y152.08 E16.27264
G1 X134.718 Y152.157 E16.29032
G1 X134.559 Y152.177 E16.29565
G1 X133.631 Y152.27 E16.32667
G1 X133.219 Y152.301 E16.34041
G1 X132.208 Y152.354 E16.37409
G1 X132.036 Y152.359 E16.37981
G1 X130.539 Y152.364 E16.4296
G1 X129.887 Y152.345 E16.45129
G1 X129.181 Y152.307 E16.47481
G1 X128.319 Y152.238 E16.50357
G1 X127.444 Y152.141 E16.53285
G1 X127.334 Y152.127 E16.53654
G1 X126.605 Y152.021 E16.56104
G1 X125.839 Y151.885 E16.58692
G1 X124.284 Y151.556 E16.63978
G1 X121.55 Y151.016 E16.73247
G1 X118.857 Y150.562 E16.82331
G1 X116.182 Y150.189 E16.91314
G1 X113.465 Y149.887 E17.00406
G1 X110.745 Y149.663 E17.09484
G1 X108.02 Y149.517 E17.1856
G1 X105.289 Y149.447 E17.27646
G1 X102.558 Y149.454 E17.3673
G1 X99.865 Y149.538 E17.45691
G1 X97.116 Y149.701 E17.5485
G1 X93.206 Y150.069 E17.67912
G1 X92.67 Y150.13 E17.69707
G1 X92.045 Y150.161 E17.71788
G1 X71.191 Y150.162 E18.41149
G1 X70.493 Y150.153 E18.4347
G1 X69.958 Y150.106 E18.45257
G1 X69.437 Y149.98 E18.47039
G1 X68.94 Y149.778 E18.48824
G1 X68.479 Y149.505 E18.50606
G1 X68.063 Y149.166 E18.52391
G1 X67.702 Y148.77 E18.54173
G1 X67.404 Y148.324 E18.55957
G1 X67.176 Y147.838 E18.57742
G1 X67.023 Y147.324 E18.59526
G1 X66.94 Y146.65 E18.61785
G1 X66.93 Y146.22 E18.63215
G1 X66.93 Y133.918 E19.04132
G1 X66.941 Y133.212 E19.0648
G1 X66.99 Y132.678 E19.08264
G1 X67.181 Y131.976 E19.10684
G1 X68.176 Y129.389 E19.19903
G1 X69.07 Y126.857 E19.28834
G1 X69.92 Y124.21 E19.3808
G1 X70.675 Y121.614 E19.47072
G1 X71.357 Y118.991 E19.56087
G1 X71.979 Y116.283 E19.65328
G1 X72.512 Y113.625 E19.74345
G1 X72.966 Y110.971 E19.833
G1 X73.353 Y108.254 E19.92428
G1 X73.661 Y105.542 E20.01506
G1 X73.891 Y102.827 E20.10569
G1 X74.044 Y100.12 E20.19586
G1 X74.131 Y96.003 E20.33283
G1 X74.131 Y71.842 E21.13643
G1 X74.141 Y71.177 E21.15855
G1 X74.189 Y70.643 E21.17638
G1 X74.316 Y70.122 E21.19421
G1 X74.519 Y69.625 E21.21207
G1 X74.793 Y69.164 E21.22991
G1 X75.133 Y68.749 E21.24775
G0 F3000 X75.189 Y69.3
G1 F1200 X75.525 Y68.923 E21.26455
G1 X75.916 Y68.602 E21.28137
G1 X76.353 Y68.348 E21.29818
G1 X76.824 Y68.165 E21.31499
G1 X77.319 Y68.059 E21.33183
G1 X77.971 Y68.023 E21.35355
G1 X91.612 Y68.022 E21.80725
G1 X92.31 Y68.032 E21.83047
G1 X92.49 Y68.04 E21.83646
G1 X93.549 Y68.115 E21.87177
G1 X94.401 Y68.187 E21.90021
G1 X97.12 Y68.341 E21.99079
G1 X99.869 Y68.418 E22.08226
G1 X102.587 Y68.418 E22.17266
G1 X105.342 Y68.339 E22.26433
G1 X108.071 Y68.184 E22.35524
G1 X109.858 Y68.041 E22.41487
G1 X110.375 Y68.023 E22.43207
G1 X146.871 Y68.022 E23.64593
G1 X147.569 Y68.032 E23.66915
G1 X148.072 Y68.079 E23.68595
G1 X148.562 Y68.205 E23.70278
G1 X149.026 Y68.407 E23.71961
G1 X149.452 Y68.679 E23.73642
G1 X149.83 Y69.014 E23.75322
G1 X150.15 Y69.405 E23.77003
G1 X150.405 Y69.842 E23.78686
G1 X150.588 Y70.313 E23.80366
G1 X150.695 Y70.807 E23.82047
G1 X150.731 Y71.443 E23.84166
G1 X150.732 Y83.86 E24.25465
G1 X150.721 Y84.566 E24.27814
G1 X150.683 Y85.01 E24.29296
G1 X150.59 Y85.605 E24.31299
G1 X150.201 Y88.332 E24.40461
G1 X149.893 Y91.037 E24.49516
G1 X149.663 Y93.746 E24.58558
G1 X149.506 Y96.496 E24.6772
G1 X149.427 Y99.248 E24.76877
G1 X149.427 Y101.966 E24.85917
G1 X149.504 Y104.719 E24.95077
G1 X149.657 Y107.433 E25.04118
G1 X149.889 Y110.173 E25.13264
G1 X150.2 Y112.915 E25.22442
G1 X150.582 Y115.601 E25.31466
G1 X151.045 Y118.304 E25.40587
G1 X151.614 Y121.135 E25.50191
G1 X151.911 Y122.507 E25.5486
G1 X151.934 Y122.626 E25.55263
G1 X152.206 Y124.163 E25.60455
G1 X152.226 Y124.294 E25.60896
G1 X152.445 Y125.92 E25.66353
G1 X152.458 Y126.028 E25.66714
G1 X152.551 Y126.968 E25.69856
G1 X152.583 Y127.403 E25.71307
G1 X152.638 Y128.41 E25.74661
G1 X152.649 Y128.776 E25.75879
G1 X152.655 Y130.356 E25.81134
G1 X152.635 Y131.041 E25.83413
G1 X152.583 Y131.967 E25.86498
G1 X152.516 Y132.756 E25.89132
G1 X152.427 Y133.531 E25.91726
G1 X152.318 Y134.296 E25.94296
G1 X152.159 Y135.206 E25.97369
G1 X152.141 Y135.304 E25.977
G1 X152.02 Y135.884 E25.99671
G1 X151.825 Y136.689 E26.02426
G1 X151.799 Y136.791 E26.02776
G1 X151.621 Y137.43 E26.04982
G1 X151.37 Y138.226 E26.07758
G1 X151.332 Y138.338 E26.08152
G1 X151.089 Y139.016 E26.10547
G1 X151.049 Y139.122 E26.10924
G1 X150.851 Y139.618 E26.127
G1 X150.805 Y139.728 E26.13097
G1 X150.491 Y140.437 E26.15676
G1 X150.442 Y140.542 E26.16061
G1 X150.203 Y141.033 E26.17878
G1 X150.145 Y141.147 E26.18303
G1 X149.779 Y141.828 E26.20874
G1 X149.398 Y142.479 E26.23383
G1 X149.334 Y142.584 E26.23792
G1 X149.016 Y143.08 E26.25752
G1 X148.943 Y143.188 E26.26185
G1 X148.595 Y143.685 E26.28203
G1 X148.524 Y143.783 E26.28606
G1 X148.026 Y144.44 E26.31348
G1 X147.682 Y144.863 E26.33161
G1 X147.598 Y144.962 E26.33593
G1 X146.932 Y145.709 E26.36922
G1 X146.586 Y146.074 E26.38594
G1 X146.403 Y146.252 E26.39444
G1 X145.882 Y146.74 E26.41818
G1 X145.788 Y146.825 E26.42239
G1 X145.06 Y147.455 E26.45441
G1 X144.723 Y147.725 E26.46878
G1 X143.808 Y148.394 E26.50648
G1 X143.469 Y148.622 E26.52006
G1 X142.674 Y149.106 E26.55102
G1 X142.558 Y149.174 E26.55549
G1 X141.704 Y149.646 E26.58795
G1 X141.26 Y149.87 E26.60449
G1 X140.565 Y150.186 E26.62988
G1 X140.429 Y150.244 E26.6348
G1 X139.714 Y150.529 E26.6604
G1 X139.401 Y150.643 E26.67148
G1 X138.666 Y150.892 E26.69729
G1 X138.528 Y150.935 E26.7021
G1 X137.738 Y151.162 E26.72944
G1 X137.561 Y151.209 E26.73553
G1 X136.853 Y151.377 E26.75973
G1 X136.691 Y151.411 E26.76523
G1 X135.3 Y151.666 E26.81227
G1 X134.661 Y151.761 E26.83376
G1 X134.519 Y151.779 E26.83852
