;FLAVOR:Marlin
;TIME:5885
;Filament used: 1.06207m
;Layer height: 0.1
;MINX:31.494
;MINY:29.151
;MINZ:0.1
;MAXX:190.848
;MAXY:188.503
;MAXZ:2.8
;Generated with Cura_SteamEngine master
M82 ;absolute extrusion mode
;Sliced at: Sat 04-03-2023 20:37:46
;Basic settings: Layer height: 0.1 Walls: 0.8 Fill: 100
G21 ;metric values
G90 ;absolute positioning
M82 ;set extruder to absolute mode
M107 ;start with the fan off
M117 Start heating ...
M104 S200
M117 Homing X/Y ...
G28 X0 Y0 ;move X/Y to min endstops
M117 Homing Z ...
G28 Z0 ;move Z to min endstops
G1 Z15.0 F50 ;move the platform down 15mm
M117 Heating ...
M109 S200
M117 Start cleaning ...
G92 E0 ;zero the extruded length
G1 F200 E10 ;extrude 10mm of feed stock
G92 E0 ;zero the extruded length again
M117 Intro line ...
G1 Z2.0 F3000 ; Move Z Axis up little to prevent scratching of Heat Bed
G1 X0.1 Y20 Z0.1 F5000.0 ; Move to start position
G1 X0.1 Y200.0 Z0.1 F1500.0 E15 ; Draw the first line
G1 X0.4 Y200.0 Z0.1 F5000.0 ; Move to side a little
G1 X0.4 Y20 Z0.3 F1500.0 E30 ; Draw the second line
G92 E0 ; Reset Extruder
G1 E-1 F500 ; Retract filiment by 1 mm
G1 Z2.0 F3000 ; Move Z Axis up little to prevent scratching of Heat Bed
G1 X5 Y20 Z0.3 F50 ; Move over to prevent blob squish
G1 F50
G92 E0 ; Reset Extruder
M117 Printing...

G92 E0
G92 E0
G1 F1800 E-7
;LAYER_COUNT:26
;LAYER:0
M107
G1 F300 Z0.3
G0 F1500 X149.238 Y56.965 Z0.3
;TYPE:SKIRT
G1 F300 Z0.1
G1 F1800 E0
G1 F900 X150.266 Y55.909 E0.02451
G1 X152.362 Y53.814 E0.07379
G1 X154.305 Y51.815 E0.12015
G1 X156.145 Y49.815 E0.16535
G1 X157.902 Y47.79 E0.20993
G1 X159.633 Y45.677 E0.25536
G1 X161.304 Y43.517 E0.30077
G1 X162.884 Y41.351 E0.34536
G1 X164.429 Y39.099 E0.39077
G1 X165.919 Y36.794 E0.43642
G1 X166.532 Y35.789 E0.45599
G1 X166.863 Y35.252 E0.46649
G1 X166.953 Y35.113 E0.46924
G1 X167.381 Y34.479 E0.48196
G1 X167.722 Y34.031 E0.49132
G1 X167.971 Y33.734 E0.49777
G1 X168.463 Y33.178 E0.51011
G1 X168.823 Y32.813 E0.51864
G1 X169.289 Y32.399 E0.52901
G1 X169.382 Y32.32 E0.53104
G1 X170.132 Y31.706 E0.54716
G1 X170.701 Y31.304 E0.55874
G1 X171.092 Y31.065 E0.56636
G1 X171.873 Y30.613 E0.58137
G1 X172.338 Y30.383 E0.59
G1 X173.127 Y30.054 E0.60421
G1 X173.53 Y29.901 E0.61138
G1 X174.107 Y29.705 E0.62151
G1 X174.652 Y29.553 E0.63092
G1 X175.057 Y29.462 E0.63783
G1 X175.773 Y29.315 E0.64998
G1 X176.314 Y29.235 E0.65908
G1 X176.866 Y29.192 E0.66828
G1 X177.95 Y29.151 E0.68632
G1 X178.251 Y29.151 E0.69133
G1 X178.805 Y29.18 E0.70056
G1 X179.055 Y29.207 E0.70474
G1 X180.066 Y29.333 E0.72168
G1 X180.666 Y29.449 E0.73184
G1 X181.361 Y29.632 E0.7438
G1 X181.782 Y29.757 E0.7511
G1 X182.333 Y29.937 E0.76074
G1 X182.808 Y30.122 E0.76922
G1 X183.302 Y30.345 E0.77823
G1 X183.833 Y30.599 E0.78802
G1 X184.374 Y30.887 E0.79821
G1 X184.558 Y31.001 E0.80181
G1 X185.188 Y31.414 E0.81434
G1 X185.699 Y31.77 E0.82469
G1 X186.164 Y32.135 E0.83452
G1 X186.614 Y32.539 E0.84458
G1 X187.346 Y33.254 E0.8616
G1 X187.711 Y33.659 E0.87067
G1 X188.278 Y34.376 E0.88587
G1 X188.667 Y34.913 E0.89689
G1 X189.097 Y35.612 E0.91054
G1 X189.32 Y36.021 E0.91829
G1 X189.612 Y36.589 E0.92891
G1 X189.837 Y37.084 E0.93795
G1 X190.052 Y37.662 E0.94821
G1 X190.096 Y37.794 E0.95052
G1 X190.399 Y38.751 E0.96722
G1 X190.516 Y39.215 E0.97517
G1 X190.704 Y40.218 E0.99214
G1 X190.789 Y40.809 E1.00207
G1 X190.83 Y41.351 E1.01111
G1 X190.848 Y42.3 E1.0269
G1 X190.835 Y42.913 E1.03709
G1 X190.747 Y43.78 E1.05159
G1 X190.688 Y44.159 E1.05796
G1 X190.558 Y44.895 E1.07039
G1 X190.395 Y45.555 E1.0817
G1 X190.199 Y46.176 E1.09253
G1 X189.962 Y46.862 E1.1046
G1 X189.762 Y47.356 E1.11346
G1 X189.414 Y48.057 E1.12648
G1 X189.106 Y48.627 E1.13725
G1 X188.678 Y49.317 E1.15075
G1 X188.097 Y50.118 E1.16721
G1 X187.768 Y50.535 E1.17604
G1 X187.47 Y50.867 E1.18346
G1 X186.749 Y51.586 E1.2004
G1 X186.585 Y51.742 E1.20416
G1 X186.12 Y52.156 E1.21451
G1 X185.636 Y52.533 E1.22472
G1 X185.383 Y52.706 E1.22981
G1 X184.114 Y53.537 E1.25504
G1 X182.07 Y54.815 E1.29513
G1 X179.829 Y56.305 E1.33988
G1 X177.606 Y57.875 E1.38514
G1 X175.417 Y59.516 E1.43064
G1 X173.31 Y61.191 E1.4754
G1 X171.23 Y62.94 E1.52059
G1 X169.186 Y64.764 E1.56615
G1 X167.233 Y66.607 E1.61081
G1 X166.172 Y67.652 E1.63558
G1 X164.035 Y69.789 E1.68583
G1 X162.977 Y70.819 E1.71039
G1 X40.387 Y186.712 E4.51587
G1 X39.872 Y187.185 E4.5275
G1 X39.673 Y187.357 E4.53188
G1 X39.129 Y187.738 E4.54292
G1 X38.738 Y187.961 E4.55041
G1 X38.224 Y188.198 E4.55982
G1 X37.554 Y188.386 E4.57139
G1 X37.31 Y188.432 E4.57552
G1 X36.608 Y188.501 E4.58725
G1 X36.405 Y188.503 E4.59063
G1 X35.565 Y188.422 E4.60466
G1 X35.335 Y188.375 E4.60856
G1 X34.791 Y188.223 E4.61796
G1 X34.127 Y187.915 E4.63013
G1 X33.547 Y187.55 E4.64153
G1 X33.103 Y187.2 E4.65093
G1 X32.572 Y186.612 E4.6641
G1 X32.429 Y186.418 E4.66811
G1 X32.103 Y185.896 E4.67835
G1 X31.985 Y185.67 E4.68259
G1 X31.76 Y185.152 E4.69198
G1 X31.594 Y184.524 E4.70278
G1 X31.558 Y184.323 E4.70618
G1 X31.495 Y183.64 E4.71758
G1 X31.494 Y183.461 E4.72056
G1 X31.559 Y182.719 E4.73295
G1 X31.6 Y182.495 E4.73673
G1 X31.741 Y181.947 E4.74614
G1 X32.009 Y181.327 E4.75738
G1 X32.338 Y180.758 E4.76831
G1 X32.469 Y180.565 E4.77219
G1 X32.841 Y180.097 E4.78213
G1 X33.235 Y179.67 E4.79179
G1 X149.238 Y56.965 E7.59992
G0 F1500 X149.525 Y57.244
G1 F900 X150.549 Y56.192 E7.62433
G1 X152.649 Y54.093 E7.67371
G1 X154.586 Y52.101 E7.71992
G1 X156.443 Y50.083 E7.76552
G1 X158.216 Y48.039 E7.81052
G1 X159.941 Y45.933 E7.85579
G1 X161.615 Y43.768 E7.90131
G1 X163.211 Y41.58 E7.94634
G1 X164.763 Y39.321 E7.99192
G1 X166.257 Y37.008 E8.03771
G1 X166.872 Y35.999 E8.05737
G1 X167.203 Y35.462 E8.06786
G1 X167.284 Y35.337 E8.07033
G1 X167.712 Y34.703 E8.08305
G1 X168.034 Y34.281 E8.09188
G1 X168.271 Y33.999 E8.09801
G1 X168.763 Y33.443 E8.11035
G1 X169.25 Y32.963 E8.12173
G1 X169.636 Y32.629 E8.13021
G1 X170.386 Y32.015 E8.14633
G1 X170.91 Y31.645 E8.157
G1 X171.293 Y31.411 E8.16447
G1 X172.074 Y30.959 E8.17947
G1 X172.491 Y30.752 E8.18721
G1 X173.375 Y30.385 E8.20313
G1 X173.659 Y30.279 E8.20817
G1 X174.236 Y30.083 E8.21831
G1 X174.751 Y29.941 E8.22719
G1 X175.137 Y29.854 E8.23377
G1 X175.853 Y29.707 E8.24593
G1 X176.349 Y29.633 E8.25427
G1 X176.893 Y29.591 E8.26334
G1 X177.002 Y29.585 E8.26516
G1 X177.964 Y29.55 E8.28116
G1 X178.543 Y29.563 E8.2908
G1 X179.005 Y29.604 E8.29851
G1 X180.016 Y29.73 E8.31545
G1 X180.564 Y29.836 E8.32473
G1 X181.25 Y30.017 E8.33653
G1 X181.658 Y30.137 E8.34361
G1 X182.209 Y30.317 E8.35324
G1 X182.718 Y30.52 E8.36236
G1 X183.129 Y30.705 E8.36985
G1 X183.66 Y30.959 E8.37964
G1 X184.167 Y31.229 E8.38919
G1 X184.339 Y31.336 E8.39256
G1 X184.959 Y31.742 E8.40489
G1 X185.47 Y32.098 E8.41524
G1 X185.911 Y32.445 E8.42458
G1 X186.343 Y32.833 E8.43423
G1 X186.426 Y32.912 E8.43614
G1 X187.066 Y33.539 E8.45104
G1 X187.397 Y33.907 E8.45927
G1 X187.964 Y34.624 E8.47447
G1 X188.34 Y35.144 E8.48514
G1 X188.751 Y35.811 E8.49817
G1 X188.965 Y36.204 E8.50561
G1 X189.257 Y36.772 E8.51623
G1 X189.47 Y37.244 E8.52485
G1 X189.675 Y37.796 E8.53464
G1 X189.715 Y37.914 E8.53671
G1 X190.018 Y38.871 E8.5534
G1 X190.123 Y39.289 E8.56057
G1 X190.309 Y40.28 E8.57734
G1 X190.391 Y40.848 E8.58688
G1 X190.43 Y41.359 E8.59541
G1 X190.448 Y42.297 E8.61101
G1 X190.435 Y42.899 E8.62102
G1 X190.35 Y43.729 E8.6349
G1 X190.294 Y44.089 E8.64096
G1 X190.164 Y44.825 E8.65338
G1 X190.013 Y45.435 E8.66384
G1 X189.786 Y46.151 E8.67633
G1 X189.585 Y46.731 E8.68653
G1 X189.308 Y47.383 E8.69832
G1 X189.02 Y47.948 E8.70886
G1 X188.755 Y48.436 E8.7181
G1 X188.354 Y49.082 E8.73074
G1 X187.773 Y49.883 E8.7472
G1 X187.456 Y50.285 E8.75571
G1 X187.188 Y50.584 E8.76239
G1 X186.467 Y51.303 E8.77932
G1 X186.319 Y51.443 E8.78271
G1 X185.854 Y51.857 E8.79306
G1 X185.408 Y52.204 E8.80246
G1 X185.164 Y52.372 E8.80739
G1 X183.902 Y53.198 E8.83247
G1 X181.859 Y54.475 E8.87254
G1 X179.582 Y55.989 E8.91801
G1 X177.381 Y57.544 E8.96283
G1 X175.174 Y59.198 E9.00869
G1 X173.067 Y60.873 E9.05345
G1 X170.955 Y62.65 E9.09936
G1 X168.926 Y64.459 E9.14456
G1 X166.937 Y66.336 E9.19004
G1 X165.891 Y67.367 E9.21447
G1 X163.756 Y69.503 E9.26469
G1 X162.702 Y70.528 E9.28914
G1 X40.116 Y186.417 E12.09453
G1 X39.601 Y186.89 E12.10616
G1 X39.417 Y187.05 E12.11021
G1 X38.927 Y187.393 E12.12016
G1 X38.546 Y187.611 E12.12746
G1 X38.058 Y187.833 E12.13637
G1 X37.48 Y187.993 E12.14635
G1 X37.236 Y188.039 E12.15048
G1 X36.604 Y188.101 E12.16104
G1 X36.401 Y188.103 E12.16441
G1 X35.645 Y188.03 E12.17704
G1 X35.415 Y187.983 E12.18095
G1 X34.899 Y187.837 E12.18987
G1 X34.328 Y187.569 E12.20036
G1 X33.772 Y187.219 E12.21128
G1 X33.352 Y186.886 E12.2202
G1 X32.894 Y186.375 E12.23161
G1 X32.751 Y186.181 E12.23562
G1 X32.458 Y185.711 E12.24483
G1 X32.34 Y185.485 E12.24907
G1 X32.128 Y184.993 E12.25798
G1 X31.987 Y184.454 E12.26724
G1 X31.951 Y184.253 E12.27064
G1 X31.895 Y183.638 E12.28091
G1 X31.894 Y183.459 E12.28388
G1 X31.953 Y182.791 E12.29504
G1 X31.994 Y182.567 E12.29882
G1 X32.129 Y182.048 E12.30774
G1 X32.361 Y181.515 E12.31741
G1 X32.669 Y180.982 E12.32764
G1 X32.8 Y180.789 E12.33152
G1 X33.134 Y180.368 E12.34046
G1 X33.526 Y179.945 E12.35005
G1 X149.525 Y57.244 E15.15809
G0 F1500 X149.812 Y57.523
G1 F900 X150.832 Y56.475 E15.18241
G1 X152.936 Y54.372 E15.23188
G1 X154.885 Y52.368 E15.27837
G1 X156.733 Y50.358 E15.32377
G1 X158.526 Y48.291 E15.36928
G1 X160.254 Y46.182 E15.41462
G1 X161.935 Y44.009 E15.46031
G1 X163.548 Y41.797 E15.50584
G1 X165.096 Y39.543 E15.55131
G1 X166.573 Y37.257 E15.59657
G1 X167.213 Y36.209 E15.61699
G1 X167.544 Y35.672 E15.62748
G1 X167.616 Y35.561 E15.62968
G1 X168.044 Y34.927 E15.6424
G1 X168.396 Y34.471 E15.65198
G1 X168.571 Y34.264 E15.65649
G1 X169.063 Y33.708 E15.66884
G1 X169.512 Y33.265 E15.67933
G1 X169.889 Y32.939 E15.68762
G1 X170.639 Y32.325 E15.70373
G1 X171.119 Y31.986 E15.71351
G1 X171.493 Y31.757 E15.7208
G1 X172.274 Y31.305 E15.73581
G1 X172.645 Y31.121 E15.74269
G1 X173.434 Y30.792 E15.75691
G1 X173.788 Y30.658 E15.7632
G1 X174.365 Y30.462 E15.77334
G1 X174.85 Y30.328 E15.78171
G1 X175.217 Y30.245 E15.78796
G1 X175.933 Y30.098 E15.80012
G1 X176.608 Y30.012 E15.81143
G1 X177.017 Y29.985 E15.81825
G1 X177.979 Y29.95 E15.83426
G1 X178.527 Y29.962 E15.84338
G1 X178.956 Y30.001 E15.85054
G1 X179.967 Y30.127 E15.86748
G1 X180.463 Y30.223 E15.87588
G1 X181.139 Y30.401 E15.88751
G1 X181.534 Y30.517 E15.89436
G1 X182.085 Y30.697 E15.90399
G1 X182.554 Y30.885 E15.9124
G1 X182.957 Y31.066 E15.91974
G1 X183.488 Y31.32 E15.92953
G1 X183.961 Y31.572 E15.93845
G1 X184.12 Y31.67 E15.94155
G1 X184.73 Y32.07 E15.95368
G1 X185.241 Y32.426 E15.96404
G1 X185.658 Y32.755 E15.97287
G1 X186.072 Y33.128 E15.98214
G1 X186.146 Y33.198 E15.98383
G1 X186.786 Y33.825 E15.99873
G1 X187.083 Y34.155 E16.00612
G1 X187.65 Y34.872 E16.02132
G1 X188.014 Y35.375 E16.03164
G1 X188.404 Y36.011 E16.04405
G1 X188.609 Y36.387 E16.05117
G1 X188.901 Y36.955 E16.06179
G1 X189.184 Y37.609 E16.07364
G1 X189.334 Y38.035 E16.08116
G1 X189.637 Y38.992 E16.09785
G1 X189.73 Y39.364 E16.10423
G1 X189.914 Y40.341 E16.12076
G1 X189.993 Y40.886 E16.12992
G1 X190.03 Y41.367 E16.13794
G1 X190.048 Y42.293 E16.15334
G1 X190.035 Y42.886 E16.16321
G1 X189.953 Y43.677 E16.17643
G1 X189.9 Y44.02 E16.1822
G1 X189.77 Y44.756 E16.19463
G1 X189.632 Y45.314 E16.20419
G1 X189.408 Y46.02 E16.21651
G1 X189.207 Y46.6 E16.22672
G1 X188.945 Y47.214 E16.23782
G1 X188.703 Y47.692 E16.24673
G1 X188.403 Y48.245 E16.25719
G1 X188.03 Y48.847 E16.26897
G1 X187.449 Y49.648 E16.28542
G1 X186.906 Y50.301 E16.29955
G1 X186.185 Y51.02 E16.31648
G1 X186.053 Y51.144 E16.31949
G1 X185.588 Y51.558 E16.32985
G1 X185.18 Y51.875 E16.33844
G1 X184.944 Y52.037 E16.3432
G1 X183.69 Y52.858 E16.36813
G1 X181.656 Y54.13 E16.40802
G1 X179.376 Y55.645 E16.45354
G1 X177.133 Y57.23 E16.49922
G1 X174.93 Y58.881 E16.545
G1 X172.784 Y60.587 E16.59059
G1 X170.714 Y62.328 E16.63557
G1 X168.651 Y64.169 E16.68156
G1 X166.684 Y66.025 E16.72653
G1 X165.611 Y67.082 E16.75158
G1 X163.477 Y69.216 E16.80177
G1 X162.427 Y70.237 E16.82612
G1 X39.846 Y186.123 E19.63142
G1 X39.331 Y186.596 E19.64305
G1 X39.161 Y186.742 E19.64677
G1 X38.725 Y187.048 E19.65563
G1 X38.353 Y187.26 E19.66275
G1 X37.892 Y187.468 E19.67116
G1 X37.406 Y187.6 E19.67954
G1 X37.162 Y187.646 E19.68367
G1 X36.601 Y187.701 E19.69304
G1 X36.398 Y187.703 E19.69642
G1 X35.725 Y187.638 E19.70766
G1 X35.495 Y187.591 E19.71156
G1 X35.01 Y187.451 E19.71996
G1 X34.529 Y187.223 E19.72881
G1 X33.996 Y186.888 E19.73928
G1 X33.602 Y186.572 E19.74768
G1 X33.216 Y186.138 E19.75734
G1 X32.812 Y185.526 E19.76953
G1 X32.694 Y185.3 E19.77377
G1 X32.497 Y184.835 E19.78217
G1 X32.345 Y184.182 E19.79332
G1 X32.295 Y183.636 E19.80244
G1 X32.294 Y183.457 E19.80542
G1 X32.346 Y182.863 E19.81533
G1 X32.387 Y182.639 E19.81912
G1 X32.517 Y182.15 E19.82753
G1 X32.827 Y181.493 E19.83962
G1 X33.131 Y181.014 E19.84905
G1 X33.428 Y180.64 E19.85699
G1 X33.817 Y180.22 E19.86651
G1 X149.812 Y57.523 E22.67445
G1 F1800 E15.67445
G1 F300 Z0.3
G0 F1500 X152.739 Y59.375 Z0.3
;TYPE:SUPPORT
G1 F300 Z0.1
G1 F1800 E22.67445
G1 F900 X168.071 Y44.045 E23.03502
G1 X168.275 Y44.927 E23.05007
G1 X168.418 Y45.371 E23.05783
G1 X168.793 Y46.3 E23.07449
G1 X169.001 Y46.743 E23.08263
G1 X169.652 Y47.829 E23.10368
G1 X169.817 Y48.054 E23.10832
G1 X170.375 Y48.75 E23.12316
G1 X170.458 Y48.844 E23.12524
G1 X171.137 Y49.524 E23.14122
G1 X171.397 Y49.744 E23.14689
G1 X171.903 Y50.147 E23.15765
G1 X172.221 Y50.378 E23.16418
G1 X173.345 Y51.045 E23.18592
G1 X173.65 Y51.189 E23.19153
G1 X174.806 Y51.646 E23.2122
G1 X175.202 Y51.761 E23.21906
G1 X175.957 Y51.924 E23.2319
G1 X160.601 Y67.285 E23.59311
G1 X37.049 Y184.089 E26.42063
G1 X36.741 Y184.278 E26.42664
G1 X36.46 Y184.326 E26.43138
G1 X36.181 Y184.267 E26.43612
G1 X35.899 Y184.082 E26.44173
G1 X35.723 Y183.8 E26.44726
G1 X35.674 Y183.533 E26.45177
G1 X35.717 Y183.276 E26.4561
G1 X35.876 Y182.99 E26.46155
G1 X152.739 Y59.375 E29.2905
G1 F1800 E22.2905
G1 F300 Z0.3
G0 F1500 X149.655 Y66.639 Z0.3
G1 F300 Z0.1
G1 F1800 E29.2905
G1 F900 X149.09 Y66.675 E29.29991
G1 X148.554 Y66.79 E29.30903
G1 X148.04 Y66.982 E29.31815
G1 X147.532 Y67.268 E29.32785
G1 X147.09 Y67.615 E29.33719
G1 X146.719 Y68.001 E29.3461
G1 X146.378 Y68.487 E29.35597
G1 X146.138 Y68.975 E29.36501
G1 X145.963 Y69.532 E29.37472
G1 X145.88 Y70.03 E29.38312
G1 X145.872 Y70.645 E29.39335
G1 X145.943 Y71.168 E29.40212
G1 X146.101 Y71.714 E29.41158
G1 X146.33 Y72.209 E29.42065
G1 X146.662 Y72.704 E29.43056
G1 X147.023 Y73.105 E29.43953
G1 X147.467 Y73.461 E29.449
G1 X147.941 Y73.748 E29.45821
G1 X148.47 Y73.96 E29.46769
G1 X149.01 Y74.091 E29.47693
G1 X149.592 Y74.138 E29.48664
G1 X150.104 Y74.105 E29.49517
G1 X150.665 Y73.989 E29.5047
G1 X151.196 Y73.79 E29.51413
G1 X151.679 Y73.513 E29.52339
G1 X152.137 Y73.163 E29.53297
G1 X152.514 Y72.76 E29.54215
G1 X152.821 Y72.329 E29.55095
G1 X153.094 Y71.789 E29.56101
G1 X153.264 Y71.227 E29.57078
G1 X153.347 Y70.738 E29.57903
G1 X153.354 Y70.132 E29.58911
G1 X153.28 Y69.595 E29.59812
G1 X153.111 Y69.05 E29.60761
G1 X152.899 Y68.582 E29.61615
G1 X152.564 Y68.069 E29.62634
G1 X152.186 Y67.669 E29.63549
G1 X151.775 Y67.33 E29.64435
G1 X151.269 Y67.021 E29.65421
G1 X150.752 Y66.817 E29.66346
G1 X150.225 Y66.692 E29.67246
G1 X149.655 Y66.639 E29.68198
G0 F1500 X149.352 Y66.458
G1 F900 X149.352 Y63.247 E29.73538
G0 F1500 X148.633 Y64.008
G1 F900 X163.593 Y64.008 E29.98417
G0 F1500 X162.687 Y64.917
G1 F900 X162.687 Y49.71 E30.23706
G0 F1500 X161.724 Y50.673
G1 F900 X172.329 Y50.673 E30.41343
G0 F1500 X173.355 Y51.272
G1 F900 X173.355 Y54.245 E30.46287
G0 F1500 X174.258 Y53.34
G1 F900 X159.056 Y53.34 E30.71568
G0 F1500 X160.02 Y52.376
G1 F900 X160.02 Y67.56 E30.96819
G0 F1500 X160.927 Y66.675
G1 F900 X150.938 Y66.675 E31.13431
G0 F1500 X152.019 Y67.272
G1 F900 X152.019 Y60.426 E31.24815
G0 F1500 X151.154 Y61.341
G1 F900 X166.26 Y61.341 E31.49937
G0 F1500 X165.354 Y62.249
G1 F900 X165.354 Y47.043 E31.75225
G0 F1500 X164.391 Y48.006
G1 F900 X169.535 Y48.006 E31.83779
G1 F1800 E24.83779
G1 F300 Z0.3
G0 F1500 X170.688 Y49.358 Z0.3
G1 F300 Z0.1
G1 F1800 E31.83779
