;FLAVOR:Marlin
;TIME:7961
;Filament used: 3.53942m
;Layer height: 0.2
;MINX:49.051
;MINY:68.345
;MINZ:0.2
;MAXX:134.726
;MAXY:163.728
;MAXZ:3.2
;Generated with Cura_SteamEngine master
M82 ;absolute extrusion mode
;Sliced at: Sun 04-12-2022 01:26:48
;Basic settings: Layer height: 0.2 Walls: 0.8 Fill: 30.0
G21 ;metric values
G90 ;absolute positioning
M82 ;set extruder to absolute mode
M107 ;start with the fan off
M117 Start heating ...
M104 S200
M117 Homing X/Y ...
G28 X0 Y0 ;move X/Y to min endstops
M117 Homing Z ...
G28 Z0 ;move Z to min endstops
G1 Z15.0 F100 ;move the platform down 15mm
M117 Heating ...
M109 S200
M117 Start cleaning ...
G92 E0 ;zero the extruded length
G1 F200 E10 ;extrude 10mm of feed stock
G92 E0 ;zero the extruded length again
M117 Intro line ...
G1 Z2.0 F3000 ; Move Z Axis up little to prevent scratching of Heat Bed
G1 X0.1 Y20 Z0.2 F5000.0 ; Move to start position
G1 X0.1 Y200.0 Z0.2 F1500.0 E15 ; Draw the first line
G1 X0.4 Y200.0 Z0.2 F5000.0 ; Move to side a little
G1 X0.4 Y20 Z0.3 F1500.0 E30 ; Draw the second line
G92 E0 ; Reset Extruder
G1 E-1 F500 ; Retract filiment by 1 mm
G1 Z2.0 F3000 ; Move Z Axis up little to prevent scratching of Heat Bed
G1 X5 Y20 Z0.3 F100 ; Move over to prevent blob squish
G1 F100
G92 E0 ; Reset Extruder
M117 Printing...

G92 E0
G92 E0
G1 F1800 E-7
;LAYER_COUNT:15
;LAYER:0
M107
G1 F300 Z0.4
G0 F3000 X58.987 Y81.352 Z0.4
;TYPE:SKIRT
G1 F300 Z0.2
G1 F1800 E0
G1 F1200 X59.444 Y81.019 E0.01881
G1 X59.944 Y80.754 E0.03763
G1 X60.476 Y80.563 E0.05643
G1 X61.31 Y80.42 E0.08457
G1 X62.629 Y80.336 E0.12853
G1 X62.714 Y80.322 E0.1314
G1 X64.42 Y80.208 E0.18826
G1 X67.115 Y79.952 E0.2783
G1 X69.839 Y79.614 E0.3696
G1 X72.486 Y79.209 E0.45866
G1 X75.193 Y78.717 E0.55017
G1 X77.793 Y78.17 E0.63854
G1 X80.476 Y77.523 E0.73034
G1 X83.096 Y76.812 E0.82063
G1 X85.708 Y76.024 E0.91137
G1 X88.27 Y75.171 E1.00119
G1 X90.811 Y74.245 E1.09114
G1 X93.362 Y73.233 E1.18242
G1 X95.808 Y72.181 E1.27098
G1 X98.168 Y71.07 E1.35773
G1 X99.162 Y70.609 E1.39418
G1 X99.955 Y70.259 E1.42301
G1 X100.104 Y70.197 E1.42837
G1 X100.845 Y69.905 E1.45486
G1 X101.012 Y69.843 E1.46079
G1 X101.752 Y69.589 E1.48681
G1 X101.914 Y69.537 E1.49247
G1 X102.69 Y69.307 E1.51939
G1 X103.027 Y69.217 E1.53099
G1 X103.969 Y68.988 E1.56323
G1 X104.19 Y68.94 E1.57076
G1 X105.009 Y68.781 E1.5985
G1 X105.223 Y68.746 E1.60572
G1 X106.835 Y68.523 E1.65984
G1 X106.977 Y68.506 E1.6646
G1 X107.6 Y68.443 E1.68543
G1 X107.926 Y68.419 E1.6963
G1 X108.963 Y68.361 E1.73084
G1 X109.284 Y68.352 E1.74152
G1 X110.739 Y68.345 E1.78992
G1 X111.318 Y68.36 E1.80918
G1 X111.449 Y68.366 E1.81354
G1 X112.287 Y68.418 E1.84147
G1 X112.426 Y68.429 E1.84611
G1 X113.248 Y68.509 E1.87358
G1 X113.392 Y68.525 E1.87839
G1 X114.057 Y68.614 E1.90071
G1 X114.208 Y68.638 E1.9058
G1 X115.017 Y68.778 E1.9331
G1 X115.171 Y68.807 E1.93831
G1 X115.901 Y68.963 E1.96314
G1 X116.053 Y68.999 E1.96834
G1 X116.72 Y69.169 E1.99123
G1 X116.883 Y69.214 E1.99686
G1 X117.655 Y69.446 E2.02367
G1 X117.812 Y69.497 E2.02916
G1 X118.5 Y69.735 E2.05337
G1 X118.659 Y69.794 E2.05901
G1 X119.542 Y70.142 E2.09058
G1 X120.12 Y70.394 E2.11155
G1 X120.777 Y70.715 E2.13587
G1 X120.927 Y70.792 E2.14148
G1 X121.56 Y71.135 E2.16543
G1 X121.721 Y71.228 E2.17161
G1 X122.324 Y71.592 E2.19504
G1 X122.461 Y71.678 E2.20042
G1 X123.067 Y72.078 E2.22457
G1 X123.217 Y72.182 E2.23064
G1 X123.798 Y72.605 E2.25454
G1 X123.934 Y72.708 E2.26022
G1 X124.515 Y73.17 E2.2849
G1 X124.644 Y73.278 E2.2905
G1 X125.086 Y73.661 E2.30995
G1 X125.231 Y73.793 E2.31647
G1 X126.138 Y74.66 E2.35821
G1 X126.502 Y75.03 E2.37547
G1 X126.727 Y75.272 E2.38646
G1 X127.342 Y75.97 E2.4174
G1 X127.496 Y76.154 E2.42538
G1 X127.989 Y76.77 E2.45162
G1 X128.108 Y76.925 E2.45812
G1 X128.75 Y77.813 E2.49457
G1 X128.838 Y77.941 E2.49973
G1 X129.347 Y78.706 E2.5303
G1 X129.436 Y78.846 E2.53581
G1 X130.071 Y79.892 E2.57651
G1 X130.369 Y80.419 E2.59665
G1 X130.641 Y80.933 E2.61599
G1 X131.086 Y81.827 E2.64921
G1 X131.228 Y82.129 E2.66031
G1 X131.655 Y83.098 E2.69552
G1 X131.807 Y83.471 E2.70892
G1 X132.244 Y84.608 E2.74944
G1 X132.337 Y84.871 E2.75871
G1 X132.658 Y85.824 E2.79216
G1 X132.824 Y86.36 E2.81082
G1 X133.123 Y87.398 E2.84675
G1 X133.334 Y88.223 E2.87507
G1 X133.571 Y89.222 E2.90922
G1 X133.597 Y89.339 E2.91321
G1 X133.759 Y90.131 E2.9401
G1 X133.967 Y91.233 E2.9774
G1 X134.001 Y91.436 E2.98424
G1 X134.146 Y92.374 E3.01581
G1 X134.271 Y93.262 E3.04564
G1 X134.318 Y93.656 E3.05883
G1 X134.444 Y94.823 E3.09787
G1 X134.545 Y95.918 E3.13445
G1 X134.561 Y96.14 E3.14185
G1 X134.621 Y97.141 E3.1752
G1 X134.708 Y99.33 E3.24807
G1 X134.722 Y100.048 E3.27195
G1 X134.726 Y101.748 E3.3285
G1 X134.69 Y103.097 E3.37338
G1 X134.685 Y103.221 E3.37751
G1 X134.593 Y104.781 E3.42948
G1 X134.583 Y104.912 E3.43385
G1 X134.456 Y106.293 E3.47998
G1 X134.443 Y106.416 E3.48409
G1 X134.294 Y107.614 E3.52425
G1 X134.136 Y108.642 E3.55884
G1 X134.114 Y108.769 E3.56313
G1 X133.912 Y109.849 E3.59967
G1 X133.885 Y109.981 E3.60415
G1 X133.663 Y110.981 E3.63822
G1 X133.629 Y111.122 E3.64305
G1 X133.373 Y112.105 E3.67683
G1 X133.333 Y112.247 E3.68174
G1 X133.034 Y113.243 E3.71632
G1 X132.988 Y113.386 E3.72132
G1 X132.641 Y114.402 E3.75703
G1 X132.448 Y114.917 E3.77532
G1 X131.508 Y117.506 E3.86693
G1 X130.646 Y120.114 E3.95829
G1 X129.876 Y122.679 E4.04736
G1 X129.165 Y125.32 E4.13833
G1 X128.523 Y128.01 E4.23031
G1 X127.98 Y130.602 E4.3184
G1 X127.49 Y133.318 E4.41019
G1 X127.087 Y135.984 E4.49987
G1 X126.761 Y138.65 E4.5892
G1 X126.507 Y141.372 E4.68013
G1 X126.328 Y144.113 E4.77149
G1 X126.23 Y146.771 E4.85995
G1 X126.216 Y147.622 E4.88826
G1 X126.21 Y147.797 E4.89408
G1 X126.15 Y148.359 E4.91288
G1 X126.012 Y148.908 E4.93171
G1 X125.799 Y149.431 E4.95049
G1 X125.513 Y149.919 E4.96931
G1 X125.162 Y150.362 E4.9881
G1 X124.751 Y150.751 E5.00693
G1 X124.29 Y151.078 E5.02573
G1 X123.788 Y151.337 E5.04451
G1 X123.254 Y151.522 E5.06331
G1 X122.465 Y151.652 E5.08991
G1 X121.182 Y151.733 E5.13266
G1 X121.076 Y151.75 E5.13623
G1 X120.053 Y151.811 E5.17032
G1 X117.315 Y152.052 E5.26174
G1 X114.63 Y152.364 E5.35164
G1 X111.942 Y152.755 E5.44199
G1 X109.302 Y153.216 E5.53112
G1 X106.628 Y153.76 E5.62188
G1 X103.974 Y154.38 E5.71253
G1 X101.359 Y155.068 E5.80247
G1 X98.723 Y155.844 E5.89386
G1 X96.15 Y156.68 E5.98384
G1 X93.618 Y157.581 E6.07323
G1 X91.088 Y158.565 E6.16352
G1 X88.568 Y159.627 E6.25447
G1 X86.105 Y160.749 E6.34449
G1 X84.839 Y161.36 E6.39125
G1 X84.631 Y161.457 E6.39888
G1 X83.848 Y161.805 E6.42738
G1 X83.687 Y161.872 E6.43318
G1 X83.092 Y162.106 E6.45444
G1 X82.899 Y162.177 E6.46128
G1 X81.61 Y162.609 E6.5065
G1 X81.074 Y162.769 E6.5251
G1 X80.67 Y162.876 E6.539
G1 X79.792 Y163.089 E6.56905
G1 X79.613 Y163.128 E6.57515
G1 X78.781 Y163.29 E6.60334
G1 X78.564 Y163.326 E6.61066
G1 X76.941 Y163.55 E6.66515
G1 X76.794 Y163.568 E6.67007
G1 X76.147 Y163.632 E6.6917
G1 X75.872 Y163.653 E6.70087
G1 X74.846 Y163.71 E6.73505
G1 X74.461 Y163.721 E6.74786
G1 X73.047 Y163.728 E6.79489
G1 X72.461 Y163.713 E6.81439
G1 X72.329 Y163.707 E6.81878
G1 X71.49 Y163.655 E6.84674
G1 X71.348 Y163.644 E6.85148
G1 X70.519 Y163.563 E6.87918
G1 X70.381 Y163.547 E6.8838
G1 X69.727 Y163.46 E6.90575
G1 X69.573 Y163.437 E6.91092
G1 X68.786 Y163.301 E6.93749
G1 X68.632 Y163.271 E6.94271
G1 X67.854 Y163.105 E6.96917
G1 X67.689 Y163.066 E6.9748
G1 X66.984 Y162.884 E6.99902
G1 X66.835 Y162.842 E7.00417
G1 X66.155 Y162.638 E7.02778
G1 X65.995 Y162.587 E7.03337
G1 X65.036 Y162.255 E7.06712
G1 X64.563 Y162.07 E7.08402
G1 X63.44 Y161.57 E7.1249
G1 X62.857 Y161.284 E7.1465
G1 X62.218 Y160.938 E7.17067
G1 X62.059 Y160.847 E7.17676
G1 X61.458 Y160.485 E7.2001
G1 X61.318 Y160.397 E7.2056
G1 X60.712 Y159.997 E7.22975
G1 X60.565 Y159.895 E7.2357
G1 X60.112 Y159.566 E7.25432
G1 X59.95 Y159.442 E7.26111
G1 X58.946 Y158.631 E7.30403
G1 X58.545 Y158.28 E7.32176
G1 X57.639 Y157.414 E7.36344
G1 X57.275 Y157.043 E7.38073
G1 X57.045 Y156.796 E7.39195
G1 X56.421 Y156.087 E7.42337
G1 X56.306 Y155.95 E7.42932
G1 X55.798 Y155.318 E7.45629
G1 X55.671 Y155.151 E7.46326
G1 X54.995 Y154.213 E7.50172
G1 X54.908 Y154.088 E7.50679
G1 X54.415 Y153.346 E7.53642
G1 X54.329 Y153.21 E7.54177
G1 X53.727 Y152.22 E7.5803
G1 X53.422 Y151.681 E7.6009
G1 X53.176 Y151.219 E7.61831
G1 X52.698 Y150.261 E7.65392
G1 X52.513 Y149.862 E7.66855
G1 X52.142 Y149.02 E7.69915
G1 X51.951 Y148.555 E7.71587
G1 X51.568 Y147.563 E7.75124
G1 X51.438 Y147.199 E7.7641
G1 X51.11 Y146.223 E7.79834
G1 X50.94 Y145.669 E7.81762
G1 X50.665 Y144.714 E7.85067
G1 X50.436 Y143.821 E7.88133
G1 X50.187 Y142.765 E7.91742
G1 X50.15 Y142.593 E7.92327
G1 X50.003 Y141.87 E7.94781
G1 X49.829 Y140.949 E7.97898
G1 X49.808 Y140.829 E7.98303
G1 X49.639 Y139.756 E8.01916
G1 X49.492 Y138.705 E8.05446
G1 X49.457 Y138.405 E8.06451
G1 X49.328 Y137.21 E8.10448
G1 X49.239 Y136.256 E8.13635
G1 X49.159 Y135.013 E8.17778
G1 X49.069 Y132.8 E8.25144
G1 X49.054 Y132.035 E8.27689
G1 X49.051 Y130.314 E8.33413
G1 X49.088 Y128.969 E8.37888
G1 X49.093 Y128.851 E8.38281
G1 X49.183 Y127.303 E8.43439
G1 X49.193 Y127.17 E8.43882
G1 X49.336 Y125.627 E8.49036
G1 X49.459 Y124.633 E8.52368
G1 X49.475 Y124.517 E8.52757
G1 X49.65 Y123.378 E8.5659
G1 X49.672 Y123.25 E8.57022
G1 X49.866 Y122.212 E8.60534
G1 X49.893 Y122.079 E8.60985
G1 X50.106 Y121.121 E8.6425
G1 X50.139 Y120.984 E8.64718
G1 X50.409 Y119.944 E8.68292
G1 X50.45 Y119.8 E8.6879
G1 X50.717 Y118.91 E8.7188
G1 X50.764 Y118.763 E8.72394
G1 X51.196 Y117.506 E8.76815
G1 X51.318 Y117.184 E8.7796
G1 X52.246 Y114.632 E8.86992
G1 X53.104 Y112.047 E8.96051
G1 X53.889 Y109.434 E9.05125
G1 X54.587 Y106.853 E9.14018
G1 X55.238 Y104.14 E9.23298
G1 X55.783 Y101.549 E9.32104
G1 X56.268 Y98.873 E9.41149
G1 X56.68 Y96.158 E9.50283
G1 X57.01 Y93.475 E9.59274
G1 X57.265 Y90.778 E9.68284
G1 X57.444 Y88.071 E9.77307
G1 X57.547 Y85.329 E9.86433
G1 X57.564 Y84.322 E9.89783
G1 X57.617 Y83.759 E9.91664
G1 X57.748 Y83.209 E9.93545
G1 X57.956 Y82.684 E9.95423
G1 X58.235 Y82.192 E9.97304
G1 X58.582 Y81.745 E9.99186
G1 X58.987 Y81.352 E10.01063
G0 F3000 X59.374 Y81.554
G1 F1200 X59.823 Y81.261 E10.02846
G1 X60.31 Y81.037 E10.04629
G1 X60.825 Y80.888 E10.06412
G1 X61.335 Y80.819 E10.08124
G1 X62.606 Y80.738 E10.1236
G1 X62.74 Y80.721 E10.12809
G1 X64.451 Y80.607 E10.18513
G1 X67.166 Y80.348 E10.27584
G1 X69.877 Y80.012 E10.3667
G1 X72.58 Y79.599 E10.45764
G1 X75.248 Y79.114 E10.54783
G1 X77.897 Y78.556 E10.63787
G1 X80.57 Y77.912 E10.72932
G1 X83.212 Y77.195 E10.82037
G1 X85.813 Y76.411 E10.91073
G1 X88.418 Y75.543 E11.00205
G1 X90.96 Y74.617 E11.09204
G1 X93.489 Y73.613 E11.18254
G1 X95.993 Y72.536 E11.2732
G1 X98.337 Y71.432 E11.35937
G1 X99.323 Y70.975 E11.39552
G1 X100.116 Y70.625 E11.42435
G1 X100.25 Y70.569 E11.42918
G1 X100.991 Y70.277 E11.45567
G1 X101.142 Y70.221 E11.46103
G1 X101.882 Y69.967 E11.48705
G1 X102.028 Y69.92 E11.49215
G1 X102.904 Y69.662 E11.52252
G1 X103.122 Y69.605 E11.53002
G1 X104.056 Y69.378 E11.56199
G1 X104.266 Y69.333 E11.56913
G1 X105.085 Y69.174 E11.59688
G1 X105.278 Y69.142 E11.60339
G1 X106.89 Y68.919 E11.65751
G1 X107.017 Y68.904 E11.66176
G1 X107.63 Y68.842 E11.68226
G1 X107.949 Y68.819 E11.69289
G1 X108.977 Y68.761 E11.72714
G1 X109.286 Y68.752 E11.73742
G1 X110.741 Y68.745 E11.78582
G1 X111.307 Y68.76 E11.80465
G1 X111.424 Y68.765 E11.80854
G1 X112.262 Y68.817 E11.83647
G1 X112.388 Y68.827 E11.84067
G1 X113.21 Y68.907 E11.86814
G1 X113.339 Y68.922 E11.87246
G1 X114.004 Y69.011 E11.89478
G1 X114.14 Y69.032 E11.89935
G1 X114.949 Y69.172 E11.92666
G1 X115.087 Y69.198 E11.93133
G1 X115.817 Y69.354 E11.95616
G1 X115.954 Y69.387 E11.96085
G1 X116.621 Y69.557 E11.98374
G1 X116.768 Y69.597 E11.98881
G1 X117.54 Y69.829 E12.01562
G1 X117.681 Y69.875 E12.02055
G1 X118.369 Y70.113 E12.04476
G1 X118.512 Y70.166 E12.04984
G1 X119.395 Y70.514 E12.0814
G1 X119.944 Y70.753 E12.10132
G1 X120.601 Y71.074 E12.12564
G1 X120.736 Y71.144 E12.1307
G1 X121.369 Y71.487 E12.15464
G1 X121.514 Y71.57 E12.1602
G1 X122.117 Y71.934 E12.18363
G1 X122.24 Y72.011 E12.18845
G1 X122.846 Y72.411 E12.2126
G1 X122.982 Y72.506 E12.21812
G1 X123.563 Y72.929 E12.24203
G1 X123.685 Y73.021 E12.24711
G1 X124.266 Y73.483 E12.2718
G1 X124.383 Y73.58 E12.27685
G1 X124.825 Y73.963 E12.2963
G1 X124.955 Y74.082 E12.30217
G1 X125.862 Y74.949 E12.3439
G1 X126.214 Y75.309 E12.36064
G1 X126.427 Y75.536 E12.371
G1 X127.037 Y76.228 E12.40168
G1 X127.184 Y76.404 E12.40931
G1 X127.677 Y77.02 E12.43555
G1 X127.783 Y77.16 E12.44139
G1 X128.425 Y78.048 E12.47783
G1 X128.505 Y78.163 E12.48249
G1 X129.014 Y78.928 E12.51305
G1 X129.094 Y79.054 E12.51802
G1 X129.794 Y80.21 E12.56297
G1 X130.061 Y80.689 E12.58121
G1 X130.283 Y81.112 E12.5971
G1 X130.725 Y81.999 E12.63006
G1 X130.862 Y82.291 E12.64078
G1 X131.285 Y83.251 E12.67568
G1 X131.434 Y83.615 E12.68876
G1 X131.867 Y84.742 E12.72891
G1 X131.958 Y84.999 E12.73798
G1 X132.279 Y85.952 E12.77143
G1 X132.46 Y86.54 E12.79189
G1 X132.767 Y87.614 E12.82904
G1 X132.945 Y88.315 E12.8531
G1 X133.182 Y89.314 E12.88725
G1 X133.355 Y90.148 E12.91558
G1 X133.572 Y91.299 E12.95453
G1 X133.605 Y91.497 E12.96121
G1 X133.75 Y92.43 E12.99261
G1 X133.886 Y93.405 E13.02536
G1 X133.92 Y93.699 E13.0352
G1 X134.045 Y94.86 E13.07404
G1 X134.146 Y95.946 E13.11032
G1 X134.217 Y97.083 E13.14821
G1 X134.306 Y99.265 E13.22084
G1 X134.322 Y100.049 E13.24692
G1 X134.325 Y101.857 E13.30706
G1 X134.291 Y103.086 E13.34795
G1 X134.286 Y103.198 E13.35168
G1 X134.194 Y104.758 E13.40365
G1 X134.185 Y104.876 E13.40759
G1 X134.058 Y106.257 E13.45371
G1 X133.913 Y107.446 E13.49355
G1 X133.74 Y108.581 E13.53174
G1 X133.721 Y108.696 E13.53562
G1 X133.519 Y109.776 E13.57216
G1 X133.272 Y110.894 E13.61024
G1 X133.242 Y111.021 E13.61458
G1 X132.986 Y112.004 E13.64837
G1 X132.95 Y112.132 E13.65279
G1 X132.651 Y113.128 E13.68738
G1 X132.61 Y113.257 E13.69188
G1 X132.263 Y114.273 E13.72759
G1 X132.054 Y114.829 E13.74735
G1 X131.125 Y117.389 E13.83792
G1 X130.269 Y119.978 E13.92862
G1 X129.483 Y122.597 E14.01957
G1 X128.775 Y125.228 E14.11019
G1 X128.135 Y127.906 E14.20177
G1 X127.587 Y130.52 E14.2906
G1 X127.1 Y133.224 E14.38198
G1 X126.69 Y135.942 E14.4734
G1 X126.36 Y138.636 E14.56368
G1 X126.107 Y141.345 E14.65417
G1 X125.931 Y144.038 E14.74393
G1 X125.829 Y146.802 E14.83592
G1 X125.816 Y147.608 E14.86273
G1 X125.81 Y147.783 E14.86856
G1 X125.752 Y148.316 E14.88639
G1 X125.615 Y148.835 E14.90424
G1 X125.403 Y149.327 E14.92206
G1 X125.119 Y149.783 E14.93993
G1 X124.772 Y150.191 E14.95774
G1 X124.367 Y150.543 E14.97559
G1 X123.915 Y150.832 E14.99344
G1 X123.425 Y151.049 E15.01126
G1 X122.908 Y151.192 E15.0291
G1 X122.439 Y151.253 E15.04483
G1 X121.229 Y151.33 E15.08516
G1 X121.053 Y151.351 E15.09105
G1 X119.993 Y151.414 E15.12637
G1 X117.301 Y151.651 E15.21625
G1 X114.597 Y151.966 E15.3068
G1 X111.858 Y152.364 E15.39885
G1 X109.226 Y152.823 E15.48772
G1 X106.556 Y153.366 E15.57834
G1 X103.853 Y153.998 E15.67066
G1 X101.259 Y154.681 E15.75988
G1 X98.624 Y155.456 E15.85123
G1 X96.03 Y156.299 E15.94195
G1 X93.445 Y157.219 E16.03321
G1 X90.954 Y158.188 E16.12211
G1 X88.396 Y159.265 E16.21442
G1 X85.944 Y160.383 E16.30406
G1 X84.67 Y160.998 E16.35111
G1 X84.468 Y161.092 E16.35852
G1 X83.685 Y161.44 E16.38702
G1 X83.541 Y161.5 E16.39221
G1 X82.946 Y161.734 E16.41347
G1 X82.772 Y161.797 E16.41963
G1 X81.483 Y162.229 E16.46484
G1 X80.97 Y162.383 E16.48266
G1 X80.576 Y162.488 E16.49622
G1 X79.698 Y162.701 E16.52627
G1 X79.537 Y162.736 E16.53175
G1 X78.705 Y162.898 E16.55994
G1 X78.509 Y162.93 E16.56655
G1 X76.886 Y163.154 E16.62104
G1 X76.754 Y163.17 E16.62546
G1 X76.116 Y163.233 E16.64678
G1 X75.849 Y163.253 E16.65569
G1 X74.833 Y163.31 E16.68953
G1 X74.459 Y163.321 E16.70198
G1 X73.045 Y163.328 E16.74901
G1 X72.472 Y163.314 E16.76807
G1 X71.514 Y163.256 E16.8
G1 X71.387 Y163.246 E16.80423
G1 X70.558 Y163.165 E16.83194
G1 X70.433 Y163.151 E16.83612
G1 X69.779 Y163.064 E16.85806
G1 X69.641 Y163.042 E16.86271
G1 X68.854 Y162.906 E16.88928
G1 X68.716 Y162.88 E16.89395
G1 X67.938 Y162.714 E16.9204
G1 X67.789 Y162.679 E16.9255
G1 X67.084 Y162.497 E16.94971
