;FLAVOR:Marlin
;TIME:17781
;Filament used: 7.8971m
;Layer height: 0.2
;MINX:68
;MINY:52.8
;MINZ:0.2
;MAXX:167.5
;MAXY:167.2
;MAXZ:3.2
;Generated with Cura_SteamEngine master
M82 ;absolute extrusion mode
;Sliced at: Sun 04-12-2022 01:29:05
;Basic settings: Layer height: 0.2 Walls: 0.8 Fill: 30.0
G21 ;metric values
G90 ;absolute positioning
M82 ;set extruder to absolute mode
M107 ;start with the fan off
M117 Start heating ...
M104 S200
M117 Homing X/Y ...
G28 X0 Y0 ;move X/Y to min endstops
M117 Homing Z ...
G28 Z0 ;move Z to min endstops
G1 Z15.0 F100 ;move the platform down 15mm
M117 Heating ...
M109 S200
M117 Start cleaning ...
G92 E0 ;zero the extruded length
G1 F200 E10 ;extrude 10mm of feed stock
G92 E0 ;zero the extruded length again
M117 Intro line ...
G1 Z2.0 F3000 ; Move Z Axis up little to prevent scratching of Heat Bed
G1 X0.1 Y20 Z0.2 F5000.0 ; Move to start position
G1 X0.1 Y200.0 Z0.2 F1500.0 E15 ; Draw the first line
G1 X0.4 Y200.0 Z0.2 F5000.0 ; Move to side a little
G1 X0.4 Y20 Z0.3 F1500.0 E30 ; Draw the second line
G92 E0 ; Reset Extruder
G1 E-1 F500 ; Retract filiment by 1 mm
G1 Z2.0 F3000 ; Move Z Axis up little to prevent scratching of Heat Bed
G1 X5 Y20 Z0.3 F100 ; Move over to prevent blob squish
G1 F100
G92 E0 ; Reset Extruder
M117 Printing...

G92 E0
G92 E0
G1 F1800 E-7
;LAYER_COUNT:15
;LAYER:0
M107
G1 F300 Z0.4
G0 F3000 X69.339 Y54.165 Z0.4
;TYPE:SKIRT
G1 F300 Z0.2
G1 F1800 E0
G1 F1200 X69.742 Y53.768 E0.01882
G1 X70.196 Y53.432 E0.0376
G1 X70.694 Y53.163 E0.05643
G1 X71.224 Y52.968 E0.07521
G1 X71.777 Y52.849 E0.09402
G1 X72.548 Y52.802 E0.11971
G1 X72.66 Y52.8 E0.12344
G1 X147.02 Y52.8 E2.59666
G1 X147.722 Y52.81 E2.62002
G1 X148.285 Y52.858 E2.63881
G1 X148.836 Y52.985 E2.65762
G1 X149.364 Y53.189 E2.67644
G1 X149.857 Y53.464 E2.69522
G1 X150.307 Y53.807 E2.71404
G1 X150.702 Y54.207 E2.73273
G1 X150.996 Y54.551 E2.74779
G1 X152.29 Y56.104 E2.81502
G1 X154.08 Y58.135 E2.90506
G1 X155.94 Y60.127 E2.99571
G1 X157.84 Y62.05 E3.08562
G1 X159.806 Y63.932 E3.17614
G1 X161.816 Y65.747 E3.26622
G1 X163.892 Y67.52 E3.35702
G1 X166.003 Y69.224 E3.44725
G1 X166.416 Y69.609 E3.46603
G1 X166.771 Y70.049 E3.48483
G1 X167.061 Y70.534 E3.50363
G1 X167.28 Y71.056 E3.52246
G1 X167.422 Y71.603 E3.54125
G1 X167.488 Y72.213 E3.56166
G1 X167.5 Y72.66 E3.57653
G1 X167.5 Y147 E6.04909
G1 X167.49 Y147.72 E6.07304
G1 X167.442 Y148.283 E6.09183
G1 X167.315 Y148.834 E6.11064
G1 X167.112 Y149.361 E6.12942
G1 X166.837 Y149.855 E6.14823
G1 X166.494 Y150.305 E6.16705
G1 X166.005 Y150.775 E6.18961
G1 X165.031 Y151.562 E6.23126
G1 X164.872 Y151.687 E6.23798
G1 X162.84 Y153.375 E6.32584
G1 X160.756 Y155.207 E6.41813
G1 X158.774 Y157.05 E6.50815
G1 X156.859 Y158.935 E6.59752
G1 X154.997 Y160.876 E6.68698
G1 X153.118 Y162.949 E6.78004
G1 X151.316 Y165.055 E6.87223
G1 X150.751 Y165.737 E6.90169
G1 X150.361 Y166.146 E6.92048
G1 X149.719 Y166.621 E6.94704
G1 X149.215 Y166.877 E6.96585
G1 X148.68 Y167.059 E6.98464
G1 X148.124 Y167.164 E7.00346
G1 X147.452 Y167.198 E7.02584
G1 X147.34 Y167.2 E7.02957
G1 X72.985 Y167.2 E9.50262
G1 X72.287 Y167.191 E9.52584
G1 X71.724 Y167.143 E9.54463
G1 X71.173 Y167.017 E9.56343
G1 X70.645 Y166.815 E9.58224
G1 X70.151 Y166.54 E9.60104
G1 X69.701 Y166.198 E9.61984
G1 X69.303 Y165.796 E9.63865
G1 X68.967 Y165.342 E9.65744
G1 X68.697 Y164.845 E9.67625
G1 X68.5 Y164.315 E9.69506
G1 X68.38 Y163.763 E9.71385
G1 X68.331 Y162.966 E9.74041
G1 X68.33 Y155.74 E9.98074
G1 X68.29 Y152.94 E10.07388
G1 X68.177 Y150.275 E10.1626
G1 X68.051 Y148.496 E10.22192
G1 X68.016 Y147.891 E10.24207
G1 X68 Y147.34 E10.26041
G1 X68 Y72.98 E12.73363
G1 X68.01 Y72.274 E12.75711
G1 X68.02 Y72.047 E12.76467
G1 X68.087 Y71.114 E12.79578
G1 X68.244 Y68.328 E12.88859
G1 X68.32 Y65.651 E12.97767
G1 X68.33 Y64.25 E13.02427
G1 X68.33 Y57.414 E13.25163
G1 X68.34 Y56.749 E13.27375
G1 X68.389 Y56.186 E13.29255
G1 X68.516 Y55.635 E13.31136
G1 X68.72 Y55.107 E13.33018
G1 X68.996 Y54.614 E13.34897
G1 X69.339 Y54.165 E13.36777
G0 F3000 X69.732 Y54.327
G1 F1200 X70.13 Y53.968 E13.38559
G1 X70.576 Y53.671 E13.40342
G1 X71.062 Y53.443 E13.42127
G1 X71.576 Y53.291 E13.4391
G1 X72.239 Y53.21 E13.46131
G1 X72.66 Y53.2 E13.47532
G1 X147.014 Y53.2 E15.94834
G1 X147.716 Y53.21 E15.9717
G1 X148.25 Y53.258 E15.98953
G1 X148.772 Y53.384 E16.00739
G1 X149.268 Y53.587 E16.02521
G1 X149.729 Y53.861 E16.04305
G1 X150.145 Y54.2 E16.0609
G1 X150.656 Y54.768 E16.08631
G1 X151.984 Y56.361 E16.15529
G1 X153.787 Y58.406 E16.24597
G1 X155.646 Y60.398 E16.33659
G1 X157.562 Y62.337 E16.42726
G1 X159.545 Y64.235 E16.51855
G1 X161.534 Y66.032 E16.60771
G1 X163.662 Y67.849 E16.70078
G1 X165.751 Y69.535 E16.79006
G1 X166.142 Y69.902 E16.8079
G1 X166.474 Y70.323 E16.82573
G1 X166.74 Y70.789 E16.84358
G1 X166.934 Y71.289 E16.86142
G1 X167.052 Y71.812 E16.87925
G1 X167.098 Y72.549 E16.90381
G1 X167.1 Y72.66 E16.9075
G1 X167.1 Y146.994 E19.37986
G1 X167.09 Y147.714 E19.40381
G1 X167.042 Y148.248 E19.42164
G1 X166.916 Y148.769 E19.43947
G1 X166.714 Y149.266 E19.45731
G1 X166.44 Y149.727 E19.47515
G1 X166.101 Y150.143 E19.493
G1 X165.753 Y150.464 E19.50875
G1 X164.784 Y151.247 E19.55018
G1 X164.655 Y151.349 E19.55565
G1 X162.528 Y153.115 E19.6476
G1 X160.52 Y154.88 E19.73652
G1 X158.504 Y156.755 E19.82809
G1 X156.573 Y158.656 E19.91822
G1 X154.678 Y160.632 E20.00928
G1 X152.833 Y162.666 E20.10061
G1 X151.008 Y164.8 E20.19401
G1 X150.443 Y165.482 E20.22346
G1 X150.071 Y165.868 E20.24129
G1 X149.513 Y166.278 E20.26432
G1 X149.034 Y166.519 E20.28216
G1 X148.524 Y166.686 E20.30001
G1 X147.762 Y166.79 E20.32559
G1 X147.34 Y166.8 E20.33963
G1 X72.991 Y166.8 E22.81248
G1 X72.293 Y166.791 E22.8357
G1 X71.758 Y166.744 E22.85356
G1 X71.237 Y166.618 E22.87139
G1 X70.74 Y166.416 E22.88924
G1 X70.279 Y166.143 E22.90706
G1 X69.863 Y165.804 E22.9249
G1 X69.502 Y165.408 E22.94273
G1 X69.204 Y164.962 E22.96057
G1 X68.976 Y164.476 E22.97842
G1 X68.823 Y163.962 E22.99626
G1 X68.74 Y163.288 E23.01885
G1 X68.73 Y162.858 E23.03315
G1 X68.73 Y155.734 E23.2701
G1 X68.691 Y152.953 E23.3626
G1 X68.575 Y150.229 E23.45328
G1 X68.45 Y148.473 E23.51184
G1 X68.41 Y147.761 E23.53556
G1 X68.4 Y147.34 E23.54956
G1 X68.4 Y72.986 E26.02259
G1 X68.41 Y72.28 E26.04607
G1 X68.419 Y72.075 E26.0529
G1 X68.489 Y71.093 E26.08564
G1 X68.642 Y68.396 E26.17549
G1 X68.721 Y65.596 E26.26865
G1 X68.73 Y64.253 E26.31332
G1 X68.73 Y57.42 E26.54059
G1 X68.74 Y56.755 E26.56271
G1 X68.788 Y56.221 E26.58054
G1 X68.915 Y55.7 E26.59838
G1 X69.118 Y55.203 E26.61623
G1 X69.392 Y54.742 E26.63407
G1 X69.732 Y54.327 E26.65191
G0 F3000 X69.788 Y54.878
G1 F1200 X70.124 Y54.501 E26.66871
G1 X70.515 Y54.18 E26.68554
G1 X70.952 Y53.926 E26.70235
G1 X71.423 Y53.743 E26.71915
G1 X71.918 Y53.637 E26.73599
G1 X72.57 Y53.601 E26.75771
G1 X147.009 Y53.6 E29.23356
G1 X147.711 Y53.61 E29.25691
G1 X148.214 Y53.657 E29.27371
G1 X148.704 Y53.783 E29.29054
G1 X149.167 Y53.985 E29.30734
G1 X149.594 Y54.256 E29.32416
G1 X150.095 Y54.727 E29.34703
G1 X150.382 Y55.063 E29.36173
G1 X151.693 Y56.636 E29.42984
G1 X153.495 Y58.68 E29.52047
G1 X155.351 Y60.67 E29.61098
G1 X157.283 Y62.625 E29.70239
G1 X159.247 Y64.504 E29.7928
G1 X161.29 Y66.349 E29.88436
G1 X163.396 Y68.148 E29.97648
G1 X165.5 Y69.846 E30.0664
G1 X165.867 Y70.194 E30.08323
G1 X166.175 Y70.595 E30.10004
G1 X166.416 Y71.039 E30.11685
G1 X166.583 Y71.516 E30.13366
G1 X166.688 Y72.237 E30.15789
G1 X166.7 Y72.66 E30.17196
G1 X166.7 Y146.988 E32.64412
G1 X166.69 Y147.708 E32.66807
G1 X166.643 Y148.212 E32.68491
G1 X166.517 Y148.702 E32.70174
G1 X166.316 Y149.165 E32.71852
G1 X166.044 Y149.592 E32.73536
G1 X165.709 Y149.97 E32.75216
G1 X165.502 Y150.153 E32.76135
G1 X164.537 Y150.932 E32.8026
G1 X164.397 Y151.042 E32.80852
G1 X162.291 Y152.79 E32.89955
G1 X160.229 Y154.604 E32.9909
G1 X158.233 Y156.46 E33.08155
G1 X156.304 Y158.36 E33.1716
G1 X154.377 Y160.368 E33.26417
G1 X152.532 Y162.403 E33.35553
G1 X150.7 Y164.544 E33.44925
G1 X150.135 Y165.226 E33.47871
G1 X149.783 Y165.589 E33.49553
G1 X149.307 Y165.935 E33.5151
G1 X148.855 Y166.16 E33.53189
G1 X148.372 Y166.311 E33.54872
G1 X147.751 Y166.39 E33.56954
G1 X147.34 Y166.4 E33.58322
G1 X72.996 Y166.4 E36.05591
G1 X72.298 Y166.391 E36.07913
G1 X71.794 Y166.344 E36.09596
G1 X71.304 Y166.219 E36.11278
G1 X70.84 Y166.018 E36.1296
G1 X70.414 Y165.747 E36.14639
G1 X70.035 Y165.412 E36.16322
G1 X69.714 Y165.021 E36.18004
G1 X69.459 Y164.585 E36.19684
G1 X69.275 Y164.114 E36.21366
G1 X69.168 Y163.62 E36.23047
G1 X69.131 Y162.944 E36.25299
G1 X69.13 Y155.728 E36.49299
G1 X69.09 Y152.931 E36.58603
G1 X68.975 Y150.219 E36.67632
G1 X68.849 Y148.45 E36.7353
G1 X68.81 Y147.75 E36.75862
G1 X68.8 Y147.34 E36.77226
G1 X68.8 Y72.992 E39.24508
G1 X68.81 Y72.286 E39.26857
G1 X68.818 Y72.103 E39.27466
G1 X68.888 Y71.121 E39.30741
G1 X69.042 Y68.395 E39.39822
G1 X69.12 Y65.633 E39.49012
G1 X69.13 Y64.255 E39.53595
G1 X69.13 Y57.426 E39.76309
G1 X69.14 Y56.761 E39.78521
G1 X69.188 Y56.258 E39.80201
G1 X69.314 Y55.768 E39.81884
G1 X69.516 Y55.304 E39.83567
G1 X69.788 Y54.878 E39.85248
G1 F1800 E32.85248
G1 F300 Z0.4
;MESH:clock-I.stl(5)
G0 F3000 X147.07 Y70.2 Z0.4
;TYPE:WALL-INNER
G1 F300 Z0.2
G1 F1800 E39.85248
G1 F1200 X72.93 Y70.2 E42.31839
G1 X72.93 Y57.4 E42.74412
G1 X147.07 Y57.4 E45.21002
G1 X147.07 Y70.2 E45.63575
G0 F3000 X147.47 Y70.6
;TYPE:WALL-OUTER
G1 F1200 X72.53 Y70.6 E48.12827
G1 X72.53 Y57 E48.58061
G1 X147.47 Y57 E51.07312
G1 X147.47 Y70.6 E51.52546
G0 F3000 X147.27 Y70.6
G0 X147.03 Y70.16
G0 X146.68 Y69.81
;TYPE:SKIN
G1 F1200 X73.32 Y69.81 E53.96542
G1 X73.32 Y57.79 E54.36521
G1 X146.68 Y57.79 E56.80517
G1 X146.68 Y69.81 E57.20496
G0 F3000 X146.96 Y69.81
G0 X146.96 Y58.252
G0 X146.499 Y58.252
G1 F1200 X146.216 Y57.97 E57.21825
G0 F3000 X145.651 Y57.97
G1 F1200 X146.499 Y58.818 E57.25814
G0 F3000 X146.499 Y59.384
G1 F1200 X145.085 Y57.97 E57.32465
G0 F3000 X144.519 Y57.97
G1 F1200 X146.499 Y59.949 E57.41775
G0 F3000 X146.499 Y60.515
G1 F1200 X143.954 Y57.97 E57.53746
G0 F3000 X143.388 Y57.97
G1 F1200 X146.499 Y61.081 E57.6838
G0 F3000 X146.499 Y61.646
G1 F1200 X142.822 Y57.97 E57.85673
G0 F3000 X142.257 Y57.97
G1 F1200 X146.499 Y62.212 E58.05626
G0 F3000 X146.499 Y62.778
G1 F1200 X141.691 Y57.97 E58.28241
G0 F3000 X141.125 Y57.97
G1 F1200 X146.499 Y63.344 E58.53519
G0 F3000 X146.499 Y63.909
G1 F1200 X140.56 Y57.97 E58.81454
G0 F3000 X139.994 Y57.97
G1 F1200 X146.499 Y64.475 E59.12052
G0 F3000 X146.499 Y65.041
G1 F1200 X139.428 Y57.97 E59.45311
G0 F3000 X138.863 Y57.97
G1 F1200 X146.499 Y65.606 E59.81229
G0 F3000 X146.499 Y66.172
G1 F1200 X138.297 Y57.97 E60.19808
G0 F3000 X137.731 Y57.97
G1 F1200 X146.499 Y66.738 E60.6105
G0 F3000 X146.499 Y67.303
G1 F1200 X137.165 Y57.97 E61.04952
G0 F3000 X136.6 Y57.97
G1 F1200 X146.499 Y67.869 E61.51514
G0 F3000 X146.499 Y68.435
G1 F1200 X136.034 Y57.97 E62.00738
G0 F3000 X135.468 Y57.97
G1 F1200 X146.499 Y69 E62.52622
G0 F3000 X146.499 Y69.566
G1 F1200 X134.903 Y57.97 E63.07166
G0 F3000 X134.337 Y57.97
G1 F1200 X145.997 Y69.629 E63.62009
G0 F3000 X145.431 Y69.629
G1 F1200 X133.771 Y57.97 E64.16852
G0 F3000 X133.206 Y57.97
G1 F1200 X144.865 Y69.629 E64.71692
G0 F3000 X144.299 Y69.629
G1 F1200 X132.64 Y57.97 E65.26533
G0 F3000 X132.074 Y57.97
G1 F1200 X143.734 Y69.629 E65.81375
G0 F3000 X143.168 Y69.629
G1 F1200 X131.509 Y57.97 E66.36216
G0 F3000 X130.943 Y57.97
G1 F1200 X142.602 Y69.629 E66.91056
G0 F3000 X142.037 Y69.629
G1 F1200 X130.377 Y57.97 E67.45899
G0 F3000 X129.812 Y57.97
G1 F1200 X141.471 Y69.629 E68.00739
G0 F3000 X140.905 Y69.629
G1 F1200 X129.246 Y57.97 E68.5558
G0 F3000 X128.68 Y57.97
G1 F1200 X140.34 Y69.629 E69.10422
G0 F3000 X139.774 Y69.629
G1 F1200 X128.115 Y57.97 E69.65263
G0 F3000 X127.549 Y57.97
G1 F1200 X139.208 Y69.629 E70.20103
G0 F3000 X138.643 Y69.629
G1 F1200 X126.983 Y57.97 E70.74946
G0 F3000 X126.417 Y57.97
G1 F1200 X138.077 Y69.629 E71.29788
G0 F3000 X137.511 Y69.629
G1 F1200 X125.852 Y57.97 E71.84629
G0 F3000 X125.286 Y57.97
G1 F1200 X136.946 Y69.629 E72.39471
G0 F3000 X136.38 Y69.629
G1 F1200 X124.72 Y57.97 E72.94314
G0 F3000 X124.155 Y57.97
G1 F1200 X135.814 Y69.629 E73.49155
G0 F3000 X135.249 Y69.629
G1 F1200 X123.589 Y57.97 E74.03997
G0 F3000 X123.023 Y57.97
G1 F1200 X134.683 Y69.629 E74.5884
G0 F3000 X134.117 Y69.629
G1 F1200 X122.458 Y57.97 E75.1368
G0 F3000 X121.892 Y57.97
G1 F1200 X133.551 Y69.629 E75.68521
G0 F3000 X132.986 Y69.629
G1 F1200 X121.326 Y57.97 E76.23363
G0 F3000 X120.761 Y57.97
G1 F1200 X132.42 Y69.629 E76.78204
G0 F3000 X131.854 Y69.629
G1 F1200 X120.195 Y57.97 E77.33044
G0 F3000 X119.629 Y57.97
G1 F1200 X131.289 Y69.629 E77.87887
G0 F3000 X130.723 Y69.629
G1 F1200 X119.064 Y57.97 E78.42727
G0 F3000 X118.498 Y57.97
G1 F1200 X130.157 Y69.629 E78.97568
G0 F3000 X129.592 Y69.629
G1 F1200 X117.932 Y57.97 E79.5241
G0 F3000 X117.366 Y57.97
G1 F1200 X129.026 Y69.629 E80.07253
G0 F3000 X128.46 Y69.629
G1 F1200 X116.801 Y57.97 E80.62093
G0 F3000 X116.235 Y57.97
G1 F1200 X127.895 Y69.629 E81.16936
G0 F3000 X127.329 Y69.629
G1 F1200 X115.669 Y57.97 E81.71779
G0 F3000 X115.104 Y57.97
G1 F1200 X126.763 Y69.629 E82.26619
G0 F3000 X126.198 Y69.629
G1 F1200 X114.538 Y57.97 E82.81462
G0 F3000 X113.972 Y57.97
G1 F1200 X125.632 Y69.629 E83.36305
G0 F3000 X125.066 Y69.629
G1 F1200 X113.407 Y57.97 E83.91145
G0 F3000 X112.841 Y57.97
G1 F1200 X124.5 Y69.629 E84.45985
G0 F3000 X123.935 Y69.629
G1 F1200 X112.275 Y57.97 E85.00828
G0 F3000 X111.71 Y57.97
G1 F1200 X123.369 Y69.629 E85.55668
G0 F3000 X122.803 Y69.629
G1 F1200 X111.144 Y57.97 E86.10509
G0 F3000 X110.578 Y57.97
G1 F1200 X122.238 Y69.629 E86.65351
G0 F3000 X121.672 Y69.629
G1 F1200 X110.013 Y57.97 E87.20192
G0 F3000 X109.447 Y57.97
G1 F1200 X121.106 Y69.629 E87.75032
G0 F3000 X120.541 Y69.629
G1 F1200 X108.881 Y57.97 E88.29875
G0 F3000 X108.316 Y57.97
G1 F1200 X119.975 Y69.629 E88.84715
G0 F3000 X119.409 Y69.629
G1 F1200 X107.75 Y57.97 E89.39556
G0 F3000 X107.184 Y57.97
G1 F1200 X118.844 Y69.629 E89.94398
G0 F3000 X118.278 Y69.629
G1 F1200 X106.618 Y57.97 E90.49241
G0 F3000 X106.053 Y57.97
G1 F1200 X117.712 Y69.629 E91.04081
G0 F3000 X117.147 Y69.629
G1 F1200 X105.487 Y57.97 E91.58924
G0 F3000 X104.921 Y57.97
G1 F1200 X116.581 Y69.629 E92.13767
G0 F3000 X116.015 Y69.629
G1 F1200 X104.356 Y57.97 E92.68607
G0 F3000 X103.79 Y57.97
G1 F1200 X115.45 Y69.629 E93.2345
G0 F3000 X114.884 Y69.629
G1 F1200 X103.224 Y57.97 E93.78293
G0 F3000 X102.659 Y57.97
G1 F1200 X114.318 Y69.629 E94.33133
G0 F3000 X113.752 Y69.629
G1 F1200 X102.093 Y57.97 E94.87973
G0 F3000 X101.527 Y57.97
G1 F1200 X113.187 Y69.629 E95.42816
G0 F3000 X112.621 Y69.629
G1 F1200 X100.962 Y57.97 E95.97656
G0 F3000 X100.396 Y57.97
G1 F1200 X112.055 Y69.629 E96.52497
G0 F3000 X111.49 Y69.629
G1 F1200 X99.83 Y57.97 E97.07339
G0 F3000 X99.265 Y57.97
G1 F1200 X110.924 Y69.629 E97.6218
G0 F3000 X110.358 Y69.629
G1 F1200 X98.699 Y57.97 E98.1702
G0 F3000 X98.133 Y57.97
G1 F1200 X109.793 Y69.629 E98.71863
G0 F3000 X109.227 Y69.629
G1 F1200 X97.568 Y57.97 E99.26703
G0 F3000 X97.002 Y57.97
G1 F1200 X108.661 Y69.629 E99.81544
G0 F3000 X108.096 Y69.629
G1 F1200 X96.436 Y57.97 E100.36386
G0 F3000 X95.87 Y57.97
G1 F1200 X107.53 Y69.629 E100.91229
G0 F3000 X106.964 Y69.629
G1 F1200 X95.305 Y57.97 E101.46069
G0 F3000 X94.739 Y57.97
G1 F1200 X106.399 Y69.629 E102.00912
G0 F3000 X105.833 Y69.629
G1 F1200 X94.173 Y57.97 E102.55755
G0 F3000 X93.608 Y57.97
G1 F1200 X105.267 Y69.629 E103.10595
G0 F3000 X104.702 Y69.629
G1 F1200 X93.042 Y57.97 E103.65438
G0 F3000 X92.476 Y57.97
G1 F1200 X104.136 Y69.629 E104.20281
G0 F3000 X103.57 Y69.629
G1 F1200 X91.911 Y57.97 E104.75121
G0 F3000 X91.345 Y57.97
G1 F1200 X103.004 Y69.629 E105.29961
G0 F3000 X102.439 Y69.629
G1 F1200 X90.779 Y57.97 E105.84804
G0 F3000 X90.214 Y57.97
G1 F1200 X101.873 Y69.629 E106.39644
G0 F3000 X101.307 Y69.629
G1 F1200 X89.648 Y57.97 E106.94485
G0 F3000 X89.082 Y57.97
G1 F1200 X100.742 Y69.629 E107.49327
G0 F3000 X100.176 Y69.629
G1 F1200 X88.517 Y57.97 E108.04168
G0 F3000 X87.951 Y57.97
G1 F1200 X99.61 Y69.629 E108.59008
G0 F3000 X99.045 Y69.629
G1 F1200 X87.385 Y57.97 E109.13851
G0 F3000 X86.819 Y57.97
