;FLAVOR:Marlin
;TIME:18882
;Filament used: 11.5808m
;Layer height: 0.2
;MINX:48.016
;MINY:48.023
;MINZ:0.2
;MAXX:171.992
;MAXY:171.99
;MAXZ:24.2
;Generated with Cura_SteamEngine master
M82 ;absolute extrusion mode
;Sliced at: Sat 29-10-2022 12:41:07
;Basic settings: Layer height: 0.2 Walls: 0.8 Fill: 30.0
G21 ;metric values
G90 ;absolute positioning
M82 ;set extruder to absolute mode
M107 ;start with the fan off
M117 Start heating ...
M104 S200
M117 Homing X/Y ...
G28 X0 Y0 ;move X/Y to min endstops
M117 Homing Z ...
G28 Z0 ;move Z to min endstops
G1 Z15.0 F100 ;move the platform down 15mm
M117 Heating ...
M109 S200
M117 Start cleaning ...
G92 E0 ;zero the extruded length
G1 F200 E10 ;extrude 10mm of feed stock
G92 E0 ;zero the extruded length again
M117 Intro line ...
G1 Z2.0 F3000 ; Move Z Axis up little to prevent scratching of Heat Bed
G1 X0.1 Y20 Z0.2 F5000.0 ; Move to start position
G1 X0.1 Y200.0 Z0.2 F1500.0 E15 ; Draw the first line
G1 X0.4 Y200.0 Z0.2 F5000.0 ; Move to side a little
G1 X0.4 Y20 Z0.3 F1500.0 E30 ; Draw the second line
G92 E0 ; Reset Extruder
G1 E-1 F500 ; Retract filiment by 1 mm
G1 Z2.0 F3000 ; Move Z Axis up little to prevent scratching of Heat Bed
G1 X5 Y20 Z0.3 F100 ; Move over to prevent blob squish
G1 F100
G92 E0 ; Reset Extruder
M117 Printing...

G92 E0
G92 E0
G1 F1800 E-7
;LAYER_COUNT:120
;LAYER:0
M107
G1 F300 Z0.4
G0 F3000 X66.155 Y66.19 Z0.4
;TYPE:SKIRT
G1 F300 Z0.2
G1 F1800 E0
G1 F1200 X66.892 Y65.457 E0.03457
G1 X67.139 Y65.223 E0.04589
G1 X68.508 Y63.951 E0.10804
G1 X68.88 Y63.616 E0.12469
G1 X69.625 Y62.974 E0.1574
G1 X70.784 Y62.002 E0.20771
G1 X71.533 Y61.394 E0.2398
G1 X71.867 Y61.135 E0.25386
G1 X73.199 Y60.127 E0.30942
G1 X73.995 Y59.543 E0.34225
G1 X74.347 Y59.297 E0.35654
G1 X75.82 Y58.293 E0.41583
G1 X76.205 Y58.038 E0.43118
G1 X77.189 Y57.416 E0.4699
G1 X78.351 Y56.707 E0.51518
G1 X79.084 Y56.274 E0.54349
G1 X79.692 Y55.934 E0.56666
G1 X81.078 Y55.18 E0.61914
G1 X81.819 Y54.789 E0.64701
G1 X82.339 Y54.532 E0.6663
G1 X83.787 Y53.834 E0.71976
G1 X84.709 Y53.408 E0.75354
G1 X85.156 Y53.215 E0.76974
G1 X86.754 Y52.542 E0.82741
G1 X87.252 Y52.339 E0.8453
G1 X88.197 Y51.982 E0.8789
G1 X89.569 Y51.483 E0.92745
G1 X90.194 Y51.264 E0.94948
G1 X91.05 Y50.987 E0.9794
G1 X92.485 Y50.546 E1.02933
G1 X93.265 Y50.317 E1.05637
G1 X94.02 Y50.115 E1.08237
G1 X95.464 Y49.749 E1.13191
G1 X96.296 Y49.55 E1.16037
G1 X96.963 Y49.406 E1.18306
G1 X98.748 Y49.046 E1.24363
G1 X98.925 Y49.014 E1.24961
G1 X100.215 Y48.799 E1.29311
G1 X101.555 Y48.597 E1.33818
G1 X102.333 Y48.491 E1.36429
G1 X103.102 Y48.405 E1.39003
G1 X104.672 Y48.249 E1.44251
G1 X105.368 Y48.188 E1.46574
G1 X106.131 Y48.14 E1.49117
G1 X107.808 Y48.057 E1.54702
G1 X108.351 Y48.037 E1.56509
G1 X109.325 Y48.024 E1.59749
G1 X110.748 Y48.023 E1.64482
G1 X111.645 Y48.036 E1.67465
G1 X112.239 Y48.058 E1.69442
G1 X113.923 Y48.142 E1.7505
G1 X114.63 Y48.187 E1.77407
G1 X115.368 Y48.252 E1.79871
G1 X116.951 Y48.409 E1.85162
G1 X117.761 Y48.502 E1.87874
G1 X118.495 Y48.603 E1.90338
G1 X119.912 Y48.817 E1.95104
G1 X120.972 Y48.993 E1.98678
G1 X121.4 Y49.074 E2.00127
G1 X123.072 Y49.413 E2.05801
G1 X123.794 Y49.569 E2.08258
G1 X124.587 Y49.76 E2.10971
G1 X126.029 Y50.127 E2.1592
G1 X126.832 Y50.343 E2.18686
G1 X127.562 Y50.559 E2.21218
G1 X129 Y51.003 E2.26223
G1 X129.805 Y51.263 E2.29037
G1 X130.474 Y51.498 E2.31395
G1 X131.852 Y51.999 E2.36272
G1 X132.747 Y52.338 E2.39455
G1 X133.284 Y52.557 E2.41384
G1 X134.885 Y53.232 E2.47163
G1 X135.385 Y53.45 E2.48977
G1 X136.266 Y53.859 E2.52208
G1 X137.7 Y54.55 E2.57502
G1 X138.18 Y54.788 E2.59284
G1 X138.965 Y55.202 E2.62236
G1 X140.346 Y55.955 E2.67467
G1 X141.003 Y56.324 E2.69974
G1 X141.695 Y56.735 E2.72651
G1 X142.862 Y57.448 E2.77199
G1 X143.876 Y58.09 E2.81191
G1 X144.215 Y58.316 E2.82546
G1 X145.596 Y59.259 E2.88108
G1 X146.356 Y59.795 E2.91201
G1 X146.713 Y60.059 E2.92678
G1 X148.083 Y61.098 E2.98397
G1 X148.824 Y61.676 E3.01522
G1 X149.121 Y61.921 E3.02803
G1 X150.387 Y62.982 E3.08297
G1 X151.208 Y63.693 E3.11909
G1 X151.532 Y63.987 E3.13364
G1 X152.772 Y65.14 E3.18996
G1 X153.38 Y65.72 E3.21791
G1 X153.739 Y66.08 E3.23482
G1 X154.9 Y67.271 E3.29014
G1 X155.526 Y67.93 E3.32037
G1 X155.895 Y68.339 E3.33869
G1 X156.879 Y69.453 E3.38813
G1 X157.747 Y70.47 E3.4326
G1 X157.829 Y70.57 E3.4369
G1 X158.907 Y71.921 E3.49439
G1 X159.563 Y72.769 E3.53004
G1 X159.846 Y73.157 E3.54602
G1 X160.764 Y74.434 E3.59833
G1 X161.307 Y75.212 E3.62988
G1 X161.65 Y75.732 E3.6506
G1 X162.579 Y77.171 E3.70757
G1 X162.77 Y77.476 E3.71954
G1 X163.381 Y78.498 E3.75914
G1 X164.106 Y79.757 E3.80746
G1 X164.375 Y80.237 E3.82576
G1 X164.859 Y81.149 E3.8601
G1 X165.579 Y82.554 E3.91261
G1 X165.634 Y82.665 E3.91673
G1 X166.292 Y84.055 E3.96788
G1 X166.876 Y85.351 E4.01516
G1 X167.011 Y85.66 E4.02638
G1 X167.467 Y86.77 E4.06629
G1 X168.031 Y88.209 E4.1177
G1 X168.075 Y88.328 E4.12192
G1 X168.594 Y89.787 E4.17342
G1 X169.031 Y91.092 E4.2192
G1 X169.278 Y91.864 E4.24616
G1 X169.436 Y92.4 E4.26474
G1 X169.89 Y94.016 E4.32057
G1 X170.307 Y95.692 E4.37801
G1 X170.591 Y96.93 E4.42026
G1 X170.81 Y97.964 E4.45541
G1 X170.892 Y98.399 E4.47014
G1 X171.175 Y100.013 E4.52464
G1 X171.328 Y100.959 E4.55651
G1 X171.379 Y101.331 E4.569
G1 X171.606 Y103.14 E4.62964
G1 X171.694 Y103.936 E4.65627
G1 X171.745 Y104.522 E4.67584
G1 X171.867 Y106.172 E4.73087
G1 X171.926 Y107.142 E4.76319
G1 X171.941 Y107.586 E4.77797
G1 X171.983 Y109.273 E4.83409
G1 X171.992 Y110.231 E4.86596
G1 X171.986 Y110.623 E4.879
G1 X171.942 Y112.383 E4.93755
G1 X171.904 Y113.312 E4.96848
G1 X171.879 Y113.707 E4.98164
G1 X171.752 Y115.396 E5.03798
G1 X171.662 Y116.394 E5.0713
G1 X171.611 Y116.848 E5.0865
G1 X171.406 Y118.466 E5.14074
G1 X171.264 Y119.48 E5.1748
G1 X171.199 Y119.873 E5.18805
G1 X170.895 Y121.595 E5.24621
G1 X170.726 Y122.478 E5.27611
G1 X170.638 Y122.888 E5.29006
G1 X170.255 Y124.559 E5.34708
G1 X170.044 Y125.43 E5.37688
G1 X169.927 Y125.864 E5.39183
G1 X169.448 Y127.562 E5.45051
G1 X169.171 Y128.493 E5.48282
G1 X169.043 Y128.888 E5.49663
G1 X168.497 Y130.514 E5.55368
G1 X168.191 Y131.381 E5.58426
G1 X168.017 Y131.839 E5.60055
G1 X167.4 Y133.409 E5.65666
G1 X167.052 Y134.257 E5.68715
G1 X166.859 Y134.699 E5.70319
G1 X166.16 Y136.245 E5.75962
G1 X165.767 Y137.082 E5.79038
G1 X165.554 Y137.508 E5.80622
G1 X164.817 Y138.943 E5.85987
G1 X164.325 Y139.869 E5.89475
G1 X164.134 Y140.208 E5.90769
G1 X163.279 Y141.689 E5.96457
G1 X162.846 Y142.417 E5.99274
G1 X162.57 Y142.857 E6.01002
G1 X161.659 Y144.267 E6.06585
G1 X161.1 Y145.104 E6.09933
G1 X160.867 Y145.436 E6.11282
G1 X159.898 Y146.781 E6.16795
G1 X159.262 Y147.639 E6.20347
G1 X159.028 Y147.939 E6.21613
G1 X157.992 Y149.239 E6.27142
G1 X157.331 Y150.042 E6.30601
G1 X157.108 Y150.3 E6.31735
G1 X155.907 Y151.662 E6.37775
G1 X155.381 Y152.241 E6.40377
G1 X155.018 Y152.622 E6.42127
G1 X153.853 Y153.816 E6.47675
G1 X153.126 Y154.539 E6.51086
G1 X152.79 Y154.857 E6.52624
G1 X151.583 Y155.978 E6.58103
G1 X150.927 Y156.57 E6.61042
G1 X150.569 Y156.877 E6.62611
G1 X149.26 Y157.974 E6.68291
G1 X148.482 Y158.606 E6.71625
G1 X148.115 Y158.892 E6.73172
G1 X146.792 Y159.893 E6.7869
G1 X146.015 Y160.465 E6.81899
G1 X145.678 Y160.7 E6.83266
G1 X144.245 Y161.677 E6.89034
G1 X143.538 Y162.144 E6.91853
G1 X143.105 Y162.416 E6.93553
G1 X141.619 Y163.324 E6.99345
G1 X140.931 Y163.731 E7.02004
G1 X140.406 Y164.024 E7.04004
G1 X138.939 Y164.822 E7.09558
G1 X138.076 Y165.275 E7.128
G1 X137.756 Y165.433 E7.13987
G1 X136.141 Y166.212 E7.19951
G1 X135.344 Y166.581 E7.22872
G1 X134.854 Y166.793 E7.24648
G1 X133.378 Y167.414 E7.29974
G1 X132.441 Y167.792 E7.33334
G1 X132.045 Y167.941 E7.34741
G1 X130.453 Y168.521 E7.40377
G1 X129.553 Y168.835 E7.43547
G1 X129.119 Y168.972 E7.45061
G1 X127.549 Y169.456 E7.50525
G1 X126.601 Y169.733 E7.5381
G1 X126.131 Y169.858 E7.55428
G1 X124.538 Y170.264 E7.60895
G1 X123.646 Y170.477 E7.63946
G1 X123.218 Y170.569 E7.65402
G1 X121.46 Y170.924 E7.71367
G1 X120.722 Y171.064 E7.73865
G1 X120.08 Y171.168 E7.76028
G1 X118.476 Y171.41 E7.81424
G1 X117.488 Y171.543 E7.84739
G1 X117.085 Y171.588 E7.86088
G1 X115.383 Y171.758 E7.91777
G1 X114.432 Y171.839 E7.94952
G1 X114.017 Y171.865 E7.96335
G1 X112.324 Y171.949 E8.01973
G1 X111.329 Y171.984 E8.05284
G1 X110.894 Y171.988 E8.06731
G1 X109.217 Y171.99 E8.12309
G1 X108.345 Y171.978 E8.15209
G1 X107.846 Y171.959 E8.1687
G1 X106.123 Y171.873 E8.22608
G1 X105.176 Y171.811 E8.25764
G1 X104.709 Y171.769 E8.27324
G1 X103.061 Y171.604 E8.32833
G1 X102.076 Y171.49 E8.36131
G1 X101.677 Y171.434 E8.37471
G1 X99.964 Y171.176 E8.43232
G1 X99.119 Y171.037 E8.46081
G1 X98.685 Y170.955 E8.4755
G1 X96.938 Y170.601 E8.53478
G1 X95.969 Y170.391 E8.56776
G1 X95.629 Y170.307 E8.57941
G1 X93.934 Y169.875 E8.63759
G1 X93.029 Y169.631 E8.66876
G1 X92.592 Y169.501 E8.68393
G1 X90.971 Y169.001 E8.74035
G1 X90.08 Y168.711 E8.77151
G1 X89.628 Y168.552 E8.78745
G1 X88.092 Y167.992 E8.84183
G1 X87.116 Y167.62 E8.87657
G1 X86.822 Y167.499 E8.88714
G1 X85.182 Y166.809 E8.94632
G1 X84.422 Y166.476 E8.97392
G1 X83.936 Y166.249 E8.99176
G1 X82.401 Y165.511 E9.0484
G1 X81.607 Y165.114 E9.07793
G1 X81.188 Y164.893 E9.09369
G1 X79.673 Y164.069 E9.15105
G1 X78.82 Y163.588 E9.18362
G1 X78.474 Y163.381 E9.19703
G1 X77.008 Y162.485 E9.25417
G1 X76.19 Y161.967 E9.28637
G1 X75.842 Y161.734 E9.3003
G1 X74.46 Y160.792 E9.35593
G1 X73.727 Y160.278 E9.38571
G1 X73.277 Y159.946 E9.40431
G1 X71.96 Y158.948 E9.45927
G1 X71.273 Y158.414 E9.48821
G1 X70.865 Y158.08 E9.50575
G1 X69.58 Y157.003 E9.56151
G1 X68.811 Y156.338 E9.59533
G1 X68.529 Y156.081 E9.60802
G1 X67.26 Y154.904 E9.66558
G1 X66.574 Y154.248 E9.69715
G1 X66.263 Y153.934 E9.71185
G1 X65.11 Y152.751 E9.76679
G1 X64.399 Y152.001 E9.80117
G1 X64.144 Y151.718 E9.81384
G1 X63.022 Y150.447 E9.87023
G1 X62.391 Y149.71 E9.9025
G1 X62.092 Y149.343 E9.91824
G1 X61.218 Y148.247 E9.96487
G1 X60.196 Y146.911 E10.02081
G1 X60.125 Y146.815 E10.02478
G1 X59.236 Y145.578 E10.07545
G1 X58.65 Y144.737 E10.10954
G1 X58.455 Y144.442 E10.1213
G1 X57.632 Y143.168 E10.17175
G1 X56.784 Y141.796 E10.22539
G1 X56.722 Y141.692 E10.22942
G1 X55.925 Y140.309 E10.28251
G1 X55.443 Y139.444 E10.31545
G1 X55.304 Y139.179 E10.3254
G1 X54.477 Y137.565 E10.38572
G1 X54.063 Y136.728 E10.41678
G1 X53.88 Y136.333 E10.43126
G1 X53.184 Y134.792 E10.48749
G1 X52.81 Y133.927 E10.51884
G1 X52.621 Y133.46 E10.53559
G1 X52.11 Y132.156 E10.58218
G1 X51.532 Y130.594 E10.63757
G1 X51.491 Y130.478 E10.64166
G1 X51.078 Y129.246 E10.68488
G1 X50.578 Y127.651 E10.74048
G1 X50.201 Y126.315 E10.78665
G1 X49.77 Y124.66 E10.84353
G1 X49.741 Y124.542 E10.84757
G1 X49.394 Y123.02 E10.89949
G1 X49.212 Y122.164 E10.9286
G1 X49.129 Y121.725 E10.94346
G1 X48.829 Y120.024 E11.00091
G1 X48.682 Y119.114 E11.03157
G1 X48.616 Y118.642 E11.04742
G1 X48.407 Y116.973 E11.10336
G1 X48.294 Y115.953 E11.1375
G1 X48.262 Y115.573 E11.15018
G1 X48.132 Y113.839 E11.20801
G1 X48.081 Y112.993 E11.2362
G1 X48.061 Y112.467 E11.25371
G1 X48.025 Y111.011 E11.30215
G1 X48.016 Y109.37 E11.35673
G1 X48.017 Y109.247 E11.36082
G1 X48.057 Y107.687 E11.41273
G1 X48.09 Y106.815 E11.44175
G1 X48.123 Y106.289 E11.45928
G1 X48.247 Y104.636 E11.51441
G1 X48.339 Y103.604 E11.54887
G1 X48.377 Y103.273 E11.55996
G1 X48.59 Y101.57 E11.61704
G1 X48.736 Y100.528 E11.65203
G1 X48.796 Y100.169 E11.66414
G1 X49.09 Y98.505 E11.72034
G1 X49.273 Y97.546 E11.75281
G1 X49.381 Y97.042 E11.76996
G1 X49.745 Y95.458 E11.82402
G1 X49.979 Y94.501 E11.85678
G1 X50.082 Y94.12 E11.86991
G1 X50.561 Y92.417 E11.92875
G1 X50.816 Y91.558 E11.95855
G1 X50.945 Y91.158 E11.97253
G1 X51.499 Y89.511 E12.03033
G1 X51.808 Y88.634 E12.06125
G1 X51.974 Y88.197 E12.0768
G1 X52.574 Y86.668 E12.13143
G1 X52.928 Y85.802 E12.16255
G1 X53.107 Y85.393 E12.1774
G1 X53.821 Y83.807 E12.23525
G1 X54.231 Y82.935 E12.2673
G1 X54.44 Y82.517 E12.28284
G1 X55.199 Y81.037 E12.33816
G1 X55.67 Y80.153 E12.37148
G1 X55.846 Y79.84 E12.38342
G1 X56.724 Y78.319 E12.44183
G1 X57.153 Y77.598 E12.46974
G1 X57.412 Y77.186 E12.48592
G1 X58.345 Y75.74 E12.54316
G1 X58.902 Y74.906 E12.57651
G1 X59.135 Y74.574 E12.59001
G1 X60.096 Y73.239 E12.64472
G1 X60.74 Y72.371 E12.68066
G1 X60.94 Y72.114 E12.69149
G1 X62.03 Y70.746 E12.74967
G1 X62.628 Y70.02 E12.78096
G1 X62.942 Y69.657 E12.79692
G1 X64.057 Y68.394 E12.85295
G1 X64.708 Y67.679 E12.88512
G1 X64.973 Y67.403 E12.89784
G1 X66.155 Y66.19 E12.95417
G0 F3000 X66.437 Y66.474
G1 F1200 X67.167 Y65.747 E12.98844
G1 X67.411 Y65.516 E12.99961
G1 X68.776 Y64.247 E13.0616
G1 X69.141 Y63.919 E13.07793
G1 X69.882 Y63.28 E13.11047
G1 X71.036 Y62.313 E13.16055
G1 X71.778 Y61.71 E13.19235
G1 X72.108 Y61.454 E13.20624
G1 X73.436 Y60.449 E13.26163
G1 X74.225 Y59.871 E13.29416
G1 X74.572 Y59.627 E13.30827
G1 X76.042 Y58.626 E13.36742
G1 X76.419 Y58.376 E13.38247
G1 X77.398 Y57.758 E13.42097
G1 X78.554 Y57.052 E13.46602
G1 X79.28 Y56.623 E13.49407
G1 X79.883 Y56.286 E13.51705
G1 X81.265 Y55.533 E13.56939
G1 X81.914 Y55.19 E13.59381
G1 X82.513 Y54.892 E13.61606
G1 X83.956 Y54.197 E13.66933
G1 X84.867 Y53.776 E13.70271
G1 X85.311 Y53.584 E13.7188
G1 X86.905 Y52.912 E13.77634
G1 X87.394 Y52.713 E13.79389
G1 X88.334 Y52.358 E13.82731
G1 X89.702 Y51.861 E13.87572
G1 X90.413 Y51.612 E13.90078
G1 X91.168 Y51.37 E13.92715
G1 X92.598 Y50.929 E13.97692
G1 X93.368 Y50.703 E14.00361
G1 X94.118 Y50.503 E14.02943
G1 X95.557 Y50.138 E14.07881
G1 X96.38 Y49.941 E14.10695
G1 X97.042 Y49.798 E14.12948
G1 X98.82 Y49.439 E14.18981
G1 X98.991 Y49.408 E14.19559
G1 X100.275 Y49.194 E14.23888
G1 X101.609 Y48.993 E14.28375
G1 X102.378 Y48.889 E14.30956
G1 X103.142 Y48.803 E14.33514
G1 X104.708 Y48.647 E14.38748
G1 X105.394 Y48.587 E14.41038
G1 X106.151 Y48.539 E14.43561
G1 X107.823 Y48.457 E14.49129
G1 X108.357 Y48.437 E14.50906
G1 X109.325 Y48.424 E14.54126
G1 X110.742 Y48.423 E14.58839
G1 X111.639 Y48.436 E14.61823
G1 X112.219 Y48.457 E14.63753
G1 X113.898 Y48.541 E14.69344
G1 X114.695 Y48.593 E14.72001
G1 X115.328 Y48.65 E14.74115
G1 X116.906 Y48.807 E14.79389
G1 X117.706 Y48.899 E14.82068
G1 X118.435 Y48.999 E14.84515
G1 X119.847 Y49.212 E14.89264
G1 X121 Y49.404 E14.93152
G1 X121.321 Y49.467 E14.9424
G1 X122.988 Y49.804 E14.99897
G1 X123.7 Y49.958 E15.0232
G1 X124.489 Y50.148 E15.05019
G1 X125.926 Y50.513 E15.0995
G1 X126.632 Y50.702 E15.12381
G1 X127.444 Y50.941 E15.15196
G1 X128.878 Y51.383 E15.20187
G1 X129.586 Y51.611 E15.22661
G1 X130.337 Y51.874 E15.25308
G1 X131.71 Y52.373 E15.30166
G1 X132.605 Y52.712 E15.3335
G1 X133.129 Y52.926 E15.35232
G1 X134.725 Y53.599 E15.40993
G1 X135.217 Y53.813 E15.42778
G1 X136.092 Y54.219 E15.45986
G1 X137.522 Y54.909 E15.51267
G1 X138.085 Y55.189 E15.53358
G1 X138.774 Y55.554 E15.55952
G1 X140.151 Y56.304 E15.61167
G1 X140.799 Y56.668 E15.63639
G1 X141.487 Y57.076 E15.66299
G1 X142.648 Y57.786 E15.70826
G1 X143.654 Y58.423 E15.74786
G1 X143.989 Y58.646 E15.76124
G1 X145.366 Y59.586 E15.8167
G1 X146.119 Y60.117 E15.84734
G1 X146.471 Y60.378 E15.86192
G1 X147.838 Y61.413 E15.91895
G1 X148.493 Y61.923 E15.94656
G1 X148.864 Y62.228 E15.96253
G1 X150.125 Y63.284 E16.01724
G1 X150.94 Y63.99 E16.0531
G1 X151.26 Y64.28 E16.06746
G1 X152.496 Y65.429 E16.12359
G1 X153.104 Y66.009 E16.15154
G1 X153.453 Y66.359 E16.16798
G1 X154.61 Y67.547 E16.22313
G1 X155.236 Y68.206 E16.25336
G1 X155.595 Y68.604 E16.27119
G1 X156.574 Y69.713 E16.32039
G1 X157.517 Y70.82 E16.36876
G1 X158.591 Y72.165 E16.42601
G1 X159.24 Y73.005 E16.46131
G1 X159.522 Y73.39 E16.47719
G1 X160.436 Y74.663 E16.52931
G1 X160.973 Y75.433 E16.56053
G1 X161.314 Y75.949 E16.5811
G1 X162.241 Y77.384 E16.63792
G1 X162.427 Y77.681 E16.64958
G1 X163.034 Y78.698 E16.68897
G1 X163.758 Y79.953 E16.73716
G1 X164.022 Y80.424 E16.75512
G1 X164.503 Y81.331 E16.78927
G1 X165.223 Y82.736 E16.84178
G1 X165.898 Y84.157 E16.8941
G1 X166.51 Y85.513 E16.94358
G1 X166.641 Y85.813 E16.95447
G1 X167.095 Y86.916 E16.99414
G1 X167.659 Y88.355 E17.04555
G1 X167.699 Y88.462 E17.04935
G1 X168.215 Y89.914 E17.1006
G1 X168.65 Y91.214 E17.14619
G1 X168.923 Y92.07 E17.17608
G1 X169.051 Y92.508 E17.19126
