;FLAVOR:Marlin
;TIME:5171
;Filament used: 0.869668m
;Layer height: 0.1
;MINX:18.929
;MINY:15.434
;MINZ:0.1
;MAXX:204.566
;MAXY:201.08
;MAXZ:2
;Generated with Cura_SteamEngine master
M82 ;absolute extrusion mode
;Sliced at: Sun 15-01-2023 14:19:25
;Basic settings: Layer height: 0.1 Walls: 0.8 Fill: 100.0
G21 ;metric values
G90 ;absolute positioning
M82 ;set extruder to absolute mode
M107 ;start with the fan off
M117 Start heating ...
M104 S200
M117 Homing X/Y ...
G28 X0 Y0 ;move X/Y to min endstops
M117 Homing Z ...
G28 Z0 ;move Z to min endstops
G1 Z15.0 F50 ;move the platform down 15mm
M117 Heating ...
M109 S200
M117 Start cleaning ...
G92 E0 ;zero the extruded length
G1 F200 E10 ;extrude 10mm of feed stock
G92 E0 ;zero the extruded length again
M117 Intro line ...
G1 Z2.0 F3000 ; Move Z Axis up little to prevent scratching of Heat Bed
G1 X0.1 Y20 Z0.1 F5000.0 ; Move to start position
G1 X0.1 Y200.0 Z0.1 F1500.0 E15 ; Draw the first line
G1 X0.4 Y200.0 Z0.1 F5000.0 ; Move to side a little
G1 X0.4 Y20 Z0.3 F1500.0 E30 ; Draw the second line
G92 E0 ; Reset Extruder
G1 E-1 F500 ; Retract filiment by 1 mm
G1 Z2.0 F3000 ; Move Z Axis up little to prevent scratching of Heat Bed
G1 X5 Y20 Z0.3 F50 ; Move over to prevent blob squish
G1 F50
G92 E0 ; Reset Extruder
M117 Printing...

G92 E0
G92 E0
G1 F1800 E-7
;LAYER_COUNT:20
;LAYER:0
M107
G1 F300 Z0.3
G0 F1500 X184.783 Y21.99 Z0.3
;TYPE:SKIRT
G1 F300 Z0.1
G1 F1800 E0
G1 F900 X185.357 Y21.407 E0.01361
G1 X189.737 Y17.027 E0.11662
G1 X190.218 Y16.559 E0.12778
G1 X190.65 Y16.194 E0.13718
G1 X191.129 Y15.894 E0.14658
G1 X191.645 Y15.665 E0.15597
G1 X192.189 Y15.51 E0.16538
G1 X192.749 Y15.434 E0.17477
G1 X193.315 Y15.438 E0.18419
G1 X193.874 Y15.521 E0.19359
G1 X194.416 Y15.682 E0.20299
G1 X194.929 Y15.918 E0.21238
G1 X195.405 Y16.224 E0.22179
G1 X195.981 Y16.732 E0.23456
G1 X202.973 Y23.723 E0.39899
G1 X203.441 Y24.204 E0.41015
G1 X203.806 Y24.636 E0.41956
G1 X204.106 Y25.115 E0.42896
G1 X204.335 Y25.631 E0.43834
G1 X204.49 Y26.175 E0.44775
G1 X204.566 Y26.735 E0.45715
G1 X204.562 Y27.301 E0.46656
G1 X204.479 Y27.86 E0.47596
G1 X204.318 Y28.402 E0.48536
G1 X204.082 Y28.915 E0.49475
G1 X203.776 Y29.391 E0.50416
G1 X203.248 Y29.987 E0.51741
G1 X198.61 Y34.626 E0.6265
G1 X197.908 Y35.314 E0.64284
G1 X27.82 Y199.264 E4.57154
G1 X27.339 Y199.715 E4.5825
G1 X26.879 Y200.094 E4.59241
G1 X26.409 Y200.409 E4.60182
G1 X25.79 Y200.696 E4.61317
G1 X25.471 Y200.812 E4.61881
G1 X24.736 Y201.003 E4.63144
G1 X24.561 Y201.031 E4.63439
G1 X23.998 Y201.08 E4.64379
G1 X23.341 Y201.043 E4.65473
G1 X22.783 Y200.95 E4.66414
G1 X22.165 Y200.757 E4.67491
G1 X21.564 Y200.494 E4.68582
G1 X21.046 Y200.171 E4.69597
G1 X20.6 Y199.823 E4.70538
G1 X20.111 Y199.311 E4.71715
G1 X19.765 Y198.863 E4.72656
G1 X19.397 Y198.198 E4.7392
G1 X19.18 Y197.676 E4.7486
G1 X19.023 Y197.074 E4.75895
G1 X18.935 Y196.461 E4.76925
G1 X18.929 Y196.37 E4.77077
G1 X18.952 Y195.605 E4.78349
G1 X18.985 Y195.344 E4.78787
G1 X19.095 Y194.79 E4.79726
G1 X19.274 Y194.259 E4.80658
G1 X19.623 Y193.54 E4.81987
G1 X19.687 Y193.436 E4.8219
G1 X20.153 Y192.82 E4.83475
G1 X21.019 Y191.883 E4.85597
G1 X184.783 Y21.99 E8.78018
G0 F1500 X185.069 Y22.271
G1 F900 X185.639 Y21.689 E8.79373
G1 X190.016 Y17.314 E8.89664
G1 X190.497 Y16.846 E8.9078
G1 X190.908 Y16.501 E8.91673
G1 X191.365 Y16.222 E8.92563
G1 X191.86 Y16.014 E8.93456
G1 X192.379 Y15.881 E8.94347
G1 X192.913 Y15.827 E8.9524
G1 X193.448 Y15.853 E8.9613
G1 X193.974 Y15.958 E8.97022
G1 X194.479 Y16.141 E8.97916
G1 X194.95 Y16.396 E8.98806
G1 X195.477 Y16.807 E8.99918
G1 X195.782 Y17.096 E9.00616
G1 X202.686 Y24.002 E9.16856
G1 X203.154 Y24.483 E9.17972
G1 X203.499 Y24.894 E9.18864
G1 X203.778 Y25.351 E9.19755
G1 X203.986 Y25.846 E9.20648
G1 X204.119 Y26.365 E9.21539
G1 X204.173 Y26.899 E9.22431
G1 X204.147 Y27.434 E9.23322
G1 X204.042 Y27.96 E9.24214
G1 X203.859 Y28.465 E9.25107
G1 X203.604 Y28.936 E9.25998
G1 X203.188 Y29.468 E9.27121
G1 X202.888 Y29.783 E9.27844
G1 X198.33 Y34.34 E9.38563
G1 X197.63 Y35.026 E9.40193
G1 X27.546 Y198.972 E13.33053
G1 X27.065 Y199.423 E13.34149
G1 X26.633 Y199.779 E13.3508
G1 X26.187 Y200.075 E13.35971
G1 X25.653 Y200.32 E13.36948
G1 X25.334 Y200.436 E13.37512
G1 X24.673 Y200.608 E13.38648
G1 X24.498 Y200.636 E13.38943
G1 X23.963 Y200.681 E13.39836
G1 X23.378 Y200.645 E13.4081
G1 X22.85 Y200.555 E13.41701
G1 X22.295 Y200.379 E13.42669
G1 X21.752 Y200.141 E13.43655
G1 X21.269 Y199.839 E13.44603
G1 X20.847 Y199.508 E13.45494
G1 X20.409 Y199.044 E13.46556
G1 X20.083 Y198.619 E13.47446
G1 X19.755 Y198.018 E13.48585
G1 X19.55 Y197.522 E13.49477
G1 X19.413 Y196.986 E13.50397
G1 X19.334 Y196.435 E13.51323
G1 X19.328 Y196.344 E13.51475
G1 X19.348 Y195.655 E13.52621
G1 X19.381 Y195.394 E13.53059
G1 X19.488 Y194.869 E13.5395
G1 X19.65 Y194.397 E13.5478
G1 X19.964 Y193.749 E13.55977
G1 X20.028 Y193.645 E13.5618
G1 X20.447 Y193.092 E13.57334
G1 X21.307 Y192.161 E13.59442
G1 X185.069 Y22.271 E17.51857
G0 F1500 X185.354 Y22.551
G1 F900 X185.922 Y21.972 E17.53206
G1 X190.294 Y17.6 E17.63488
G1 X190.775 Y17.132 E17.64604
G1 X191.165 Y16.81 E17.65445
G1 X191.6 Y16.552 E17.66286
G1 X192.07 Y16.366 E17.67127
G1 X192.563 Y16.257 E17.67967
G1 X193.068 Y16.227 E17.68808
G1 X193.571 Y16.276 E17.69648
G1 X194.06 Y16.404 E17.70489
G1 X194.523 Y16.608 E17.7133
G1 X194.948 Y16.882 E17.72171
G1 X195.432 Y17.314 E17.7325
G1 X202.4 Y24.28 E17.89635
G1 X202.868 Y24.761 E17.90751
G1 X203.19 Y25.151 E17.91593
G1 X203.448 Y25.586 E17.92434
G1 X203.634 Y26.056 E17.93274
G1 X203.743 Y26.549 E17.94114
G1 X203.773 Y27.054 E17.94955
G1 X203.724 Y27.557 E17.95796
G1 X203.596 Y28.046 E17.96636
G1 X203.392 Y28.509 E17.97478
G1 X203.118 Y28.934 E17.98319
G1 X202.667 Y29.437 E17.99442
G1 X198.05 Y34.055 E18.10302
G1 X197.353 Y34.738 E18.11925
G1 X27.273 Y198.68 E22.04775
G1 X26.792 Y199.131 E22.05872
G1 X26.388 Y199.463 E22.06741
G1 X25.965 Y199.741 E22.07583
G1 X25.198 Y200.06 E22.08965
G1 X24.61 Y200.213 E22.09975
G1 X24.435 Y200.241 E22.1027
G1 X23.931 Y200.281 E22.1111
G1 X23.416 Y200.247 E22.11969
G1 X22.681 Y200.088 E22.13219
G1 X22.424 Y200 E22.13671
G1 X21.94 Y199.789 E22.14549
G1 X21.492 Y199.507 E22.1543
G1 X21.096 Y199.193 E22.1627
G1 X20.707 Y198.778 E22.17216
G1 X20.401 Y198.375 E22.18057
G1 X20.112 Y197.839 E22.1907
G1 X19.922 Y197.37 E22.19912
G1 X19.804 Y196.899 E22.20719
G1 X19.727 Y196.318 E22.21694
G1 X19.745 Y195.706 E22.22712
G1 X19.778 Y195.445 E22.23149
G1 X19.949 Y194.744 E22.24349
G1 X20.026 Y194.534 E22.24721
G1 X20.305 Y193.959 E22.25784
G1 X20.369 Y193.855 E22.25987
G1 X20.741 Y193.363 E22.27013
G1 X21.595 Y192.438 E22.29107
G1 X185.354 Y22.551 E26.21515
G1 F1800 E19.21515
G1 F300 Z0.3
;MESH:clock-minutehand-with-bushing.stl
G0 F1500 X192.717 Y29.494 Z0.3
;TYPE:WALL-INNER
G1 F300 Z0.1
G1 F1800 E26.21515
G1 F900 X193.401 Y29.544 E26.22655
G1 X194.078 Y29.423 E26.23799
G1 X194.705 Y29.143 E26.24941
G1 X195.238 Y28.727 E26.26066
G1 X195.664 Y28.178 E26.27221
G1 X195.943 Y27.544 E26.28373
G1 X196.057 Y26.859 E26.29528
G1 X196 Y26.168 E26.30681
G1 X195.774 Y25.512 E26.31835
G1 X195.393 Y24.93 E26.32992
G1 X194.883 Y24.462 E26.34143
G1 X194.275 Y24.134 E26.35292
G1 X193.615 Y23.966 E26.36424
G1 X193.308 Y23.944 E26.36936
G1 X192.633 Y24.011 E26.38064
G1 X191.981 Y24.248 E26.39218
G1 X191.407 Y24.637 E26.40371
G1 X190.947 Y25.155 E26.41523
G1 X190.627 Y25.772 E26.42679
G1 X190.469 Y26.447 E26.43832
G1 X190.481 Y27.14 E26.44984
G1 X190.663 Y27.81 E26.46139
G1 X191.004 Y28.414 E26.47292
G1 X191.481 Y28.913 E26.4844
G1 X192.061 Y29.281 E26.49583
G1 X192.717 Y29.494 E26.5073
G0 F1500 X192.794 Y29.099
;TYPE:WALL-OUTER
G1 F900 X193.38 Y29.141 E26.51707
G1 X193.96 Y29.038 E26.52686
G1 X194.497 Y28.798 E26.53665
G1 X194.953 Y28.442 E26.54627
G1 X195.318 Y27.972 E26.55616
G1 X195.557 Y27.429 E26.56603
G1 X195.654 Y26.843 E26.57591
G1 X195.605 Y26.251 E26.58578
G1 X195.412 Y25.689 E26.59567
G1 X195.086 Y25.191 E26.60557
G1 X194.649 Y24.79 E26.61543
G1 X194.128 Y24.509 E26.62527
G1 X193.551 Y24.362 E26.63517
G1 X193.314 Y24.345 E26.63913
G1 X192.723 Y24.404 E26.649
G1 X192.164 Y24.607 E26.65889
G1 X191.673 Y24.94 E26.66876
G1 X191.279 Y25.383 E26.67862
G1 X191.005 Y25.912 E26.68853
G1 X190.87 Y26.49 E26.6984
G1 X190.88 Y27.083 E26.70826
G1 X191.036 Y27.657 E26.71815
G1 X191.328 Y28.174 E26.72803
G1 X191.736 Y28.601 E26.73785
G1 X192.233 Y28.916 E26.74763
G1 X192.794 Y29.099 E26.75745
G0 F1500 X192.993 Y29.113
G0 X192.961 Y29.552
G1 F1800 E19.75745
G1 F300 Z0.3
G0 F1500 X192.949 Y29.711 Z0.3
G0 X24.06 Y196.455
;TYPE:WALL-INNER
G1 F300 Z0.1
G1 F1800 E26.75745
G1 F900 X23.931 Y196.483 E26.75964
G1 X23.769 Y196.456 E26.76237
G1 X23.629 Y196.363 E26.76517
G1 X23.547 Y196.234 E26.76771
G1 X23.52 Y196.051 E26.77079
G1 X23.566 Y195.897 E26.77346
G1 X23.657 Y195.776 E26.77598
G1 X188.336 Y24.932 E30.72214
G1 X193.007 Y20.261 E30.83199
G1 X199.739 Y26.993 E30.99032
G1 X195.073 Y31.657 E31.10003
G1 X24.2 Y196.366 E35.04688
G1 X24.06 Y196.455 E35.04964
G0 F1500 X24.214 Y196.831
;TYPE:WALL-OUTER
G1 F900 X23.939 Y196.89 E35.05432
G1 X23.621 Y196.837 E35.05968
G1 X23.336 Y196.649 E35.06536
G1 X23.163 Y196.377 E35.07072
G1 X23.112 Y196.022 E35.07668
G1 X23.204 Y195.712 E35.08206
G1 X23.35 Y195.518 E35.0861
G1 X188.053 Y24.649 E39.03284
G1 X193.007 Y19.695 E39.14935
G1 X200.305 Y26.993 E39.32098
G1 X195.351 Y31.945 E39.43747
G1 X24.451 Y196.68 E43.38495
G1 X24.214 Y196.831 E43.38962
G0 F1500 X24.019 Y196.872
G0 X23.928 Y196.442
G0 X23.92 Y196.075
;TYPE:SKIN
G1 F900 X23.953 Y196.032 E43.39052
G1 X188.651 Y25.167 E47.33715
G1 X193.007 Y20.811 E47.4396
G1 X199.189 Y26.993 E47.58499
G1 X194.838 Y31.342 E47.68729
G1 X23.955 Y196.06 E51.63437
G1 X23.92 Y196.075 E51.635
G1 F1800 E44.635
G1 F300 Z0.3
G0 F1500 X23.738 Y196.022 Z0.3
G0 X191.232 Y29.217
G1 F300 Z0.1
G1 F1800 E51.635
G1 F900 X191.893 Y29.636 E51.64802
G1 X192.641 Y29.88 E51.6611
G1 X193.421 Y29.936 E51.67411
G1 X194.193 Y29.799 E51.68715
G1 X194.908 Y29.48 E51.70017
G1 X195.517 Y29.004 E51.71302
G1 X196.001 Y28.379 E51.72617
G1 X196.32 Y27.657 E51.73929
G1 X196.449 Y26.875 E51.75247
G1 X196.384 Y26.088 E51.76561
G1 X196.127 Y25.339 E51.77878
G1 X195.693 Y24.676 E51.79195
G1 X195.111 Y24.142 E51.80509
G1 X194.418 Y23.768 E51.81818
G1 X193.678 Y23.58 E51.83088
G1 X193.303 Y23.552 E51.83714
G1 X192.545 Y23.627 E51.8498
G1 X191.802 Y23.899 E51.86296
G1 X191.148 Y24.341 E51.87609
G1 X190.623 Y24.933 E51.88925
G1 X190.258 Y25.636 E51.90242
G1 X190.079 Y26.406 E51.91557
G1 X190.091 Y27.195 E51.92869
G1 X190.3 Y27.96 E51.94188
G1 X190.688 Y28.648 E51.95501
G1 X191.232 Y29.217 E51.9681
G1 F1800 E44.9681
G1 F300 Z0.3
G0 F1500 X191.355 Y29.066 Z0.3
G0 X198.664 Y27.261
G1 F300 Z0.1
G1 F1800 E51.9681
G1 F900 X192.736 Y21.334 E52.10751
G0 F1500 X192.453 Y21.616
G1 F900 X194.419 Y23.582 E52.15375
G0 F1500 X193.67 Y23.398
G1 F900 X192.171 Y21.899 E52.189
G0 F1500 X191.888 Y22.182
G1 F900 X193.096 Y23.391 E52.21742
G0 F1500 X192.581 Y23.442
G1 F900 X191.605 Y22.465 E52.24039
G0 F1500 X191.322 Y22.748
G1 F900 X192.152 Y23.578 E52.25991
G0 F1500 X191.739 Y23.73
G1 F900 X191.039 Y23.031 E52.27636
G0 F1500 X190.756 Y23.314
G1 F900 X191.397 Y23.954 E52.29142
G0 F1500 X191.059 Y24.182
G1 F900 X190.474 Y23.596 E52.30519
G0 F1500 X190.191 Y23.879
G1 F900 X190.787 Y24.475 E52.31921
G0 F1500 X190.521 Y24.775
G1 F900 X189.908 Y24.162 E52.33363
G0 F1500 X189.625 Y24.445
G1 F900 X190.315 Y25.135 E52.34986
G0 F1500 X190.121 Y25.507
G1 F900 X189.342 Y24.728 E52.36818
G0 F1500 X189.059 Y25.011
G1 F900 X189.999 Y25.95 E52.39027
G0 F1500 X189.898 Y26.415
G1 F900 X188.777 Y25.293 E52.41665
G0 F1500 X188.5 Y25.583
G1 F900 X189.906 Y26.989 E52.44972
G0 F1500 X190.037 Y27.686
G1 F900 X188.222 Y25.87 E52.49241
G0 F1500 X187.944 Y26.158
G1 F900 X190.539 Y28.753 E52.55344
G1 X190.609 Y28.823
G0 F1500 X191.191 Y29.405
G1 F900 X193.839 Y32.053 E52.61572
G0 F1500 X194.126 Y31.775
G1 F900 X192.314 Y29.962 E52.65835
G0 F1500 X193.004 Y30.086
G1 F900 X194.414 Y31.497 E52.69152
G0 F1500 X194.704 Y31.221
G1 F900 X193.574 Y30.09 E52.71811
G0 F1500 X194.054 Y30.006
G1 F900 X194.987 Y30.938 E52.74004
G0 F1500 X195.27 Y30.655
G1 F900 X194.481 Y29.867 E52.75858
G0 F1500 X194.873 Y29.693
G1 F900 X195.553 Y30.373 E52.77458
G0 F1500 X195.836 Y30.09
G1 F900 X195.215 Y29.469 E52.78918
G0 F1500 X195.532 Y29.221
G1 F900 X196.118 Y29.807 E52.80296
G0 F1500 X196.401 Y29.524
G1 F900 X195.803 Y28.926 E52.81703
G0 F1500 X196.05 Y28.607
G1 F900 X196.684 Y29.241 E52.83194
G0 F1500 X196.967 Y28.958
G1 F900 X196.255 Y28.246 E52.84868
G0 F1500 X196.428 Y27.854
G1 F900 X197.25 Y28.676 E52.86801
G0 F1500 X197.533 Y28.393
G1 F900 X196.542 Y27.402 E52.89132
G0 F1500 X196.623 Y26.917
G1 F900 X197.815 Y28.11 E52.91937
G0 F1500 X198.098 Y27.827
G1 F900 X196.582 Y26.31 E52.95503
G0 F1500 X196.39 Y25.553
G1 F900 X198.381 Y27.544 E53.00186
G1 X198.451 Y27.614
G0 F1500 X198.705 Y27.869
G0 X193.87 Y32.662
G0 X193.55 Y32.33
G1 F900 X187.667 Y26.447 E53.14022
G0 F1500 X187.389 Y26.735
G1 F900 X193.262 Y32.608 E53.27834
G0 F1500 X192.974 Y32.885
G1 F900 X187.111 Y27.022 E53.41623
G0 F1500 X186.834 Y27.311
G1 F900 X192.686 Y33.163 E53.55386
G0 F1500 X192.398 Y33.441
G1 F900 X186.556 Y27.599 E53.69125
G0 F1500 X186.278 Y27.886
G1 F900 X192.11 Y33.718 E53.82841
G0 F1500 X191.822 Y33.996
G1 F900 X186.001 Y28.175 E53.96532
G0 F1500 X185.723 Y28.463
G1 F900 X191.534 Y34.274 E54.10198
G0 F1500 X191.246 Y34.551
G1 F900 X185.445 Y28.75 E54.23841
G0 F1500 X185.168 Y29.039
G1 F900 X190.958 Y34.829 E54.37458
G0 F1500 X190.67 Y35.107
G1 F900 X184.89 Y29.327 E54.51052
G0 F1500 X184.613 Y29.615
G1 F900 X190.382 Y35.384 E54.6462
G0 F1500 X190.094 Y35.662
G1 F900 X184.335 Y29.903 E54.78164
G0 F1500 X184.057 Y30.191
G1 F900 X189.806 Y35.94 E54.91685
G0 F1500 X189.518 Y36.217
G1 F900 X183.78 Y30.479 E55.0518
G0 F1500 X183.502 Y30.767
G1 F900 X189.23 Y36.495 E55.18651
G0 F1500 X188.942 Y36.773
G1 F900 X183.224 Y31.055 E55.32099
G0 F1500 X182.947 Y31.343
G1 F900 X188.653 Y37.05 E55.4552
G0 F1500 X188.366 Y37.328
G1 F900 X182.669 Y31.631 E55.58918
G0 F1500 X182.391 Y31.919
G1 F900 X188.078 Y37.606 E55.72293
G0 F1500 X187.789 Y37.883
G1 F900 X182.114 Y32.208 E55.8564
G0 F1500 X181.836 Y32.495
G1 F900 X187.502 Y38.161 E55.98966
G0 F1500 X187.214 Y38.439
G1 F900 X181.558 Y32.783 E56.12268
G0 F1500 X181.281 Y33.072
G1 F900 X186.925 Y38.716 E56.25541
G0 F1500 X186.638 Y38.994
G1 F900 X181.003 Y33.359 E56.38794
G0 F1500 X180.725 Y33.647
G1 F900 X186.35 Y39.272 E56.52023
G0 F1500 X186.061 Y39.549
G1 F900 X180.448 Y33.936 E56.65224
G0 F1500 X180.17 Y34.223
G1 F900 X185.773 Y39.827 E56.78403
G0 F1500 X185.485 Y40.104
G1 F900 X179.892 Y34.511 E56.91557
G0 F1500 X179.615 Y34.8
G1 F900 X185.197 Y40.382 E57.04685
G0 F1500 X184.909 Y40.66
G1 F900 X179.337 Y35.088 E57.17789
G0 F1500 X179.06 Y35.376
G1 F900 X184.621 Y40.937 E57.30868
G0 F1500 X184.333 Y41.215
G1 F900 X178.782 Y35.664 E57.43923
G0 F1500 X178.504 Y35.952
G1 F900 X184.045 Y41.493 E57.56954
G0 F1500 X183.757 Y41.77
G1 F900 X178.227 Y36.24 E57.6996
G0 F1500 X177.949 Y36.528
G1 F900 X183.469 Y42.048 E57.82942
G0 F1500 X183.181 Y42.325
G1 F900 X177.671 Y36.816 E57.959
G0 F1500 X177.394 Y37.104
G1 F900 X182.893 Y42.603 E58.08833
G0 F1500 X182.605 Y42.881
G1 F900 X177.116 Y37.392 E58.21742
G0 F1500 X176.838 Y37.68
G1 F900 X182.317 Y43.158 E58.34627
G0 F1500 X182.029 Y43.436
G1 F900 X176.561 Y37.968 E58.47486
G0 F1500 X176.283 Y38.256
G1 F900 X181.741 Y43.714 E58.60323
G0 F1500 X181.453 Y43.991
G1 F900 X176.005 Y38.544 E58.73134
G0 F1500 X175.728 Y38.832
G1 F900 X181.164 Y44.269 E58.8592
G0 F1500 X180.877 Y44.547
G1 F900 X175.45 Y39.12 E58.98684
G0 F1500 X175.172 Y39.408
G1 F900 X180.589 Y44.824 E59.11423
G0 F1500 X180.3 Y45.102
G1 F900 X174.895 Y39.696 E59.24135
G0 F1500 X174.617 Y39.984
G1 F900 X180.013 Y45.379 E59.36825
G0 F1500 X179.725 Y45.657
G1 F900 X174.34 Y40.272 E59.4949
G0 F1500 X174.062 Y40.561
G1 F900 X179.436 Y45.935 E59.62128
G0 F1500 X179.149 Y46.212
G1 F900 X173.784 Y40.848 E59.74745
G0 F1500 X173.507 Y41.136
G1 F900 X178.86 Y46.49 E59.87335
G0 F1500 X178.572 Y46.768
