;FLAVOR:Marlin
;TIME:3779
;Filament used: 1.70819m
;Layer height: 0.2
;MINX:96.59
;MINY:57.25
;MINZ:0.2
;MAXX:123.41
;MAXY:162.75
;MAXZ:3.2
;Generated with Cura_SteamEngine master
M82 ;absolute extrusion mode
;Sliced at: Sun 15-01-2023 14:25:18
;Basic settings: Layer height: 0.2 Walls: 0.8 Fill: 30.0
G21 ;metric values
G90 ;absolute positioning
M82 ;set extruder to absolute mode
M107 ;start with the fan off
M117 Start heating ...
M104 S200
M117 Homing X/Y ...
G28 X0 Y0 ;move X/Y to min endstops
M117 Homing Z ...
G28 Z0 ;move Z to min endstops
G1 Z15.0 F100 ;move the platform down 15mm
M117 Heating ...
M109 S200
M117 Start cleaning ...
G92 E0 ;zero the extruded length
G1 F200 E10 ;extrude 10mm of feed stock
G92 E0 ;zero the extruded length again
M117 Intro line ...
G1 Z2.0 F3000 ; Move Z Axis up little to prevent scratching of Heat Bed
G1 X0.1 Y20 Z0.2 F5000.0 ; Move to start position
G1 X0.1 Y200.0 Z0.2 F1500.0 E15 ; Draw the first line
G1 X0.4 Y200.0 Z0.2 F5000.0 ; Move to side a little
G1 X0.4 Y20 Z0.3 F1500.0 E30 ; Draw the second line
G92 E0 ; Reset Extruder
G1 E-1 F500 ; Retract filiment by 1 mm
G1 Z2.0 F3000 ; Move Z Axis up little to prevent scratching of Heat Bed
G1 X5 Y20 Z0.3 F100 ; Move over to prevent blob squish
G1 F100
G92 E0 ; Reset Extruder
M117 Printing...

G92 E0
G92 E0
G1 F1800 E-7
;LAYER_COUNT:15
;LAYER:0
M107
G1 F300 Z0.4
G0 F3000 X97.252 Y59.069 Z0.4
;TYPE:SKIRT
G1 F300 Z0.2
G1 F1800 E0
G1 F1200 X97.594 Y58.619 E0.0188
G1 X97.996 Y58.222 E0.03759
G1 X98.45 Y57.885 E0.0564
G1 X98.947 Y57.616 E0.07519
G1 X99.477 Y57.419 E0.094
G1 X100.03 Y57.3 E0.11281
G1 X100.808 Y57.252 E0.13874
G1 X100.92 Y57.25 E0.14246
G1 X118.76 Y57.25 E0.73582
G1 X119.458 Y57.26 E0.75904
G1 X120.022 Y57.308 E0.77787
G1 X120.572 Y57.435 E0.79664
G1 X121.1 Y57.639 E0.81547
G1 X121.594 Y57.914 E0.83427
G1 X122.043 Y58.257 E0.85307
G1 X122.44 Y58.659 E0.87186
G1 X122.777 Y59.114 E0.89069
G1 X123.045 Y59.611 E0.90947
G1 X123.241 Y60.141 E0.92827
G1 X123.361 Y60.694 E0.94709
G1 X123.408 Y61.468 E0.97288
G1 X123.41 Y61.58 E0.9766
G1 X123.41 Y158.064 E4.18567
G1 X123.401 Y158.791 E4.20986
G1 X123.354 Y159.354 E4.22865
G1 X123.228 Y159.905 E4.24745
G1 X123.026 Y160.433 E4.26625
G1 X122.751 Y160.927 E4.28505
G1 X122.409 Y161.377 E4.30385
G1 X122.007 Y161.775 E4.32267
G1 X121.554 Y162.112 E4.34145
G1 X121.057 Y162.382 E4.36026
G1 X120.527 Y162.579 E4.37907
G1 X119.975 Y162.7 E4.39786
G1 X119.192 Y162.748 E4.42395
G1 X119.08 Y162.75 E4.42768
G1 X101.245 Y162.75 E5.02087
G1 X100.547 Y162.741 E5.04409
G1 X99.984 Y162.693 E5.06288
G1 X99.433 Y162.567 E5.08168
G1 X98.905 Y162.365 E5.10049
G1 X98.411 Y162.09 E5.11929
G1 X97.961 Y161.748 E5.13809
G1 X97.563 Y161.346 E5.1569
G1 X97.227 Y160.892 E5.17569
G1 X96.957 Y160.395 E5.1945
G1 X96.76 Y159.865 E5.21331
G1 X96.64 Y159.313 E5.2321
G1 X96.591 Y158.516 E5.25866
G1 X96.59 Y61.87 E8.47311
G1 X96.599 Y61.205 E8.49523
G1 X96.647 Y60.642 E8.51403
G1 X96.773 Y60.091 E8.53283
G1 X96.976 Y59.563 E8.55164
G1 X97.252 Y59.069 E8.57046
G0 F3000 X97.648 Y59.197
G1 F1200 X97.987 Y58.781 E8.58831
G1 X98.384 Y58.421 E8.60614
G1 X98.831 Y58.123 E8.624
G1 X99.316 Y57.895 E8.64183
G1 X99.83 Y57.742 E8.65967
G1 X100.498 Y57.66 E8.68205
G1 X100.92 Y57.65 E8.69609
G1 X118.755 Y57.65 E9.28928
G1 X119.453 Y57.66 E9.3125
G1 X119.987 Y57.708 E9.33034
G1 X120.508 Y57.834 E9.34816
G1 X121.005 Y58.037 E9.36602
G1 X121.466 Y58.311 E9.38386
G1 X121.881 Y58.65 E9.40168
G1 X122.241 Y59.048 E9.41953
G1 X122.538 Y59.494 E9.43735
G1 X122.766 Y59.98 E9.45521
G1 X122.918 Y60.494 E9.47303
G1 X123 Y61.159 E9.49532
G1 X123.01 Y61.58 E9.50932
G1 X123.01 Y158.059 E12.71823
G1 X123.001 Y158.786 E12.74241
G1 X122.954 Y159.32 E12.76024
G1 X122.829 Y159.841 E12.77806
G1 X122.627 Y160.338 E12.7959
G1 X122.354 Y160.8 E12.81375
G1 X122.016 Y161.216 E12.83158
G1 X121.619 Y161.577 E12.84943
G1 X121.173 Y161.875 E12.86727
G1 X120.688 Y162.103 E12.88509
G1 X120.174 Y162.257 E12.90294
G1 X119.502 Y162.34 E12.92546
G1 X119.08 Y162.35 E12.9395
G1 X101.251 Y162.35 E13.53249
G1 X100.553 Y162.341 E13.55571
G1 X100.018 Y162.294 E13.57358
G1 X99.497 Y162.168 E13.5914
G1 X99 Y161.966 E13.60925
G1 X98.539 Y161.693 E13.62707
G1 X98.123 Y161.354 E13.64491
G1 X97.762 Y160.958 E13.66274
G1 X97.464 Y160.512 E13.68058
G1 X97.236 Y160.026 E13.69843
G1 X97.083 Y159.512 E13.71627
G1 X97 Y158.838 E13.73886
G1 X96.99 Y158.408 E13.75316
G1 X96.99 Y61.875 E16.96386
G1 X96.999 Y61.21 E16.98598
G1 X97.047 Y60.676 E17.00382
G1 X97.173 Y60.155 E17.02164
G1 X97.375 Y59.658 E17.03949
G1 X97.648 Y59.197 E17.05731
G0 F3000 X98.044 Y59.332
G1 F1200 X98.379 Y58.954 E17.07411
G1 X98.77 Y58.633 E17.09093
G1 X99.207 Y58.378 E17.10776
G1 X99.678 Y58.194 E17.12458
G1 X100.172 Y58.088 E17.14138
G1 X100.83 Y58.051 E17.1633
G1 X118.749 Y58.05 E17.75929
G1 X119.447 Y58.06 E17.78251
G1 X119.95 Y58.107 E17.79931
G1 X120.44 Y58.233 E17.81614
G1 X120.904 Y58.435 E17.83297
G1 X121.33 Y58.707 E17.84978
G1 X121.708 Y59.042 E17.86658
G1 X122.028 Y59.433 E17.88339
G1 X122.283 Y59.87 E17.90021
G1 X122.466 Y60.341 E17.91702
G1 X122.573 Y60.835 E17.93383
G1 X122.609 Y61.49 E17.95565
G1 X122.61 Y158.054 E21.16738
G1 X122.601 Y158.781 E21.19156
G1 X122.555 Y159.284 E21.20836
G1 X122.43 Y159.774 E21.22518
G1 X122.229 Y160.238 E21.242
G1 X121.958 Y160.665 E21.25882
G1 X121.623 Y161.044 E21.27565
G1 X121.233 Y161.365 E21.29245
G1 X120.797 Y161.621 E21.30926
G1 X120.326 Y161.804 E21.32607
G1 X119.832 Y161.912 E21.34289
G1 X119.17 Y161.949 E21.36494
G1 X101.256 Y161.95 E21.96076
G1 X100.558 Y161.941 E21.98398
G1 X100.054 Y161.894 E22.00082
G1 X99.564 Y161.769 E22.01764
G1 X99.1 Y161.568 E22.03445
G1 X98.674 Y161.297 E22.05125
G1 X98.295 Y160.962 E22.06807
G1 X97.974 Y160.571 E22.0849
G1 X97.719 Y160.135 E22.1017
G1 X97.535 Y159.664 E22.11851
G1 X97.428 Y159.17 E22.13533
G1 X97.391 Y158.494 E22.15784
G1 X97.39 Y61.881 E25.3712
G1 X97.399 Y61.216 E25.39332
G1 X97.446 Y60.712 E25.41016
G1 X97.572 Y60.223 E25.42696
G1 X97.773 Y59.759 E25.44377
G1 X98.044 Y59.332 E25.4606
G1 F1800 E18.4606
G1 F300 Z0.4
;MESH:clock-I.stl
G0 F3000 X118.81 Y158.15 Z0.4
;TYPE:WALL-INNER
G1 F300 Z0.2
G1 F1800 E25.4606
G1 F1200 X101.19 Y158.15 E26.04664
G1 X101.19 Y61.85 E29.24959
G1 X118.81 Y61.85 E29.83563
G1 X118.81 Y158.15 E33.03858
G0 F3000 X119.21 Y158.55
;TYPE:WALL-OUTER
G1 F1200 X100.79 Y158.55 E33.65124
G1 X100.79 Y61.45 E36.8808
G1 X119.21 Y61.45 E37.49345
G1 X119.21 Y158.55 E40.72301
G0 F3000 X119.01 Y158.55
G0 X118.77 Y158.11
G0 X118.42 Y157.76
;TYPE:SKIN
G1 F1200 X101.58 Y157.76 E41.28311
G1 X101.58 Y62.24 E44.46012
G1 X118.42 Y62.24 E45.02022
G1 X118.42 Y157.76 E48.19722
G0 F3000 X118.7 Y157.76
G0 X102.142 Y158.04
G0 X102.142 Y157.579
G1 F1200 X101.759 Y157.196 E48.21524
G0 F3000 X101.759 Y156.631
G1 F1200 X102.707 Y157.579 E48.25983
G0 F3000 X103.273 Y157.579
G1 F1200 X101.759 Y156.065 E48.33104
G0 F3000 X101.759 Y155.499
G1 F1200 X103.839 Y157.579 E48.42888
G0 F3000 X104.405 Y157.579
G1 F1200 X101.759 Y154.934 E48.55332
G0 F3000 X101.759 Y154.368
G1 F1200 X104.97 Y157.579 E48.70435
G0 F3000 X105.536 Y157.579
G1 F1200 X101.759 Y153.802 E48.88201
G0 F3000 X101.759 Y153.237
G1 F1200 X106.102 Y157.579 E49.08627
G0 F3000 X106.667 Y157.579
G1 F1200 X101.759 Y152.671 E49.31713
G0 F3000 X101.759 Y152.105
G1 F1200 X107.233 Y157.579 E49.57461
G0 F3000 X107.799 Y157.579
G1 F1200 X101.759 Y151.54 E49.85869
G0 F3000 X101.759 Y150.974
G1 F1200 X108.364 Y157.579 E50.16936
G0 F3000 X108.93 Y157.579
G1 F1200 X101.759 Y150.408 E50.50667
G0 F3000 X101.759 Y149.842
G1 F1200 X109.496 Y157.579 E50.87059
G0 F3000 X110.061 Y157.579
G1 F1200 X101.759 Y149.277 E51.26109
G0 F3000 X101.759 Y148.711
G1 F1200 X110.627 Y157.579 E51.67822
G0 F3000 X111.193 Y157.579
G1 F1200 X101.759 Y148.145 E52.12196
G0 F3000 X101.759 Y147.58
G1 F1200 X111.758 Y157.579 E52.59228
G0 F3000 X112.324 Y157.579
G1 F1200 X101.759 Y147.014 E53.08923
G0 F3000 X101.759 Y146.448
G1 F1200 X112.89 Y157.579 E53.6128
G0 F3000 X113.455 Y157.579
G1 F1200 X101.759 Y145.883 E54.16294
G0 F3000 X101.759 Y145.317
G1 F1200 X114.021 Y157.579 E54.73971
G0 F3000 X114.587 Y157.579
G1 F1200 X101.759 Y144.751 E55.3431
G0 F3000 X101.759 Y144.186
G1 F1200 X115.153 Y157.579 E55.97309
G0 F3000 X115.718 Y157.579
G1 F1200 X101.759 Y143.62 E56.62968
G0 F3000 X101.759 Y143.054
G1 F1200 X116.284 Y157.579 E57.31289
G0 F3000 X116.85 Y157.579
G1 F1200 X101.759 Y142.489 E58.0227
G0 F3000 X101.759 Y141.923
G1 F1200 X117.415 Y157.579 E58.75911
G0 F3000 X117.981 Y157.579
G1 F1200 X101.759 Y141.357 E59.52214
G0 F3000 X101.759 Y140.792
G1 F1200 X118.24 Y157.272 E60.29733
G0 F3000 X118.24 Y156.706
G1 F1200 X101.759 Y140.226 E61.07253
G0 F3000 X101.759 Y139.66
G1 F1200 X118.24 Y156.141 E61.84774
G0 F3000 X118.24 Y155.575
G1 F1200 X101.759 Y139.094 E62.62296
G0 F3000 X101.759 Y138.529
G1 F1200 X118.24 Y155.009 E63.39815
G0 F3000 X118.24 Y154.444
G1 F1200 X101.759 Y137.963 E64.17337
G0 F3000 X101.759 Y137.397
G1 F1200 X118.24 Y153.878 E64.94858
G0 F3000 X118.24 Y153.312
G1 F1200 X101.759 Y136.832 E65.72377
G0 F3000 X101.759 Y136.266
G1 F1200 X118.24 Y152.747 E66.49899
G0 F3000 X118.24 Y152.181
G1 F1200 X101.759 Y135.7 E67.2742
G0 F3000 X101.759 Y135.135
G1 F1200 X118.24 Y151.615 E68.0494
G0 F3000 X118.24 Y151.05
G1 F1200 X101.759 Y134.569 E68.82461
G0 F3000 X101.759 Y134.003
G1 F1200 X118.24 Y150.484 E69.59983
G0 F3000 X118.24 Y149.918
G1 F1200 X101.759 Y133.438 E70.37502
G0 F3000 X101.759 Y132.872
G1 F1200 X118.24 Y149.352 E71.15021
G0 F3000 X118.24 Y148.787
G1 F1200 X101.759 Y132.306 E71.92543
G0 F3000 X101.759 Y131.741
G1 F1200 X118.24 Y148.221 E72.70062
G0 F3000 X118.24 Y147.655
G1 F1200 X101.759 Y131.175 E73.47581
G0 F3000 X101.759 Y130.609
G1 F1200 X118.24 Y147.09 E74.25103
G0 F3000 X118.24 Y146.524
G1 F1200 X101.759 Y130.044 E75.02622
G0 F3000 X101.759 Y129.478
G1 F1200 X118.24 Y145.958 E75.80141
G0 F3000 X118.24 Y145.393
G1 F1200 X101.759 Y128.912 E76.57663
G0 F3000 X101.759 Y128.346
G1 F1200 X118.24 Y144.827 E77.35184
G0 F3000 X118.24 Y144.261
G1 F1200 X101.759 Y127.781 E78.12704
G0 F3000 X101.759 Y127.215
G1 F1200 X118.24 Y143.696 E78.90225
G0 F3000 X118.24 Y143.13
G1 F1200 X101.759 Y126.649 E79.67747
G0 F3000 X101.759 Y126.084
G1 F1200 X118.24 Y142.564 E80.45266
G0 F3000 X118.24 Y141.999
G1 F1200 X101.759 Y125.518 E81.22788
G0 F3000 X101.759 Y124.952
G1 F1200 X118.24 Y141.433 E82.00309
G0 F3000 X118.24 Y140.867
G1 F1200 X101.759 Y124.387 E82.77828
G0 F3000 X101.759 Y123.821
G1 F1200 X118.24 Y140.302 E83.5535
G0 F3000 X118.24 Y139.736
G1 F1200 X101.759 Y123.255 E84.32872
G0 F3000 X101.759 Y122.69
G1 F1200 X118.24 Y139.17 E85.10391
G0 F3000 X118.24 Y138.604
G1 F1200 X101.759 Y122.124 E85.8791
G0 F3000 X101.759 Y121.558
G1 F1200 X118.24 Y138.039 E86.65432
G0 F3000 X118.24 Y137.473
G1 F1200 X101.759 Y120.993 E87.42951
G0 F3000 X101.759 Y120.427
G1 F1200 X118.24 Y136.907 E88.2047
G0 F3000 X118.24 Y136.342
G1 F1200 X101.759 Y119.861 E88.97992
G0 F3000 X101.759 Y119.295
G1 F1200 X118.24 Y135.776 E89.75513
G0 F3000 X118.24 Y135.21
G1 F1200 X101.759 Y118.73 E90.53032
G0 F3000 X101.759 Y118.164
G1 F1200 X118.24 Y134.645 E91.30554
G0 F3000 X118.24 Y134.079
G1 F1200 X101.759 Y117.598 E92.08075
G0 F3000 X101.759 Y117.033
G1 F1200 X118.24 Y133.513 E92.85595
G0 F3000 X118.24 Y132.948
G1 F1200 X101.759 Y116.467 E93.63116
G0 F3000 X101.759 Y115.901
G1 F1200 X118.24 Y132.382 E94.40638
G0 F3000 X118.24 Y131.816
G1 F1200 X101.759 Y115.336 E95.18157
G0 F3000 X101.759 Y114.77
G1 F1200 X118.24 Y131.251 E95.95679
G0 F3000 X118.24 Y130.685
G1 F1200 X101.759 Y114.204 E96.732
G0 F3000 X101.759 Y113.639
G1 F1200 X118.24 Y130.119 E97.50719
G0 F3000 X118.24 Y129.553
G1 F1200 X101.759 Y113.073 E98.28239
G0 F3000 X101.759 Y112.507
G1 F1200 X118.24 Y128.988 E99.0576
G0 F3000 X118.24 Y128.422
G1 F1200 X101.759 Y111.942 E99.83279
G0 F3000 X101.759 Y111.376
G1 F1200 X118.24 Y127.856 E100.60799
G0 F3000 X118.24 Y127.291
G1 F1200 X101.759 Y110.81 E101.3832
G0 F3000 X101.759 Y110.245
G1 F1200 X118.24 Y126.725 E102.15839
G0 F3000 X118.24 Y126.159
G1 F1200 X101.759 Y109.678 E102.93361
G0 F3000 X101.759 Y109.112
G1 F1200 X118.24 Y125.594 E103.70885
G0 F3000 X118.24 Y125.028
G1 F1200 X101.759 Y108.547 E104.48407
G0 F3000 X101.759 Y107.981
G1 F1200 X118.24 Y124.462 E105.25928
G0 F3000 X118.24 Y123.897
G1 F1200 X101.759 Y107.415 E106.03452
G0 F3000 X101.759 Y106.85
G1 F1200 X118.24 Y123.331 E106.80974
G0 F3000 X118.24 Y122.765
G1 F1200 X101.759 Y106.284 E107.58495
G0 F3000 X101.759 Y105.718
G1 F1200 X118.24 Y122.2 E108.36019
G0 F3000 X118.24 Y121.634
G1 F1200 X101.759 Y105.153 E109.13541
G0 F3000 X101.759 Y104.587
G1 F1200 X118.24 Y121.068 E109.91062
G0 F3000 X118.24 Y120.503
G1 F1200 X101.759 Y104.021 E110.68586
G0 F3000 X101.759 Y103.456
G1 F1200 X118.24 Y119.937 E111.46108
G0 F3000 X118.24 Y119.371
G1 F1200 X101.759 Y102.89 E112.23629
G0 F3000 X101.759 Y102.324
G1 F1200 X118.24 Y118.805 E113.01151
G0 F3000 X118.24 Y118.24
G1 F1200 X101.759 Y101.759 E113.78672
G0 F3000 X101.759 Y101.193
G1 F1200 X118.24 Y117.674 E114.56194
G0 F3000 X118.24 Y117.108
G1 F1200 X101.759 Y100.627 E115.33716
G0 F3000 X101.759 Y100.061
G1 F1200 X118.24 Y116.543 E116.11239
G0 F3000 X118.24 Y115.977
G1 F1200 X101.759 Y99.496 E116.88761
G0 F3000 X101.759 Y98.93
G1 F1200 X118.24 Y115.411 E117.66283
G0 F3000 X118.24 Y114.846
G1 F1200 X101.759 Y98.364 E118.43807
G0 F3000 X101.759 Y97.799
G1 F1200 X118.24 Y114.28 E119.21328
G0 F3000 X118.24 Y113.714
G1 F1200 X101.759 Y97.233 E119.9885
G0 F3000 X101.759 Y96.667
G1 F1200 X118.24 Y113.149 E120.76374
G0 F3000 X118.24 Y112.583
G1 F1200 X101.759 Y96.102 E121.53895
G0 F3000 X101.759 Y95.536
G1 F1200 X118.24 Y112.017 E122.31417
G0 F3000 X118.24 Y111.452
G1 F1200 X101.759 Y94.97 E123.08941
G0 F3000 X101.759 Y94.405
G1 F1200 X118.24 Y110.886 E123.86462
G0 F3000 X118.24 Y110.32
G1 F1200 X101.759 Y93.839 E124.63984
G0 F3000 X101.759 Y93.273
G1 F1200 X118.239 Y109.754 E125.41503
G0 F3000 X118.239 Y109.188
G1 F1200 X101.759 Y92.708 E126.1902
G0 F3000 X101.759 Y92.142
G1 F1200 X118.239 Y108.622 E126.96537
G0 F3000 X118.239 Y108.057
G1 F1200 X101.759 Y91.576 E127.74056
G0 F3000 X101.759 Y91.011
G1 F1200 X118.239 Y107.491 E128.51573
G0 F3000 X118.239 Y106.925
G1 F1200 X101.759 Y90.445 E129.2909
G0 F3000 X101.759 Y89.879
G1 F1200 X118.239 Y106.36 E130.06609
G0 F3000 X118.239 Y105.794
G1 F1200 X101.759 Y89.313 E130.84128
G0 F3000 X101.759 Y88.748
G1 F1200 X118.239 Y105.228 E131.61645
G0 F3000 X118.239 Y104.663
G1 F1200 X101.759 Y88.182 E132.39164
G0 F3000 X101.759 Y87.616
G1 F1200 X118.239 Y104.097 E133.16683
G0 F3000 X118.239 Y103.531
G1 F1200 X101.759 Y87.051 E133.942
G0 F3000 X101.759 Y86.485
G1 F1200 X118.239 Y102.966 E134.7172
G0 F3000 X118.239 Y102.4
G1 F1200 X101.759 Y85.919 E135.49239
G0 F3000 X101.759 Y85.354
G1 F1200 X118.239 Y101.834 E136.26756
G0 F3000 X118.239 Y101.269
G1 F1200 X101.759 Y84.788 E137.04275
G0 F3000 X101.759 Y84.222
G1 F1200 X118.239 Y100.703 E137.81794
G0 F3000 X118.239 Y100.137
G1 F1200 X101.759 Y83.657 E138.59311
G0 F3000 X101.759 Y83.091
G1 F1200 X118.239 Y99.571 E139.36828
G0 F3000 X118.239 Y99.006
G1 F1200 X101.759 Y82.525 E140.14347
G0 F3000 X101.759 Y81.96
G1 F1200 X118.239 Y98.44 E140.91864
G0 F3000 X118.239 Y97.874
G1 F1200 X101.759 Y81.394 E141.69381
G0 F3000 X101.759 Y80.828
G1 F1200 X118.239 Y97.309 E142.469
G0 F3000 X118.239 Y96.743
G1 F1200 X101.759 Y80.262 E143.24419
G0 F3000 X101.759 Y79.697
G1 F1200 X118.239 Y96.177 E144.01936
G0 F3000 X118.239 Y95.612
G1 F1200 X101.759 Y79.131 E144.79455
G0 F3000 X101.759 Y78.565
G1 F1200 X118.239 Y95.046 E145.56975
G0 F3000 X118.239 Y94.48
G1 F1200 X101.759 Y78 E146.34491
G0 F3000 X101.759 Y77.434
G1 F1200 X118.239 Y93.915 E147.12011
G0 F3000 X118.239 Y93.349
G1 F1200 X101.759 Y76.868 E147.8953
G0 F3000 X101.759 Y76.303
G1 F1200 X118.239 Y92.783 E148.67047
G0 F3000 X118.239 Y92.218
G1 F1200 X101.759 Y75.737 E149.44566
G0 F3000 X101.759 Y75.171
G1 F1200 X118.239 Y91.652 E150.22085
G0 F3000 X118.239 Y91.086
G1 F1200 X101.759 Y74.606 E150.99602
G0 F3000 X101.759 Y74.04
G1 F1200 X118.239 Y90.52 E151.77119
G0 F3000 X118.239 Y89.955
