;FLAVOR:Marlin
;TIME:19317
;Filament used: 13.7048m
;Layer height: 0.2
;MINX:55.99
;MINY:43.19
;MINZ:0.2
;MAXX:184.31
;MAXY:176.81
;MAXZ:5.2
;Generated with Cura_SteamEngine master
M82 ;absolute extrusion mode
;Sliced at: Mon 17-07-2023 18:58:03
;Basic settings: Layer height: 0.2 Walls: 0.8 Fill: 20
G21 ;metric values
G90 ;absolute positioning
M82 ;set extruder to absolute mode
M107 ;start with the fan off
M117 Start heating ...
M104 S200
M117 Homing X/Y ...
G28 X0 Y0 ;move X/Y to min endstops
M117 Homing Z ...
G28 Z0 ;move Z to min endstops
G1 Z15.0 F100 ;move the platform down 15mm
M117 Heating ...
M109 S200
M117 Start cleaning ...
G92 E0 ;zero the extruded length
G1 F200 E10 ;extrude 10mm of feed stock
G92 E0 ;zero the extruded length again
M117 Intro line ...
G1 Z2.0 F3000 ; Move Z Axis up little to prevent scratching of Heat Bed
G1 X0.1 Y20 Z0.2 F5000.0 ; Move to start position
G1 X0.1 Y200.0 Z0.2 F1500.0 E15 ; Draw the first line
G1 X0.4 Y200.0 Z0.2 F5000.0 ; Move to side a little
G1 X0.4 Y20 Z0.3 F1500.0 E30 ; Draw the second line
G92 E0 ; Reset Extruder
G1 E-1 F500 ; Retract filiment by 1 mm
G1 Z2.0 F3000 ; Move Z Axis up little to prevent scratching of Heat Bed
G1 X5 Y20 Z0.3 F100 ; Move over to prevent blob squish
G1 F100
G92 E0 ; Reset Extruder
M117 Printing...

G92 E0
G92 E0
G1 F1800 E-7
;LAYER_COUNT:25
;LAYER:0
M107
G1 F300 Z0.4
G0 F3000 X64.097 Y45.109 Z0.4
;TYPE:SKIRT
G1 F300 Z0.2
G1 F1800 E0
G1 F1200 X64.426 Y44.649 E0.01881
G1 X64.816 Y44.24 E0.03761
G1 X65.26 Y43.891 E0.05639
G1 X65.749 Y43.607 E0.0752
G1 X66.273 Y43.395 E0.094
G1 X66.822 Y43.259 E0.11281
G1 X67.383 Y43.202 E0.13157
G1 X67.83 Y43.19 E0.14644
G1 X151.85 Y43.19 E2.94095
G1 X152.553 Y43.2 E2.96434
G1 X153.116 Y43.248 E2.98313
G1 X153.667 Y43.375 E3.00194
G1 X154.195 Y43.579 E3.02077
G1 X154.688 Y43.854 E3.03954
G1 X155.289 Y44.337 E3.06519
G1 X155.507 Y44.551 E3.07535
G1 X157.079 Y46.144 E3.14978
G1 X159.07 Y48.053 E3.24153
G1 X161.074 Y49.867 E3.33143
G1 X163.135 Y51.629 E3.42162
G1 X165.28 Y53.361 E3.51331
G1 X167.411 Y54.983 E3.60239
G1 X169.617 Y56.567 E3.69271
G1 X171.878 Y58.095 E3.78348
G1 X174.144 Y59.535 E3.87278
G1 X176.506 Y60.942 E3.96422
G1 X178.866 Y62.261 E4.05414
G1 X181.36 Y63.562 E4.1477
G1 X182.097 Y63.933 E4.17514
G1 X182.583 Y64.222 E4.19395
G1 X183.023 Y64.576 E4.21273
G1 X183.409 Y64.99 E4.23156
G1 X183.733 Y65.453 E4.25035
G1 X183.989 Y65.957 E4.26915
G1 X184.17 Y66.493 E4.28797
G1 X184.275 Y67.048 E4.30676
G1 X184.308 Y67.719 E4.3291
G1 X184.31 Y67.83 E4.33279
G1 X184.31 Y151.819 E7.12628
G1 X184.3 Y152.549 E7.15056
G1 X184.252 Y153.112 E7.16936
G1 X184.125 Y153.663 E7.18816
G1 X183.922 Y154.191 E7.20698
G1 X183.647 Y154.684 E7.22575
G1 X183.305 Y155.134 E7.24455
G1 X182.902 Y155.532 E7.26339
G1 X182.448 Y155.868 E7.28218
G1 X181.764 Y156.242 E7.30811
G1 X180.049 Y157.108 E7.37201
G1 X177.665 Y158.397 E7.46215
G1 X175.307 Y159.76 E7.55273
G1 X173.02 Y161.168 E7.64206
G1 X170.73 Y162.67 E7.73315
G1 X168.484 Y164.236 E7.82421
G1 X166.336 Y165.825 E7.91308
G1 X164.185 Y167.512 E8.004
G1 X162.094 Y169.252 E8.09448
G1 X160.063 Y171.039 E8.18445
G1 X158.086 Y172.882 E8.27435
G1 X156.078 Y174.864 E8.36819
G1 X155.347 Y175.606 E8.40283
G1 X154.923 Y175.98 E8.42164
G1 X154.45 Y176.29 E8.44045
G1 X153.939 Y176.531 E8.45924
G1 X153.398 Y176.697 E8.47806
G1 X152.619 Y176.798 E8.50419
G1 X152.17 Y176.81 E8.51913
G1 X68.15 Y176.81 E11.31364
G1 X67.451 Y176.8 E11.3369
G1 X66.887 Y176.752 E11.35572
G1 X66.337 Y176.625 E11.3745
G1 X65.809 Y176.421 E11.39332
G1 X65.316 Y176.146 E11.4121
G1 X64.866 Y175.803 E11.43092
G1 X64.469 Y175.401 E11.44971
G1 X64.133 Y174.946 E11.46852
G1 X63.864 Y174.449 E11.48732
G1 X63.677 Y173.949 E11.50507
G1 X63.625 Y173.769 E11.51131
G1 X63.382 Y172.837 E11.54334
G1 X62.666 Y170.249 E11.63265
G1 X61.859 Y167.623 E11.72402
G1 X60.981 Y165.03 E11.81508
G1 X60.05 Y162.513 E11.90434
G1 X59.043 Y160.017 E11.99385
G1 X57.941 Y157.491 E12.08552
G1 X56.781 Y155.023 E12.17622
G1 X56.404 Y154.25 E12.20482
G1 X56.193 Y153.726 E12.22361
G1 X56.058 Y153.177 E12.24241
G1 X56.002 Y152.62 E12.26103
G1 X55.99 Y152.17 E12.27601
G1 X55.99 Y68.114 E15.07172
G1 X56 Y67.443 E15.09404
G1 X56.049 Y66.88 E15.11284
G1 X56.176 Y66.329 E15.13164
G1 X56.378 Y65.805 E15.15032
G1 X56.583 Y65.368 E15.16638
G1 X57.434 Y63.617 E15.23113
G1 X58.543 Y61.164 E15.32067
G1 X59.604 Y58.625 E15.41219
G1 X60.566 Y56.131 E15.5011
G1 X61.476 Y53.553 E15.59203
G1 X62.31 Y50.96 E15.68262
G1 X63.062 Y48.373 E15.77223
G1 X63.519 Y46.619 E15.83251
G1 X63.649 Y46.144 E15.84889
G1 X63.836 Y45.611 E15.86768
G1 X64.097 Y45.109 E15.8865
G0 F3000 X64.467 Y45.271
G1 F1200 X64.787 Y44.841 E15.90433
G1 X65.168 Y44.463 E15.92218
G1 X65.6 Y44.146 E15.94
G1 X66.075 Y43.897 E15.95784
G1 X66.582 Y43.721 E15.97569
G1 X67.109 Y43.622 E15.99352
G1 X67.719 Y43.592 E16.01383
G1 X67.83 Y43.59 E16.01753
G1 X151.844 Y43.59 E18.81184
G1 X152.547 Y43.6 E18.83523
G1 X153.081 Y43.648 E18.85306
G1 X153.603 Y43.774 E18.87092
G1 X154.099 Y43.977 E18.88875
G1 X154.56 Y44.251 E18.90658
G1 X155.01 Y44.623 E18.926
G1 X155.223 Y44.831 E18.9359
G1 X156.842 Y46.472 E19.01258
G1 X158.79 Y48.339 E19.10232
G1 X160.83 Y50.185 E19.19383
G1 X162.887 Y51.943 E19.28382
G1 X164.994 Y53.645 E19.37391
G1 X167.198 Y55.323 E19.46604
G1 X169.389 Y56.896 E19.55575
G1 X171.645 Y58.421 E19.64632
G1 X173.946 Y59.883 E19.737
G1 X176.285 Y61.277 E19.82756
G1 X178.692 Y62.622 E19.91927
G1 X181.144 Y63.901 E20.01125
G1 X181.918 Y64.29 E20.04006
G1 X182.378 Y64.566 E20.0579
G1 X182.791 Y64.907 E20.07572
G1 X183.15 Y65.306 E20.09357
G1 X183.445 Y65.754 E20.11141
G1 X183.671 Y66.24 E20.12924
G1 X183.822 Y66.755 E20.14709
G1 X183.9 Y67.407 E20.16893
G1 X183.91 Y67.83 E20.183
G1 X183.91 Y151.813 E22.97629
G1 X183.9 Y152.543 E23.00057
G1 X183.852 Y153.078 E23.01843
G1 X183.726 Y153.599 E23.03626
G1 X183.524 Y154.095 E23.05407
G1 X183.25 Y154.557 E23.07194
G1 X182.911 Y154.972 E23.08976
G1 X182.514 Y155.333 E23.10761
G1 X181.963 Y155.687 E23.12939
G1 X181.539 Y155.908 E23.14529
G1 X179.857 Y156.757 E23.20796
G1 X177.465 Y158.05 E23.2984
G1 X175.118 Y159.407 E23.38857
G1 X172.788 Y160.842 E23.47958
G1 X170.488 Y162.35 E23.57106
G1 X168.286 Y163.885 E23.66034
G1 X166.097 Y165.505 E23.75091
G1 X163.927 Y167.207 E23.84264
G1 X161.837 Y168.945 E23.93305
G1 X159.792 Y170.746 E24.02368
G1 X157.797 Y172.605 E24.11438
G1 X155.811 Y174.564 E24.20716
G1 X155.062 Y175.325 E24.24267
G1 X154.658 Y175.678 E24.26052
G1 X154.207 Y175.968 E24.27835
G1 X153.717 Y176.187 E24.2962
G1 X153.2 Y176.33 E24.31404
G1 X152.606 Y176.398 E24.33393
G1 X152.17 Y176.41 E24.34844
G1 X68.156 Y176.41 E27.14275
G1 X67.457 Y176.4 E27.166
G1 X66.922 Y176.352 E27.18387
G1 X66.401 Y176.226 E27.2017
G1 X65.905 Y176.023 E27.21952
G1 X65.444 Y175.749 E27.23736
G1 X65.028 Y175.41 E27.25521
G1 X64.668 Y175.012 E27.27306
G1 X64.371 Y174.566 E27.29088
G1 X64.06 Y173.834 E27.31733
G1 X64.012 Y173.668 E27.32308
G1 X63.769 Y172.736 E27.35511
G1 X63.039 Y170.098 E27.44615
G1 X62.245 Y167.515 E27.53603
G1 X61.359 Y164.9 E27.62786
G1 X60.42 Y162.361 E27.7179
G1 X59.409 Y159.856 E27.80775
G1 X58.312 Y157.339 E27.89907
G1 X57.143 Y154.853 E27.99044
G1 X56.764 Y154.075 E28.01922
G1 X56.565 Y153.577 E28.03706
G1 X56.443 Y153.054 E28.05492
G1 X56.392 Y152.28 E28.08072
G1 X56.39 Y152.17 E28.08438
G1 X56.39 Y68.12 E30.87989
G1 X56.4 Y67.449 E30.90221
G1 X56.448 Y66.915 E30.92005
G1 X56.575 Y66.394 E30.93788
G1 X56.922 Y65.589 E30.96704
G1 X57.801 Y63.778 E31.03399
G1 X58.919 Y61.305 E31.12426
G1 X59.958 Y58.818 E31.21391
G1 X60.952 Y56.241 E31.30577
G1 X61.853 Y53.69 E31.39575
G1 X62.686 Y51.098 E31.48631
G1 X63.45 Y48.471 E31.5773
G1 X63.905 Y46.725 E31.63731
G1 X64.035 Y46.25 E31.65369
G1 X64.214 Y45.744 E31.67154
G1 X64.467 Y45.271 E31.68939
G0 F3000 X64.836 Y45.437
G1 F1200 X65.147 Y45.038 E31.70621
G1 X65.517 Y44.694 E31.72302
G1 X65.937 Y44.412 E31.73984
G1 X66.396 Y44.199 E31.75667
G1 X66.882 Y44.062 E31.77347
G1 X67.408 Y44.002 E31.79107
G1 X67.83 Y43.99 E31.80512
G1 X151.839 Y43.99 E34.59927
G1 X152.542 Y44 E34.62265
G1 X153.045 Y44.047 E34.63945
G1 X153.535 Y44.173 E34.65628
G1 X153.998 Y44.375 E34.67308
G1 X154.425 Y44.646 E34.6899
G1 X154.895 Y45.069 E34.71093
G1 X156.563 Y46.759 E34.78991
G1 X158.528 Y48.642 E34.88043
G1 X160.547 Y50.469 E34.97099
G1 X162.621 Y52.242 E35.06175
G1 X164.767 Y53.976 E35.15351
G1 X166.922 Y55.616 E35.24358
G1 X169.178 Y57.235 E35.33594
G1 X171.428 Y58.757 E35.42629
G1 X173.742 Y60.227 E35.51747
G1 X176.08 Y61.62 E35.60799
G1 X178.491 Y62.967 E35.69984
G1 X181.008 Y64.281 E35.79428
G1 X181.738 Y64.648 E35.82146
G1 X182.17 Y64.91 E35.83826
G1 X182.556 Y65.237 E35.85509
G1 X182.886 Y65.62 E35.8719
G1 X183.15 Y66.051 E35.88871
G1 X183.344 Y66.518 E35.90553
G1 X183.462 Y67.009 E35.92233
G1 X183.509 Y67.741 E35.94672
G1 X183.51 Y151.808 E38.7428
G1 X183.5 Y152.538 E38.76709
G1 X183.453 Y153.041 E38.78389
G1 X183.327 Y153.531 E38.80072
G1 X183.126 Y153.995 E38.81753
G1 X182.855 Y154.421 E38.83433
G1 X182.519 Y154.799 E38.85115
G1 X182.128 Y155.12 E38.86797
G1 X181.394 Y155.532 E38.89597
G1 X179.708 Y156.383 E38.95879
G1 X177.281 Y157.695 E39.05055
G1 X174.903 Y159.069 E39.14189
G1 X172.573 Y160.504 E39.23291
G1 X170.278 Y162.01 E39.32421
G1 X168.026 Y163.579 E39.4155
G1 X165.858 Y165.184 E39.50521
G1 X163.67 Y166.9 E39.5977
G1 X161.582 Y168.636 E39.68801
G1 X159.536 Y170.438 E39.77869
G1 X157.527 Y172.31 E39.87003
G1 X155.526 Y174.284 E39.96351
G1 X154.777 Y175.045 E39.99903
G1 X154.395 Y175.376 E40.01584
G1 X153.965 Y175.643 E40.03267
G1 X153.499 Y175.839 E40.04949
G1 X153.008 Y175.959 E40.0663
G1 X152.268 Y176.008 E40.09097
G1 X152.17 Y176.01 E40.09423
G1 X68.161 Y176.01 E42.88838
G1 X67.462 Y176 E42.91163
G1 X66.959 Y175.953 E42.92843
G1 X66.469 Y175.827 E42.94526
G1 X66.005 Y175.625 E42.96209
G1 X65.579 Y175.353 E42.9789
G1 X65.201 Y175.018 E42.9957
G1 X64.881 Y174.627 E43.01251
G1 X64.626 Y174.19 E43.02933
G1 X64.443 Y173.72 E43.04611
G1 X64.4 Y173.567 E43.05139
G1 X64.169 Y172.681 E43.08185
G1 X63.429 Y170.005 E43.17419
G1 X62.623 Y167.385 E43.26536
G1 X61.738 Y164.77 E43.35719
G1 X60.801 Y162.239 E43.44695
G1 X59.762 Y159.664 E43.5393
G1 X58.683 Y157.188 E43.62914
G1 X57.505 Y154.683 E43.72121
G1 X57.123 Y153.9 E43.75018
G1 X56.938 Y153.429 E43.76701
G1 X56.83 Y152.935 E43.78383
G1 X56.791 Y152.268 E43.80605
G1 X56.79 Y68.126 E46.60463
G1 X56.8 Y67.455 E46.62695
G1 X56.848 Y66.952 E46.64375
G1 X56.974 Y66.462 E46.66058
G1 X57.284 Y65.758 E46.68617
G1 X58.153 Y63.969 E46.75232
G1 X59.288 Y61.458 E46.84397
G1 X60.329 Y58.968 E46.93373
G1 X61.326 Y56.381 E47.02595
G1 X62.234 Y53.812 E47.11657
G1 X63.068 Y51.217 E47.20723
G1 X63.835 Y48.579 E47.2986
G1 X64.291 Y46.83 E47.35872
G1 X64.421 Y46.355 E47.3751
G1 X64.592 Y45.88 E47.39189
G1 X64.836 Y45.437 E47.40871
G1 F1800 E40.40871
G1 F300 Z0.4
;MESH:clock-I.stl(5)
G0 F3000 X151.9 Y65.41 Z0.4
;TYPE:WALL-INNER
G1 F300 Z0.2
G1 F1800 E47.40871
G1 F1200 X68.1 Y65.41 E50.19591
G1 X68.1 Y47.79 E50.78195
G1 X151.9 Y47.79 E53.56915
G1 X151.9 Y65.41 E54.1552
G0 F3000 X152.3 Y65.81
;TYPE:WALL-OUTER
G1 F1200 X67.7 Y65.81 E56.969
G1 X67.7 Y47.39 E57.58166
G1 X152.3 Y47.39 E60.39546
G1 X152.3 Y65.81 E61.00812
G0 F3000 X152.1 Y65.81
G0 X151.86 Y65.37
G0 X151.51 Y65.02
;TYPE:SKIN
G1 F1200 X68.49 Y65.02 E63.76937
G1 X68.49 Y48.18 E64.32947
G1 X151.51 Y48.18 E67.09073
G1 X151.51 Y65.02 E67.65083
G0 F3000 X151.79 Y65.02
G0 X151.79 Y48.94
G0 X151.329 Y48.94
G1 F1200 X150.749 Y48.36 E67.67811
G0 F3000 X150.183 Y48.36
G1 F1200 X151.329 Y49.505 E67.73199
G0 F3000 X151.329 Y50.071
G1 F1200 X149.618 Y48.36 E67.81247
G0 F3000 X149.052 Y48.36
G1 F1200 X151.329 Y50.637 E67.91958
G0 F3000 X151.329 Y51.203
G1 F1200 X148.486 Y48.36 E68.0533
G0 F3000 X147.921 Y48.36
G1 F1200 X151.329 Y51.768 E68.2136
G0 F3000 X151.329 Y52.334
G1 F1200 X147.355 Y48.36 E68.40053
G0 F3000 X146.789 Y48.36
G1 F1200 X151.329 Y52.9 E68.61408
G0 F3000 X151.329 Y53.465
G1 F1200 X146.224 Y48.36 E68.8542
G0 F3000 X145.658 Y48.36
G1 F1200 X151.329 Y54.031 E69.12095
G0 F3000 X151.329 Y54.597
G1 F1200 X145.092 Y48.36 E69.41432
G0 F3000 X144.526 Y48.36
G1 F1200 X151.329 Y55.162 E69.73428
G0 F3000 X151.329 Y55.728
G1 F1200 X143.961 Y48.36 E70.08085
G0 F3000 X143.395 Y48.36
G1 F1200 X151.329 Y56.294 E70.45404
G0 F3000 X151.329 Y56.859
G1 F1200 X142.829 Y48.36 E70.85383
G0 F3000 X142.264 Y48.36
G1 F1200 X151.329 Y57.425 E71.28022
G0 F3000 X151.329 Y57.991
G1 F1200 X141.698 Y48.36 E71.73324
G0 F3000 X141.132 Y48.36
G1 F1200 X151.329 Y58.556 E72.21285
G0 F3000 X151.329 Y59.122
G1 F1200 X140.567 Y48.36 E72.71906
G0 F3000 X140.001 Y48.36
G1 F1200 X151.329 Y59.688 E73.25189
G0 F3000 X151.329 Y60.253
G1 F1200 X139.435 Y48.36 E73.81133
G0 F3000 X138.87 Y48.36
G1 F1200 X151.329 Y60.819 E74.39736
G0 F3000 X151.329 Y61.385
G1 F1200 X138.304 Y48.36 E75.01002
G0 F3000 X137.738 Y48.36
G1 F1200 X151.329 Y61.951 E75.6493
G0 F3000 X151.329 Y62.516
G1 F1200 X137.173 Y48.36 E76.31515
G0 F3000 X136.607 Y48.36
G1 F1200 X151.329 Y63.082 E77.00763
G0 F3000 X151.329 Y63.648
G1 F1200 X136.041 Y48.36 E77.72673
G0 F3000 X135.476 Y48.36
G1 F1200 X151.329 Y64.213 E78.47241
G0 F3000 X151.329 Y64.779
G1 F1200 X134.91 Y48.36 E79.24471
G0 F3000 X134.344 Y48.36
G1 F1200 X150.823 Y64.839 E80.01983
G0 F3000 X150.258 Y64.839
G1 F1200 X133.778 Y48.36 E80.79497
G0 F3000 X133.213 Y48.36
G1 F1200 X149.692 Y64.839 E81.57009
G0 F3000 X149.126 Y64.839
G1 F1200 X132.647 Y48.36 E82.34522
G0 F3000 X132.081 Y48.36
G1 F1200 X148.561 Y64.839 E83.12036
G0 F3000 X147.995 Y64.839
G1 F1200 X131.516 Y48.36 E83.89548
G0 F3000 X130.95 Y48.36
G1 F1200 X147.429 Y64.839 E84.6706
G0 F3000 X146.863 Y64.839
G1 F1200 X130.384 Y48.36 E85.44573
G0 F3000 X129.819 Y48.36
G1 F1200 X146.298 Y64.839 E86.22085
G0 F3000 X145.732 Y64.839
G1 F1200 X129.253 Y48.36 E86.99597
G0 F3000 X128.687 Y48.36
G1 F1200 X145.166 Y64.839 E87.77109
G0 F3000 X144.601 Y64.839
G1 F1200 X128.122 Y48.36 E88.54621
G0 F3000 X127.556 Y48.36
G1 F1200 X144.035 Y64.839 E89.32133
G0 F3000 X143.469 Y64.839
G1 F1200 X126.99 Y48.36 E90.09645
G0 F3000 X126.425 Y48.36
G1 F1200 X142.904 Y64.839 E90.87158
G0 F3000 X142.338 Y64.839
G1 F1200 X125.859 Y48.36 E91.6467
G0 F3000 X125.293 Y48.36
G1 F1200 X141.772 Y64.839 E92.42182
G0 F3000 X141.207 Y64.839
G1 F1200 X124.727 Y48.36 E93.19697
G0 F3000 X124.162 Y48.36
G1 F1200 X140.641 Y64.839 E93.97209
G0 F3000 X140.075 Y64.839
G1 F1200 X123.596 Y48.36 E94.74721
G0 F3000 X123.03 Y48.36
G1 F1200 X139.51 Y64.839 E95.52235
G0 F3000 X138.944 Y64.839
G1 F1200 X122.465 Y48.36 E96.29748
G0 F3000 X121.899 Y48.36
G1 F1200 X138.378 Y64.839 E97.0726
G0 F3000 X137.812 Y64.839
G1 F1200 X121.333 Y48.36 E97.84772
G0 F3000 X120.768 Y48.36
G1 F1200 X137.247 Y64.839 E98.62284
G0 F3000 X136.681 Y64.839
G1 F1200 X120.202 Y48.36 E99.39796
G0 F3000 X119.636 Y48.36
G1 F1200 X136.115 Y64.839 E100.17308
G0 F3000 X135.55 Y64.839
G1 F1200 X119.071 Y48.36 E100.9482
G0 F3000 X118.505 Y48.36
G1 F1200 X134.984 Y64.839 E101.72333
G0 F3000 X134.418 Y64.839
G1 F1200 X117.939 Y48.36 E102.49845
G0 F3000 X117.374 Y48.36
G1 F1200 X133.853 Y64.839 E103.27357
G0 F3000 X133.287 Y64.839
G1 F1200 X116.808 Y48.36 E104.04869
G0 F3000 X116.242 Y48.36
G1 F1200 X132.721 Y64.839 E104.82381
G0 F3000 X132.156 Y64.839
G1 F1200 X115.677 Y48.36 E105.59893
G0 F3000 X115.111 Y48.36
G1 F1200 X131.59 Y64.839 E106.37406
G0 F3000 X131.024 Y64.839
G1 F1200 X114.545 Y48.36 E107.14918
G0 F3000 X113.979 Y48.36
G1 F1200 X130.459 Y64.839 E107.92432
G0 F3000 X129.893 Y64.839
G1 F1200 X113.414 Y48.36 E108.69944
G0 F3000 X112.848 Y48.36
G1 F1200 X129.327 Y64.839 E109.47457
G0 F3000 X128.762 Y64.839
G1 F1200 X112.282 Y48.36 E110.24971
G0 F3000 X111.717 Y48.36
G1 F1200 X128.196 Y64.839 E111.02483
G0 F3000 X127.63 Y64.839
G1 F1200 X111.151 Y48.36 E111.79995
G0 F3000 X110.585 Y48.36
G1 F1200 X127.064 Y64.839 E112.57508
G0 F3000 X126.499 Y64.839
G1 F1200 X110.02 Y48.36 E113.3502
G0 F3000 X109.454 Y48.36
G1 F1200 X125.933 Y64.839 E114.12532
G0 F3000 X125.367 Y64.839
G1 F1200 X108.888 Y48.36 E114.90044
G0 F3000 X108.323 Y48.36
G1 F1200 X124.802 Y64.839 E115.67556
