;FLAVOR:Marlin
;TIME:4736
;Filament used: 2.11407m
;Layer height: 0.2
;MINX:83.317
;MINY:64.802
;MINZ:0.2
;MAXX:136.683
;MAXY:155.215
;MAXZ:3.2
;Generated with Cura_SteamEngine master
M82 ;absolute extrusion mode
;Sliced at: Sat 25-02-2023 21:21:50
;Basic settings: Layer height: 0.2 Walls: 0.8 Fill: 30.0
G21 ;metric values
G90 ;absolute positioning
M82 ;set extruder to absolute mode
M107 ;start with the fan off
M117 Start heating ...
M104 S200
M117 Homing X/Y ...
G28 X0 Y0 ;move X/Y to min endstops
M117 Homing Z ...
G28 Z0 ;move Z to min endstops
G1 Z15.0 F100 ;move the platform down 15mm
M117 Heating ...
M109 S200
M117 Start cleaning ...
G92 E0 ;zero the extruded length
G1 F200 E10 ;extrude 10mm of feed stock
G92 E0 ;zero the extruded length again
M117 Intro line ...
G1 Z2.0 F3000 ; Move Z Axis up little to prevent scratching of Heat Bed
G1 X0.1 Y20 Z0.2 F5000.0 ; Move to start position
G1 X0.1 Y200.0 Z0.2 F1500.0 E15 ; Draw the first line
G1 X0.4 Y200.0 Z0.2 F5000.0 ; Move to side a little
G1 X0.4 Y20 Z0.3 F1500.0 E30 ; Draw the second line
G92 E0 ; Reset Extruder
G1 E-1 F500 ; Retract filiment by 1 mm
G1 Z2.0 F3000 ; Move Z Axis up little to prevent scratching of Heat Bed
G1 X5 Y20 Z0.3 F100 ; Move over to prevent blob squish
G1 F100
G92 E0 ; Reset Extruder
M117 Printing...

G92 E0
G92 E0
G1 F1800 E-7
;LAYER_COUNT:15
;LAYER:0
M107
G1 F300 Z0.4
G0 F3000 X90.174 Y73.659 Z0.4
;TYPE:SKIRT
G1 F300 Z0.2
G1 F1800 E0
G1 F1200 X90.609 Y73.137 E0.0226
G1 X91.063 Y72.626 E0.04533
G1 X91.165 Y72.517 E0.0503
G1 X92.055 Y71.592 E0.09299
G1 X92.486 Y71.177 E0.11289
G1 X93.491 Y70.296 E0.15735
G1 X93.938 Y69.934 E0.17648
G1 X95.041 Y69.121 E0.22205
G1 X95.513 Y68.802 E0.241
G1 X96.704 Y68.077 E0.28737
G1 X97.197 Y67.803 E0.30613
G1 X98.402 Y67.202 E0.35092
G1 X98.896 Y66.973 E0.36903
G1 X99.059 Y66.903 E0.37493
G1 X99.906 Y66.561 E0.40531
G1 X100.203 Y66.45 E0.41586
G1 X101.016 Y66.168 E0.44448
G1 X101.341 Y66.065 E0.45582
G1 X102.199 Y65.813 E0.48556
G1 X102.536 Y65.724 E0.49715
G1 X103.497 Y65.49 E0.53005
G1 X103.707 Y65.446 E0.53719
G1 X104.693 Y65.254 E0.5706
G1 X104.862 Y65.225 E0.5763
G1 X105.923 Y65.066 E0.61198
G1 X106.268 Y65.023 E0.62355
G1 X107.237 Y64.923 E0.65595
G1 X107.856 Y64.875 E0.6766
G1 X108.922 Y64.816 E0.71211
G1 X109.282 Y64.806 E0.72408
G1 X110.828 Y64.802 E0.77551
G1 X110.973 Y64.804 E0.78033
G1 X111.625 Y64.826 E0.80203
G1 X111.764 Y64.833 E0.80666
G1 X112.654 Y64.894 E0.83633
G1 X112.803 Y64.907 E0.8413
G1 X113.828 Y65.016 E0.87558
G1 X113.995 Y65.038 E0.88119
G1 X114.827 Y65.162 E0.90917
G1 X114.976 Y65.187 E0.91419
G1 X116.029 Y65.385 E0.94983
G1 X116.155 Y65.411 E0.95411
G1 X116.656 Y65.522 E0.97117
G1 X116.839 Y65.567 E0.97744
G1 X117.653 Y65.788 E1.0055
G1 X117.817 Y65.836 E1.01118
G1 X118.641 Y66.098 E1.03994
G1 X118.812 Y66.157 E1.04595
G1 X119.599 Y66.447 E1.07385
G1 X119.767 Y66.513 E1.07985
G1 X120.547 Y66.841 E1.108
G1 X120.713 Y66.915 E1.11404
G1 X121.439 Y67.26 E1.14078
G1 X121.601 Y67.342 E1.14682
G1 X122.319 Y67.724 E1.17387
G1 X122.484 Y67.816 E1.18015
G1 X123.221 Y68.254 E1.20866
G1 X123.372 Y68.349 E1.2146
G1 X124.053 Y68.796 E1.24169
G1 X124.205 Y68.901 E1.24784
G1 X124.859 Y69.375 E1.2747
G1 X125.005 Y69.486 E1.2808
G1 X125.705 Y70.044 E1.31057
G1 X125.844 Y70.16 E1.3166
G1 X126.359 Y70.61 E1.33934
G1 X126.514 Y70.753 E1.34636
G1 X127.52 Y71.73 E1.393
G1 X127.977 Y72.209 E1.41502
G1 X128.923 Y73.298 E1.463
G1 X129.279 Y73.736 E1.48177
G1 X129.477 Y73.993 E1.49256
G1 X130.29 Y75.119 E1.53875
G1 X130.38 Y75.25 E1.54404
G1 X130.989 Y76.168 E1.58068
G1 X131.063 Y76.284 E1.58526
G1 X131.462 Y76.935 E1.61065
G1 X131.606 Y77.186 E1.62028
G1 X132.049 Y77.982 E1.65057
G1 X132.236 Y78.34 E1.66401
G1 X132.732 Y79.338 E1.70108
G1 X132.929 Y79.764 E1.71669
G1 X133.355 Y80.732 E1.75186
G1 X133.528 Y81.157 E1.76712
G1 X133.893 Y82.097 E1.80066
G1 X134.099 Y82.672 E1.82098
G1 X134.441 Y83.69 E1.8567
G1 X134.706 Y84.562 E1.88701
G1 X134.986 Y85.552 E1.92123
G1 X135.06 Y85.837 E1.93102
G1 X135.216 Y86.467 E1.95261
G1 X135.428 Y87.37 E1.98346
G1 X135.455 Y87.494 E1.98768
G1 X135.686 Y88.644 E2.02669
G1 X135.873 Y89.656 E2.06092
G1 X135.913 Y89.904 E2.06928
G1 X136.106 Y91.192 E2.11259
G1 X136.236 Y92.161 E2.14511
G1 X136.265 Y92.422 E2.15385
G1 X136.403 Y93.775 E2.19908
G1 X136.5 Y94.883 E2.23607
G1 X136.577 Y96.184 E2.27942
G1 X136.659 Y98.321 E2.35055
G1 X136.678 Y99.333 E2.38421
G1 X136.683 Y100.808 E2.43327
G1 X136.667 Y101.651 E2.46132
G1 X136.608 Y103.078 E2.50882
G1 X136.593 Y103.319 E2.51685
G1 X136.46 Y105.136 E2.57745
G1 X136.448 Y105.275 E2.58209
G1 X136.296 Y106.678 E2.62902
G1 X136.138 Y107.828 E2.66763
G1 X136.12 Y107.945 E2.67157
G1 X135.932 Y109.057 E2.70908
G1 X135.91 Y109.177 E2.71314
G1 X135.691 Y110.269 E2.75018
G1 X135.661 Y110.406 E2.75485
G1 X135.41 Y111.463 E2.79098
G1 X135.377 Y111.591 E2.79538
G1 X135.116 Y112.548 E2.82837
G1 X135.076 Y112.687 E2.83318
G1 X134.76 Y113.7 E2.86847
G1 X134.71 Y113.848 E2.87367
G1 X134.363 Y114.825 E2.90815
G1 X133.264 Y117.69 E3.01021
G1 X132.36 Y120.26 E3.10083
G1 X131.529 Y122.859 E3.19158
G1 X130.778 Y125.452 E3.28137
G1 X130.103 Y128.063 E3.37106
G1 X129.493 Y130.727 E3.46196
G1 X128.958 Y133.417 E3.55318
G1 X128.513 Y136.036 E3.64154
G1 X128.128 Y138.761 E3.73308
G1 X127.827 Y141.447 E3.82297
G1 X127.601 Y144.148 E3.91312
G1 X127.451 Y146.859 E4.00343
G1 X127.372 Y150.047 E4.10949
G1 X127.361 Y151.243 E4.14927
G1 X127.315 Y151.807 E4.16809
G1 X127.191 Y152.358 E4.18688
G1 X126.99 Y152.887 E4.2057
G1 X126.717 Y153.382 E4.2245
G1 X126.377 Y153.833 E4.24329
G1 X125.976 Y154.232 E4.2621
G1 X125.523 Y154.57 E4.2809
G1 X125.027 Y154.841 E4.2997
G1 X124.498 Y155.04 E4.3185
G1 X123.946 Y155.162 E4.3373
G1 X123.316 Y155.209 E4.35831
G1 X122.92 Y155.215 E4.37149
G1 X108.112 Y155.215 E4.864
G1 X107.411 Y155.205 E4.88732
G1 X106.848 Y155.157 E4.90611
G1 X106.297 Y155.03 E4.92492
G1 X105.769 Y154.826 E4.94375
G1 X105.276 Y154.551 E4.96252
G1 X104.826 Y154.208 E4.98134
G1 X104.429 Y153.806 E5.00013
G1 X103.972 Y153.148 E5.02678
G1 X103.588 Y152.457 E5.05307
G1 X95.72 Y137.841 E5.60516
G1 X95.276 Y136.987 E5.63718
G1 X95.221 Y136.877 E5.64127
G1 X94.502 Y135.384 E5.69638
G1 X94.316 Y134.989 E5.7109
G1 X92.519 Y131.125 E5.85264
G1 X91.934 Y129.819 E5.90024
G1 X90.585 Y126.693 E6.01348
G1 X89.993 Y125.267 E6.06483
G1 X89.039 Y122.866 E6.15076
G1 X88.501 Y121.446 E6.20127
G1 X87.721 Y119.293 E6.27743
G1 X87.17 Y117.692 E6.33374
G1 X86.567 Y115.831 E6.39881
G1 X86.029 Y114.07 E6.46005
G1 X85.655 Y112.76 E6.50536
G1 X85.219 Y111.13 E6.56148
G1 X85.045 Y110.439 E6.58518
G1 X84.703 Y108.983 E6.63493
G1 X84.585 Y108.439 E6.65344
G1 X84.235 Y106.71 E6.71212
G1 X84.17 Y106.359 E6.72399
G1 X83.883 Y104.646 E6.78176
G1 X83.862 Y104.504 E6.78653
G1 X83.61 Y102.58 E6.85107
G1 X83.592 Y102.415 E6.85659
G1 X83.415 Y100.425 E6.92304
G1 X83.405 Y100.29 E6.92754
G1 X83.347 Y99.224 E6.96305
G1 X83.329 Y98.506 E6.98694
G1 X83.317 Y96.831 E7.04265
G1 X83.338 Y95.758 E7.07835
G1 X83.404 Y94.26 E7.12822
G1 X83.44 Y93.661 E7.14818
G1 X83.57 Y91.964 E7.20479
G1 X83.705 Y90.687 E7.2475
G1 X83.906 Y89.204 E7.29727
G1 X83.924 Y89.083 E7.30134
G1 X84.136 Y87.818 E7.344
G1 X84.159 Y87.693 E7.34823
G1 X84.409 Y86.446 E7.39053
G1 X84.44 Y86.303 E7.3954
G1 X84.749 Y85.009 E7.43964
G1 X84.786 Y84.868 E7.44449
G1 X85.099 Y83.74 E7.48343
G1 X85.142 Y83.595 E7.48846
G1 X85.527 Y82.387 E7.53063
G1 X85.578 Y82.237 E7.5359
G1 X85.973 Y81.149 E7.57439
G1 X86.03 Y81 E7.5797
G1 X86.566 Y79.689 E7.62681
G1 X86.625 Y79.553 E7.63174
G1 X86.913 Y78.917 E7.65496
G1 X86.987 Y78.762 E7.66067
G1 X87.479 Y77.789 E7.69694
G1 X87.602 Y77.559 E7.70561
G1 X88.086 Y76.704 E7.73829
G1 X88.251 Y76.43 E7.74893
G1 X88.822 Y75.523 E7.78458
G1 X88.94 Y75.347 E7.79162
G1 X89.412 Y74.667 E7.81915
G1 X89.672 Y74.312 E7.83379
G1 X90.174 Y73.659 E7.86118
G0 F3000 X90.491 Y73.903
G1 F1200 X90.914 Y73.396 E7.88315
G1 X91.361 Y72.893 E7.90553
G1 X91.453 Y72.794 E7.91002
G1 X92.343 Y71.869 E7.95272
G1 X92.75 Y71.478 E7.97149
G1 X93.755 Y70.597 E8.01594
G1 X94.175 Y70.256 E8.03393
G1 X95.278 Y69.443 E8.07951
G1 X95.721 Y69.144 E8.09728
G1 X96.912 Y68.419 E8.14366
G1 X97.375 Y68.16 E8.1613
G1 X98.58 Y67.559 E8.20609
G1 X99.063 Y67.337 E8.22377
G1 X99.209 Y67.274 E8.22906
G1 X100.049 Y66.935 E8.25919
G1 X100.335 Y66.828 E8.26934
G1 X101.138 Y66.549 E8.29762
G1 X101.454 Y66.448 E8.30865
G1 X102.302 Y66.199 E8.33805
G1 X102.631 Y66.112 E8.34937
G1 X103.48 Y65.904 E8.37844
G1 X103.784 Y65.838 E8.38879
G1 X104.77 Y65.646 E8.4222
G1 X104.922 Y65.62 E8.42733
G1 X105.973 Y65.463 E8.46267
G1 X106.309 Y65.421 E8.47393
G1 X107.374 Y65.312 E8.50954
G1 X107.879 Y65.275 E8.52638
G1 X108.935 Y65.216 E8.56156
G1 X109.283 Y65.206 E8.57314
G1 X110.829 Y65.202 E8.62456
G1 X110.959 Y65.204 E8.62888
G1 X111.611 Y65.226 E8.65058
G1 X111.736 Y65.232 E8.65474
G1 X112.626 Y65.293 E8.68441
G1 X112.761 Y65.305 E8.68892
G1 X113.786 Y65.414 E8.7232
G1 X113.936 Y65.433 E8.72823
G1 X114.768 Y65.557 E8.75621
G1 X114.902 Y65.58 E8.76073
G1 X116.069 Y65.801 E8.80024
G1 X116.57 Y65.912 E8.81731
G1 X116.734 Y65.953 E8.82293
G1 X117.548 Y66.174 E8.85098
G1 X117.696 Y66.217 E8.85611
G1 X118.52 Y66.479 E8.88487
G1 X118.674 Y66.532 E8.89028
G1 X119.461 Y66.822 E8.91818
G1 X119.611 Y66.881 E8.92354
G1 X120.391 Y67.209 E8.95168
G1 X120.541 Y67.276 E8.95715
G1 X121.267 Y67.621 E8.98388
G1 X121.413 Y67.695 E8.98933
G1 X122.131 Y68.077 E9.01638
G1 X122.279 Y68.16 E9.02202
G1 X123.016 Y68.598 E9.05054
G1 X123.152 Y68.683 E9.05587
G1 X123.833 Y69.13 E9.08296
G1 X123.971 Y69.225 E9.08854
G1 X124.625 Y69.699 E9.1154
G1 X124.756 Y69.799 E9.12088
G1 X125.456 Y70.357 E9.15066
G1 X125.581 Y70.461 E9.15606
G1 X126.096 Y70.911 E9.17881
G1 X126.235 Y71.039 E9.1851
G1 X127.241 Y72.016 E9.23174
G1 X127.675 Y72.471 E9.25265
G1 X128.621 Y73.56 E9.30063
G1 X128.968 Y73.987 E9.31893
G1 X129.153 Y74.228 E9.32903
G1 X129.966 Y75.354 E9.37523
G1 X130.047 Y75.471 E9.37996
G1 X130.656 Y76.389 E9.4166
G1 X130.723 Y76.493 E9.42072
G1 X131.06 Y77.041 E9.44211
G1 X131.256 Y77.381 E9.45517
G1 X131.695 Y78.169 E9.48517
G1 X131.878 Y78.518 E9.49827
G1 X132.422 Y79.616 E9.53903
G1 X132.563 Y79.925 E9.55033
G1 X132.989 Y80.893 E9.5855
G1 X133.155 Y81.302 E9.60018
G1 X133.557 Y82.341 E9.63724
G1 X133.74 Y82.86 E9.65554
G1 X134.059 Y83.808 E9.68881
G1 X134.305 Y84.618 E9.71697
G1 X134.599 Y85.653 E9.75275
G1 X134.672 Y85.933 E9.76238
G1 X134.827 Y86.558 E9.78379
G1 X135.039 Y87.461 E9.81464
G1 X135.283 Y88.665 E9.8555
G1 X135.462 Y89.625 E9.88798
G1 X135.517 Y89.963 E9.89937
G1 X135.709 Y91.245 E9.94249
G1 X135.839 Y92.206 E9.97474
G1 X135.867 Y92.463 E9.98334
G1 X136.005 Y93.81 E10.02838
G1 X136.101 Y94.907 E10.065
G1 X136.174 Y96.124 E10.10555
G1 X136.259 Y98.328 E10.17891
G1 X136.278 Y99.334 E10.21238
G1 X136.283 Y100.801 E10.26117
G1 X136.267 Y101.635 E10.28891
G1 X136.208 Y103.055 E10.33618
G1 X136.194 Y103.29 E10.34401
G1 X136.061 Y105.107 E10.40461
G1 X136.05 Y105.232 E10.40878
G1 X135.885 Y106.742 E10.45931
G1 X135.726 Y107.878 E10.49746
G1 X135.538 Y108.99 E10.53497
G1 X135.518 Y109.098 E10.53862
G1 X135.299 Y110.19 E10.57566
G1 X135.272 Y110.314 E10.57988
G1 X135.021 Y111.371 E10.61602
G1 X134.73 Y112.443 E10.65296
G1 X134.694 Y112.568 E10.65729
G1 X134.378 Y113.581 E10.69258
G1 X134.333 Y113.714 E10.69725
G1 X133.986 Y114.691 E10.73174
G1 X132.888 Y117.55 E10.8336
G1 X131.988 Y120.111 E10.92389
G1 X131.152 Y122.724 E11.01513
G1 X130.393 Y125.346 E11.10592
G1 X129.71 Y127.986 E11.19662
G1 X129.106 Y130.624 E11.28663
G1 X128.565 Y133.343 E11.37884
G1 X128.116 Y135.984 E11.46794
G1 X127.734 Y138.697 E11.55906
G1 X127.426 Y141.44 E11.65087
G1 X127.201 Y144.126 E11.74052
G1 X127.051 Y146.828 E11.83053
G1 X126.972 Y150.037 E11.93729
G1 X126.961 Y151.239 E11.97727
G1 X126.916 Y151.774 E11.99513
G1 X126.792 Y152.296 E12.01297
G1 X126.592 Y152.793 E12.03079
G1 X126.32 Y153.255 E12.04862
G1 X125.983 Y153.672 E12.06645
G1 X125.587 Y154.034 E12.0843
G1 X125.142 Y154.334 E12.10215
G1 X124.657 Y154.563 E12.11999
G1 X124.144 Y154.719 E12.13782
G1 X123.493 Y154.803 E12.15965
G1 X122.916 Y154.815 E12.17885
G1 X108.118 Y154.815 E12.67103
G1 X107.417 Y154.805 E12.69435
G1 X106.882 Y154.757 E12.71222
G1 X106.361 Y154.631 E12.73004
G1 X105.865 Y154.428 E12.74787
G1 X105.404 Y154.154 E12.76571
G1 X104.988 Y153.815 E12.78356
G1 X104.628 Y153.418 E12.80138
G1 X104.321 Y152.954 E12.81988
G1 X103.94 Y152.267 E12.84601
G1 X96.075 Y137.657 E13.39788
G1 X95.581 Y136.704 E13.43358
G1 X94.864 Y135.214 E13.48858
G1 X94.679 Y134.821 E13.50303
G1 X92.884 Y130.962 E13.64458
G1 X92.301 Y129.66 E13.69203
G1 X90.954 Y126.54 E13.80506
G1 X90.365 Y125.119 E13.85622
G1 X89.413 Y122.724 E13.94194
G1 X88.877 Y121.309 E13.99227
G1 X88.099 Y119.163 E14.06819
G1 X87.551 Y117.569 E14.12425
G1 X86.949 Y115.714 E14.18912
G1 X86.414 Y113.96 E14.25011
G1 X86.042 Y112.656 E14.29521
G1 X85.607 Y111.033 E14.3511
G1 X85.435 Y110.347 E14.37462
G1 X85.094 Y108.898 E14.42413
G1 X84.977 Y108.359 E14.44248
G1 X84.628 Y106.637 E14.50092
G1 X84.564 Y106.293 E14.51255
G1 X84.277 Y104.58 E14.57032
G1 X84.258 Y104.453 E14.57459
G1 X84.006 Y102.529 E14.63913
G1 X83.99 Y102.38 E14.64412
G1 X83.813 Y100.39 E14.71057
G1 X83.804 Y100.268 E14.71463
G1 X83.747 Y99.21 E14.74987
G1 X83.729 Y98.498 E14.77356
G1 X83.717 Y96.829 E14.82908
G1 X83.738 Y95.766 E14.86444
G1 X83.806 Y94.229 E14.91561
G1 X83.838 Y93.691 E14.93353
G1 X83.958 Y92.112 E14.9862
G1 X84.103 Y90.73 E15.03242
G1 X84.116 Y90.622 E15.03604
G1 X84.302 Y89.258 E15.08183
G1 X84.531 Y87.884 E15.12816
G1 X84.551 Y87.771 E15.13197
G1 X84.801 Y86.524 E15.17427
G1 X84.829 Y86.396 E15.17863
G1 X85.138 Y85.102 E15.22288
G1 X85.171 Y84.975 E15.22724
G1 X85.484 Y83.847 E15.26618
G1 X85.523 Y83.717 E15.27069
G1 X85.908 Y82.509 E15.31286
G1 X85.954 Y82.373 E15.31764
G1 X86.349 Y81.285 E15.35614
G1 X86.401 Y81.152 E15.36089
G1 X86.937 Y79.841 E15.40799
G1 X86.99 Y79.718 E15.41245
G1 X87.278 Y79.082 E15.43567
G1 X87.344 Y78.943 E15.44079
G1 X87.876 Y77.893 E15.47994
G1 X87.951 Y77.756 E15.48513
G1 X88.43 Y76.909 E15.5175
G1 X88.59 Y76.643 E15.52782
G1 X89.155 Y75.745 E15.56311
G1 X89.269 Y75.575 E15.56992
G1 X89.794 Y74.821 E15.60047
G1 X89.989 Y74.556 E15.61142
G1 X90.491 Y73.903 E15.63881
G0 F3000 X90.808 Y74.147
G1 F1200 X91.22 Y73.654 E15.66018
G1 X91.66 Y73.159 E15.68221
G1 X91.741 Y73.071 E15.68619
G1 X92.631 Y72.146 E15.72888
G1 X93.014 Y71.779 E15.74652
G1 X94.099 Y70.829 E15.79449
G1 X94.412 Y70.578 E15.80783
G1 X95.515 Y69.765 E15.85341
G1 X95.929 Y69.486 E15.87001
G1 X97.208 Y68.709 E15.91979
G1 X97.554 Y68.518 E15.93293
G1 X98.759 Y67.917 E15.97772
G1 X99.229 Y67.701 E15.99492
G1 X99.359 Y67.644 E15.99965
G1 X100.191 Y67.309 E16.02948
G1 X100.466 Y67.205 E16.03926
G1 X101.183 Y66.955 E16.06451
G1 X101.568 Y66.832 E16.07795
G1 X102.405 Y66.586 E16.10697
G1 X102.727 Y66.501 E16.11805
G1 X103.665 Y66.272 E16.15016
G1 X103.86 Y66.231 E16.15679
G1 X104.846 Y66.039 E16.1902
G1 X104.981 Y66.016 E16.19475
G1 X106.024 Y65.859 E16.22983
G1 X106.351 Y65.819 E16.24079
G1 X107.405 Y65.711 E16.27603
G1 X107.901 Y65.674 E16.29257
G1 X108.949 Y65.616 E16.32748
G1 X109.284 Y65.606 E16.33863
G1 X110.83 Y65.602 E16.39005
G1 X110.946 Y65.604 E16.39391
G1 X111.709 Y65.631 E16.4193
G1 X112.599 Y65.692 E16.44897
G1 X112.718 Y65.703 E16.45295
G1 X113.743 Y65.812 E16.48723
G1 X113.877 Y65.829 E16.49173
G1 X114.709 Y65.953 E16.5197
G1 X114.828 Y65.973 E16.52372
G1 X115.881 Y66.171 E16.55935
G1 X116.483 Y66.303 E16.57985
G1 X116.629 Y66.339 E16.58485
G1 X117.443 Y66.56 E16.61291
G1 X117.575 Y66.598 E16.61748
G1 X118.399 Y66.86 E16.64623
G1 X118.535 Y66.907 E16.65102
G1 X119.322 Y67.197 E16.67892
G1 X119.456 Y67.25 E16.68371
G1 X120.236 Y67.578 E16.71185
G1 X120.369 Y67.638 E16.71671
G1 X121.095 Y67.983 E16.74344
G1 X121.225 Y68.048 E16.74827
G1 X121.943 Y68.43 E16.77533
G1 X122.075 Y68.504 E16.78036
G1 X122.812 Y68.942 E16.80887
G1 X122.933 Y69.018 E16.81363
G1 X123.614 Y69.465 E16.84072
G1 X123.736 Y69.549 E16.84565
G1 X124.39 Y70.023 E16.87251
G1 X124.507 Y70.112 E16.8774
G1 X125.207 Y70.67 E16.90717
