;FLAVOR:Marlin
;TIME:813
;Filament used: 0.266081m
;Layer height: 0.1
;MINX:97.015
;MINY:76.456
;MINZ:0.2
;MAXX:122.978
;MAXY:143.564
;MAXZ:3
;Generated with Cura_SteamEngine master
M82 ;absolute extrusion mode
;Sliced at: Sun 30-10-2022 23:42:04
;Basic settings: Layer height: 0.1 Walls: 0.8 Fill: 30.0
G21 ;metric values
G90 ;absolute positioning
M82 ;set extruder to absolute mode
M107 ;start with the fan off
M117 Start heating ...
M104 S200
M117 Homing X/Y ...
G28 X0 Y0 ;move X/Y to min endstops
M117 Homing Z ...
G28 Z0 ;move Z to min endstops
G1 Z15.0 F100 ;move the platform down 15mm
M117 Heating ...
M109 S200
M117 Start cleaning ...
G92 E0 ;zero the extruded length
G1 F200 E10 ;extrude 10mm of feed stock
G92 E0 ;zero the extruded length again
M117 Intro line ...
G1 Z2.0 F3000 ; Move Z Axis up little to prevent scratching of Heat Bed
G1 X0.1 Y20 Z0.1 F5000.0 ; Move to start position
G1 X0.1 Y200.0 Z0.1 F1500.0 E15 ; Draw the first line
G1 X0.4 Y200.0 Z0.1 F5000.0 ; Move to side a little
G1 X0.4 Y20 Z0.3 F1500.0 E30 ; Draw the second line
G92 E0 ; Reset Extruder
G1 E-1 F500 ; Retract filiment by 1 mm
G1 Z2.0 F3000 ; Move Z Axis up little to prevent scratching of Heat Bed
G1 X5 Y20 Z0.3 F100 ; Move over to prevent blob squish
G1 F100
G92 E0 ; Reset Extruder
M117 Printing...

G92 E0
G92 E0
G1 F1800 E-7
;LAYER_COUNT:29
;LAYER:0
M107
G1 F300 Z0.4
G0 F3000 X99.99 Y81.163 Z0.4
;TYPE:SKIRT
G1 F300 Z0.2
G1 F1800 E0
G1 F1200 X100.462 Y80.629 E0.0237
G1 X100.877 Y80.204 E0.04346
G1 X101.376 Y79.726 E0.06644
G1 X101.728 Y79.427 E0.08181
G1 X102.443 Y78.888 E0.11159
G1 X102.952 Y78.528 E0.13232
G1 X103.354 Y78.279 E0.14805
G1 X104.091 Y77.882 E0.17589
G1 X104.215 Y77.818 E0.18053
G1 X104.67 Y77.593 E0.19742
G1 X105.167 Y77.383 E0.21536
G1 X105.886 Y77.129 E0.24072
G1 X105.997 Y77.091 E0.24463
G1 X106.506 Y76.929 E0.26239
G1 X106.958 Y76.814 E0.27791
G1 X107.84 Y76.643 E0.30779
G1 X108.455 Y76.543 E0.32851
G1 X108.927 Y76.497 E0.34428
G1 X109.837 Y76.462 E0.37457
G1 X110.396 Y76.456 E0.39317
G1 X110.867 Y76.481 E0.40885
G1 X111.747 Y76.579 E0.4383
G1 X112.334 Y76.662 E0.45802
G1 X112.795 Y76.758 E0.47368
G1 X113.719 Y77.007 E0.50551
G1 X114.237 Y77.163 E0.52351
G1 X114.684 Y77.328 E0.53935
G1 X115.529 Y77.7 E0.57006
G1 X116.055 Y77.951 E0.58945
G1 X116.46 Y78.176 E0.60486
G1 X117.223 Y78.66 E0.63491
G1 X117.722 Y78.999 E0.65497
G1 X118.089 Y79.283 E0.67041
G1 X118.765 Y79.872 E0.70023
G1 X119.197 Y80.273 E0.71983
G1 X119.517 Y80.61 E0.73529
G1 X120.117 Y81.319 E0.76618
G1 X120.481 Y81.776 E0.78561
G1 X120.752 Y82.166 E0.80141
G1 X121.212 Y82.918 E0.83073
G1 X121.514 Y83.444 E0.8509
G1 X121.726 Y83.874 E0.86685
G1 X122.075 Y84.705 E0.89683
G1 X122.286 Y85.25 E0.91626
G1 X122.429 Y85.705 E0.93213
G1 X122.646 Y86.57 E0.96179
G1 X122.777 Y87.165 E0.98205
G1 X122.851 Y87.638 E0.99798
G1 X122.935 Y88.524 E1.02758
G1 X122.976 Y89.144 E1.04824
G1 X122.978 Y89.609 E1.06371
G1 X122.93 Y90.48 E1.09272
G1 X122.883 Y91.034 E1.11121
G1 X122.82 Y91.479 E1.12616
G1 X122.677 Y92.187 E1.15019
G1 X122.377 Y93.494 E1.19479
G1 X121.807 Y96.15 E1.28514
G1 X121.31 Y98.824 E1.3756
G1 X120.892 Y101.499 E1.46565
G1 X120.545 Y104.216 E1.55675
G1 X120.281 Y106.888 E1.64606
G1 X120.089 Y109.615 E1.73698
G1 X119.977 Y112.289 E1.826
G1 X119.939 Y115.032 E1.91724
G1 X119.979 Y117.775 E2.00848
G1 X120.093 Y120.445 E2.09736
G1 X120.288 Y123.18 E2.18856
G1 X120.557 Y125.874 E2.27861
G1 X120.91 Y128.621 E2.37073
G1 X120.985 Y129.331 E2.39447
G1 X120.996 Y129.763 E2.40885
G1 X120.996 Y138.878 E2.71201
G1 X120.987 Y139.605 E2.73619
G1 X120.94 Y140.168 E2.75499
G1 X120.814 Y140.719 E2.77378
G1 X120.612 Y141.247 E2.79259
G1 X120.337 Y141.741 E2.81139
G1 X119.995 Y142.191 E2.83019
G1 X119.593 Y142.589 E2.84901
G1 X119.14 Y142.926 E2.86778
G1 X118.643 Y143.196 E2.8866
G1 X118.113 Y143.393 E2.9054
G1 X117.561 Y143.514 E2.9242
G1 X116.778 Y143.562 E2.95029
G1 X116.669 Y143.564 E2.95392
G1 X113.075 Y143.564 E3.07345
G1 X111.383 Y143.54 E3.12973
G1 X108.668 Y143.54 E3.22004
G1 X108.205 Y143.551 E3.23544
G1 X107.057 Y143.564 E3.27362
G1 X103.646 Y143.564 E3.38708
G1 X102.948 Y143.554 E3.41029
G1 X102.384 Y143.506 E3.42912
G1 X101.834 Y143.379 E3.44789
G1 X101.306 Y143.175 E3.46672
G1 X100.812 Y142.9 E3.48553
G1 X100.363 Y142.557 E3.50432
G1 X99.966 Y142.155 E3.52311
G1 X99.629 Y141.7 E3.54194
G1 X99.361 Y141.203 E3.56072
G1 X99.165 Y140.673 E3.57952
G1 X99.045 Y140.12 E3.59834
G1 X98.997 Y139.33 E3.62466
G1 X98.996 Y130.079 E3.93235
G1 X99.007 Y129.362 E3.9562
G1 X99.039 Y128.915 E3.97111
G1 X99.185 Y127.783 E4.00907
G1 X99.279 Y127.124 E4.03121
G1 X99.585 Y124.405 E4.12222
G1 X99.812 Y121.711 E4.21214
G1 X99.965 Y118.965 E4.30361
G1 X100.039 Y116.295 E4.39245
G1 X100.037 Y113.551 E4.48371
G1 X99.959 Y110.843 E4.57382
G1 X99.803 Y108.142 E4.6638
G1 X99.571 Y105.439 E4.75404
G1 X99.265 Y102.753 E4.84395
G1 X98.875 Y100.035 E4.93528
G1 X98.417 Y97.375 E5.02505
G1 X97.885 Y94.723 E5.11502
G1 X97.585 Y93.457 E5.15829
G1 X97.555 Y93.274 E5.16446
G1 X97.274 Y92.047 E5.20632
G1 X97.149 Y91.272 E5.23243
G1 X97.13 Y91.114 E5.23773
G1 X97.038 Y90.216 E5.26775
G1 X97.015 Y89.567 E5.28935
G1 X97.029 Y88.992 E5.30848
G1 X97.06 Y88.365 E5.32936
G1 X97.163 Y87.515 E5.35784
G1 X97.258 Y86.973 E5.37614
G1 X97.383 Y86.364 E5.39682
G1 X97.519 Y85.852 E5.41444
G1 X97.566 Y85.7 E5.41973
G1 X97.797 Y85.019 E5.44365
G1 X97.97 Y84.548 E5.46034
G1 X98.326 Y83.761 E5.48906
G1 X98.567 Y83.295 E5.50651
G1 X98.866 Y82.753 E5.5271
G1 X99.201 Y82.227 E5.54784
G1 X99.28 Y82.114 E5.55243
G1 X99.671 Y81.576 E5.57455
G1 X99.99 Y81.163 E5.59191
G0 F3000 X100.307 Y81.407
G1 F1200 X100.756 Y80.9 E5.61443
G1 X101.162 Y80.485 E5.63374
G1 X101.652 Y80.016 E5.6563
G1 X101.969 Y79.746 E5.67015
G1 X102.684 Y79.207 E5.69993
G1 X103.182 Y78.855 E5.72022
G1 X103.544 Y78.632 E5.73436
G1 X104.392 Y78.177 E5.76636
G1 X104.847 Y77.952 E5.78325
G1 X105.312 Y77.756 E5.80003
G1 X105.428 Y77.713 E5.80415
G1 X106.018 Y77.506 E5.82494
G1 X106.627 Y77.311 E5.84621
G1 X107.034 Y77.207 E5.86018
G1 X107.916 Y77.036 E5.89006
G1 X108.518 Y76.938 E5.91035
G1 X108.943 Y76.897 E5.92455
G1 X109.966 Y76.859 E5.9586
G1 X110.822 Y76.878 E5.98708
G1 X111.702 Y76.976 E6.01653
G1 X112.276 Y77.058 E6.03581
G1 X112.691 Y77.144 E6.04991
G1 X113.615 Y77.393 E6.08174
G1 X114.121 Y77.545 E6.09931
G1 X114.523 Y77.694 E6.11357
G1 X115.368 Y78.066 E6.14428
G1 X115.881 Y78.312 E6.1632
G1 X116.245 Y78.514 E6.17705
G1 X117.008 Y78.998 E6.2071
G1 X117.496 Y79.329 E6.22671
G1 X117.826 Y79.585 E6.2406
G1 X118.502 Y80.174 E6.27042
G1 X118.924 Y80.565 E6.28956
G1 X119.212 Y80.868 E6.30346
G1 X119.812 Y81.577 E6.33435
G1 X120.167 Y82.024 E6.35334
G1 X120.411 Y82.374 E6.36753
G1 X120.871 Y83.126 E6.39685
G1 X121.166 Y83.642 E6.41662
G1 X121.357 Y84.029 E6.43097
G1 X121.706 Y84.86 E6.46095
G1 X121.912 Y85.393 E6.47996
G1 X122.041 Y85.802 E6.49422
G1 X122.284 Y86.777 E6.52764
G1 X122.453 Y87.676 E6.55807
G1 X122.537 Y88.562 E6.58767
G1 X122.577 Y89.169 E6.6079
G1 X122.579 Y89.587 E6.6218
G1 X122.539 Y90.334 E6.64668
G1 X122.484 Y91 E6.66891
G1 X122.427 Y91.401 E6.68238
G1 X122.287 Y92.097 E6.70599
G1 X121.987 Y93.404 E6.7506
G1 X121.416 Y96.064 E6.84108
G1 X120.916 Y98.761 E6.93231
G1 X120.495 Y101.453 E7.02294
G1 X120.148 Y104.166 E7.11391
G1 X119.882 Y106.854 E7.20375
G1 X119.691 Y109.571 E7.29434
G1 X119.576 Y112.301 E7.38522
G1 X119.539 Y115.033 E7.47609
G1 X119.578 Y117.763 E7.5669
G1 X119.695 Y120.489 E7.65765
G1 X119.889 Y123.212 E7.74845
G1 X120.157 Y125.897 E7.8382
G1 X120.519 Y128.712 E7.9326
G1 X120.586 Y129.342 E7.95367
G1 X120.596 Y129.763 E7.96768
G1 X120.596 Y138.873 E8.27068
G1 X120.587 Y139.6 E8.29486
G1 X120.54 Y140.134 E8.31269
G1 X120.415 Y140.655 E8.33051
G1 X120.213 Y141.152 E8.34835
G1 X119.94 Y141.614 E8.3662
G1 X119.602 Y142.03 E8.38403
G1 X119.205 Y142.391 E8.40187
G1 X118.759 Y142.689 E8.41971
G1 X118.274 Y142.917 E8.43754
G1 X117.76 Y143.071 E8.45539
G1 X117.088 Y143.154 E8.47791
G1 X116.669 Y143.164 E8.49185
G1 X113.081 Y143.164 E8.61118
G1 X111.389 Y143.14 E8.66747
G1 X108.659 Y143.14 E8.75827
G1 X108.201 Y143.151 E8.7735
G1 X107.053 Y143.164 E8.81169
G1 X103.651 Y143.164 E8.92484
G1 X102.953 Y143.154 E8.94806
G1 X102.419 Y143.106 E8.96589
G1 X101.898 Y142.98 E8.98372
G1 X101.401 Y142.777 E9.00157
G1 X100.94 Y142.503 E9.01941
G1 X100.525 Y142.164 E9.03723
G1 X100.165 Y141.766 E9.05508
G1 X99.868 Y141.32 E9.0729
G1 X99.64 Y140.834 E9.09076
G1 X99.488 Y140.32 E9.10859
G1 X99.406 Y139.652 E9.13097
G1 X99.396 Y139.222 E9.14528
G1 X99.396 Y130.085 E9.44918
G1 X99.407 Y129.368 E9.47303
G1 X99.436 Y128.966 E9.48643
G1 X99.581 Y127.839 E9.52422
G1 X99.678 Y127.154 E9.54723
G1 X99.983 Y124.451 E9.63771
G1 X100.212 Y121.728 E9.72859
G1 X100.363 Y119.035 E9.8183
G1 X100.439 Y116.271 E9.91027
G1 X100.437 Y113.539 E10.00114
G1 X100.359 Y110.844 E10.09081
G1 X100.203 Y108.121 E10.18153
G1 X99.969 Y105.396 E10.27249
G1 X99.659 Y102.684 E10.36328
G1 X99.272 Y99.982 E10.45407
G1 X98.811 Y97.307 E10.54435
G1 X98.275 Y94.636 E10.63496
G1 X97.974 Y93.365 E10.6784
G1 X97.945 Y93.184 E10.6845
G1 X97.664 Y91.958 E10.72633
G1 X97.545 Y91.215 E10.75136
G1 X97.528 Y91.073 E10.75612
G1 X97.436 Y90.175 E10.78614
G1 X97.415 Y89.564 E10.80648
G1 X97.428 Y89.012 E10.82484
G1 X97.459 Y88.385 E10.84572
G1 X97.559 Y87.571 E10.873
G1 X97.65 Y87.053 E10.89049
G1 X97.775 Y86.444 E10.91117
G1 X97.945 Y85.828 E10.93242
G1 X98.14 Y85.249 E10.95274
G1 X98.346 Y84.686 E10.97268
G1 X98.687 Y83.933 E11.00017
G1 X98.917 Y83.488 E11.01684
G1 X99.216 Y82.946 E11.03742
G1 X99.533 Y82.45 E11.057
G1 X99.604 Y82.348 E11.06114
G1 X99.988 Y81.82 E11.08285
G1 X100.307 Y81.407 E11.10021
G0 F3000 X100.623 Y81.652
G1 F1200 X101.05 Y81.171 E11.1216
G1 X101.447 Y80.766 E11.14046
G1 X101.519 Y80.695 E11.14383
G1 X101.928 Y80.305 E11.16262
G1 X102.21 Y80.066 E11.17492
G1 X102.925 Y79.527 E11.2047
G1 X103.412 Y79.183 E11.22453
G1 X103.733 Y78.984 E11.23709
G1 X104.47 Y78.587 E11.26493
G1 X105.025 Y78.311 E11.28555
G1 X105.561 Y78.09 E11.30483
G1 X106.151 Y77.883 E11.32563
G1 X106.749 Y77.692 E11.34651
G1 X107.11 Y77.599 E11.35891
G1 X107.992 Y77.428 E11.38879
G1 X108.581 Y77.333 E11.40863
G1 X108.958 Y77.296 E11.42123
G1 X109.868 Y77.261 E11.45152
G1 X110.402 Y77.256 E11.46928
G1 X110.778 Y77.276 E11.48181
G1 X111.658 Y77.374 E11.51126
G1 X112.218 Y77.454 E11.53007
G1 X112.587 Y77.53 E11.5426
G1 X113.511 Y77.779 E11.57443
G1 X114.004 Y77.928 E11.59156
G1 X114.361 Y78.06 E11.60422
G1 X115.206 Y78.432 E11.63493
G1 X115.708 Y78.672 E11.65343
G1 X116.031 Y78.852 E11.66573
G1 X116.794 Y79.336 E11.69579
G1 X117.269 Y79.659 E11.71489
G1 X117.563 Y79.886 E11.72724
G1 X118.239 Y80.475 E11.75707
G1 X118.65 Y80.857 E11.77573
G1 X118.907 Y81.127 E11.78813
G1 X119.507 Y81.836 E11.81902
G1 X119.853 Y82.272 E11.83753
G1 X120.07 Y82.583 E11.85014
G1 X120.53 Y83.335 E11.87946
G1 X120.819 Y83.84 E11.89882
G1 X120.988 Y84.184 E11.91156
G1 X121.337 Y85.015 E11.94154
G1 X121.538 Y85.536 E11.96012
G1 X121.653 Y85.899 E11.97278
G1 X121.893 Y86.862 E12.00579
G1 X122.055 Y87.714 E12.03463
G1 X122.147 Y88.701 E12.0676
G1 X122.179 Y89.566 E12.09639
G1 X122.133 Y90.413 E12.12461
G1 X122.086 Y90.967 E12.1431
G1 X122.035 Y91.323 E12.15506
G1 X121.897 Y92.008 E12.1783
G1 X121.607 Y93.271 E12.2214
G1 X121.018 Y96.013 E12.31468
G1 X120.526 Y98.663 E12.40433
G1 X120.096 Y101.412 E12.49687
G1 X119.752 Y104.109 E12.5873
G1 X119.483 Y106.823 E12.67801
G1 X119.291 Y109.56 E12.76927
G1 X119.177 Y112.28 E12.85982
G1 X119.139 Y115.033 E12.95139
G1 X119.179 Y117.785 E13.04293
G1 X119.295 Y120.501 E13.13335
G1 X119.49 Y123.244 E13.22481
G1 X119.761 Y125.951 E13.3153
G1 X120.118 Y128.736 E13.40868
G1 X120.186 Y129.354 E13.42936
G1 X120.196 Y129.763 E13.44297
G1 X120.196 Y138.868 E13.7458
G1 X120.187 Y139.595 E13.76998
G1 X120.141 Y140.098 E13.78678
G1 X120.016 Y140.588 E13.8036
G1 X119.815 Y141.052 E13.82042
G1 X119.544 Y141.479 E13.83724
G1 X119.209 Y141.858 E13.85407
G1 X118.819 Y142.179 E13.87087
G1 X118.383 Y142.435 E13.88768
G1 X117.912 Y142.618 E13.90449
G1 X117.418 Y142.726 E13.92131
G1 X116.756 Y142.763 E13.94336
G1 X115.486 Y142.765 E13.9856
G1 X113.087 Y142.764 E14.06539
G1 X111.395 Y142.74 E14.12167
G1 X108.649 Y142.74 E14.21301
G1 X108.196 Y142.751 E14.22808
G1 X107.048 Y142.764 E14.26626
G1 X103.657 Y142.764 E14.37905
G1 X102.959 Y142.754 E14.40227
G1 X102.456 Y142.707 E14.41907
G1 X101.966 Y142.581 E14.4359
G1 X101.502 Y142.379 E14.45273
G1 X101.076 Y142.107 E14.46954
G1 X100.698 Y141.772 E14.48634
G1 X100.378 Y141.381 E14.50314
G1 X100.123 Y140.944 E14.51997
G1 X99.94 Y140.473 E14.53678
G1 X99.833 Y139.979 E14.55359
G1 X99.797 Y139.309 E14.57591
G1 X99.796 Y130.091 E14.8825
G1 X99.807 Y129.374 E14.90635
G1 X99.833 Y129.017 E14.91825
G1 X99.977 Y127.895 E14.95588
G1 X100.073 Y127.222 E14.97849
G1 X100.381 Y124.489 E15.06996
G1 X100.611 Y121.75 E15.16138
G1 X100.763 Y119.032 E15.25193
G1 X100.839 Y116.282 E15.34343
G1 X100.837 Y113.563 E15.43386
G1 X100.757 Y110.809 E15.5255
G1 X100.6 Y108.065 E15.61691
G1 X100.367 Y105.349 E15.70758
G1 X100.059 Y102.657 E15.7977
G1 X99.668 Y99.924 E15.88952
G1 X99.195 Y97.18 E15.98214
G1 X98.673 Y94.583 E16.07024
G1 X98.363 Y93.273 E16.11501
G1 X98.337 Y93.104 E16.1207
G1 X98.054 Y91.869 E16.16284
G1 X97.941 Y91.159 E16.18675
G1 X97.926 Y91.032 E16.19101
G1 X97.834 Y90.134 E16.22103
G1 X97.815 Y89.561 E16.2401
G1 X97.828 Y89.032 E16.2577
G1 X97.859 Y88.405 E16.27858
G1 X97.955 Y87.627 E16.30465
G1 X98.041 Y87.134 E16.3213
G1 X98.166 Y86.525 E16.34198
G1 X98.324 Y85.956 E16.36162
G1 X98.548 Y85.295 E16.38483
G1 X98.721 Y84.824 E16.40152
G1 X99.048 Y84.105 E16.42779
G1 X99.267 Y83.681 E16.44366
G1 X99.566 Y83.139 E16.46425
G1 X99.865 Y82.673 E16.48267
G1 X99.928 Y82.583 E16.48632
G1 X100.304 Y82.065 E16.50761
G1 X100.623 Y81.652 E16.52497
G1 F1800 E9.52497
G1 F300 Z0.4
G0 F3000 X105.506 Y133.433 Z0.4
;TYPE:SUPPORT
G1 F300 Z0.2
G1 F1800 E16.52497
G1 F1200 X114.487 Y133.433 E16.82367
G1 X114.487 Y139.364 E17.02094
G1 X112.502 Y139.364 E17.08696
G1 X112.502 Y135.763 E17.20673
G1 X112.103 Y135.364 E17.2255
G1 X107.89 Y135.364 E17.36562
G1 X107.491 Y135.763 E17.38439
G1 X107.491 Y139.364 E17.50416
G1 X105.506 Y139.364 E17.57018
G1 X105.506 Y133.433 E17.76745
G0 F3000 X106.68 Y133.593
G1 F1200 X106.68 Y139.204 E17.95407
G0 F3000 X107.33 Y138.684
G1 F1200 X105.665 Y138.684 E18.00945
G1 F1800 E11.00945
G1 F300 Z0.4
G0 F3000 X105.665 Y136.017 Z0.4
G1 F300 Z0.2
G1 F1800 E18.00945
G1 F1200 X107.33 Y136.017 E18.06483
G1 F1800 E11.06483
G1 F300 Z0.4
G0 F3000 X109.347 Y135.204 Z0.4
G1 F300 Z0.2
G1 F1800 E18.06483
G1 F1200 X109.347 Y133.593 E18.11841
G1 F1800 E11.11841
G1 F300 Z0.4
G0 F3000 X112.014 Y133.593 Z0.4
G1 F300 Z0.2
G1 F1800 E18.11841
G1 F1200 X112.014 Y135.204 E18.17199
G0 F3000 X112.661 Y136.017
G1 F1200 X114.326 Y136.017 E18.22737
G1 F1800 E11.22737
G1 F300 Z0.4
G0 F3000 X114.326 Y138.684 Z0.4
G1 F300 Z0.2
G1 F1800 E18.22737
G1 F1200 X112.661 Y138.684 E18.28275
G1 F1800 E11.28275
G1 F300 Z0.4
;MESH:test_clock-minutehand-balancer.stl
G0 F3000 X103.906 Y131.833 Z0.4
;TYPE:WALL-INNER
G1 F300 Z0.2
G1 F1800 E18.28275
G1 F1200 X103.906 Y138.964 E18.51993
G1 X103.596 Y138.964 E18.53024
G1 X103.596 Y131.833 E18.71451
G1 X103.596 Y130.033 E18.77438
G1 X109.096 Y130.033 E18.95731
G1 X109.096 Y97.837 E20.02815
G1 X107.369 Y97.41 E20.08732
G1 X107.343 Y97.401 E20.08824
G1 X106.181 Y96.915 E20.13013
G1 X105.112 Y96.264 E20.17176
G1 X104.137 Y95.45 E20.214
G1 X104.105 Y95.417 E20.21553
G1 X103.301 Y94.504 E20.256
G1 X102.607 Y93.425 E20.29867
G1 X102.087 Y92.257 E20.34119
G1 X101.754 Y91.041 E20.38312
G1 X101.747 Y90.996 E20.38464
G1 X101.605 Y89.76 E20.42602
G1 X101.65 Y88.489 E20.46832
G1 X101.881 Y87.267 E20.50968
G1 X102.305 Y86.059 E20.55226
G1 X102.902 Y84.935 E20.59459
G1 X103.664 Y83.915 E20.63694
G1 X103.685 Y83.892 E20.63798
G1 X104.563 Y83.028 E20.67895
G1 X105.606 Y82.274 E20.72175
G1 X106.733 Y81.695 E20.76389
G1 X106.767 Y81.682 E20.7651
G1 X107.932 Y81.292 E20.80597
G1 X109.194 Y81.074 E20.84856
G1 X109.221 Y81.072 E20.84946
G1 X110.457 Y81.047 E20.89058
