;FLAVOR:Marlin
;TIME:1157
;Filament used: 0.663486m
;Layer height: 0.2
;MINX:31.435
;MINY:29.494
;MINZ:0.2
;MAXX:190.506
;MAXY:188.571
;MAXZ:2.2
;Generated with Cura_SteamEngine master
M82 ;absolute extrusion mode
;Sliced at: Sun 30-10-2022 20:44:03
;Basic settings: Layer height: 0.2 Walls: 0.8 Fill: 30.0
G21 ;metric values
G90 ;absolute positioning
M82 ;set extruder to absolute mode
M107 ;start with the fan off
M117 Start heating ...
M104 S200
M117 Homing X/Y ...
G28 X0 Y0 ;move X/Y to min endstops
M117 Homing Z ...
G28 Z0 ;move Z to min endstops
G1 Z15.0 F100 ;move the platform down 15mm
M117 Heating ...
M109 S200
M117 Start cleaning ...
G92 E0 ;zero the extruded length
G1 F200 E10 ;extrude 10mm of feed stock
G92 E0 ;zero the extruded length again
M117 Intro line ...
G1 Z2.0 F3000 ; Move Z Axis up little to prevent scratching of Heat Bed
G1 X0.1 Y20 Z0.2 F5000.0 ; Move to start position
G1 X0.1 Y200.0 Z0.2 F1500.0 E15 ; Draw the first line
G1 X0.4 Y200.0 Z0.2 F5000.0 ; Move to side a little
G1 X0.4 Y20 Z0.3 F1500.0 E30 ; Draw the second line
G92 E0 ; Reset Extruder
G1 E-1 F500 ; Retract filiment by 1 mm
G1 Z2.0 F3000 ; Move Z Axis up little to prevent scratching of Heat Bed
G1 X5 Y20 Z0.3 F100 ; Move over to prevent blob squish
G1 F100
G92 E0 ; Reset Extruder
M117 Printing...

G92 E0
G92 E0
G1 F1800 E-7
;LAYER_COUNT:10
;LAYER:0
M107
G1 F300 Z0.4
G0 F3000 X148.872 Y57.331 Z0.4
;TYPE:SKIRT
G1 F300 Z0.2
G1 F1800 E0
G1 F1200 X149.353 Y56.836 E0.02296
G1 X150.063 Y56.144 E0.05593
G1 X150.875 Y55.378 E0.09306
G1 X152.785 Y53.47 E0.18285
G1 X154.66 Y51.488 E0.2736
G1 X156.459 Y49.475 E0.36339
G1 X158.221 Y47.387 E0.45426
G1 X159.906 Y45.273 E0.54418
G1 X161.54 Y43.099 E0.63463
G1 X163.11 Y40.88 E0.72504
G1 X164.619 Y38.617 E0.81551
G1 X166.042 Y36.347 E0.90462
G1 X166.468 Y35.649 E0.93181
G1 X166.802 Y35.136 E0.95217
G1 X167.188 Y34.603 E0.97406
G1 X167.5 Y34.211 E0.99073
G1 X167.931 Y33.716 E1.01256
G1 X168.288 Y33.34 E1.0298
G1 X168.838 Y32.818 E1.05502
G1 X169.291 Y32.428 E1.0749
G1 X169.843 Y32.002 E1.09809
G1 X170.376 Y31.631 E1.11969
G1 X170.902 Y31.302 E1.14033
G1 X171.563 Y30.942 E1.16536
G1 X172.478 Y30.514 E1.19896
G1 X173.272 Y30.206 E1.22729
G1 X173.89 Y30.01 E1.24885
G1 X174.504 Y29.848 E1.26997
G1 X175.135 Y29.713 E1.29143
G1 X175.779 Y29.61 E1.31312
G1 X176.423 Y29.539 E1.33467
G1 X177.059 Y29.501 E1.35586
G1 X177.737 Y29.494 E1.37842
G1 X178.353 Y29.519 E1.39892
G1 X179.009 Y29.578 E1.42083
G1 X179.53 Y29.65 E1.43832
G1 X180.319 Y29.798 E1.46502
G1 X180.93 Y29.95 E1.48596
G1 X181.543 Y30.133 E1.50724
G1 X182.167 Y30.355 E1.52927
G1 X182.759 Y30.598 E1.55055
G1 X183.374 Y30.888 E1.57317
G1 X183.858 Y31.146 E1.59141
G1 X184.475 Y31.514 E1.6153
G1 X185.024 Y31.881 E1.63727
G1 X185.525 Y32.254 E1.65804
G1 X186.035 Y32.677 E1.68008
G1 X186.503 Y33.104 E1.70115
G1 X186.963 Y33.565 E1.72281
G1 X187.403 Y34.057 E1.74477
G1 X187.809 Y34.558 E1.76621
G1 X188.204 Y35.099 E1.78849
G1 X188.515 Y35.569 E1.80724
G1 X188.875 Y36.176 E1.83071
G1 X189.156 Y36.715 E1.85093
G1 X189.459 Y37.375 E1.87508
G1 X189.685 Y37.935 E1.89517
G1 X189.919 Y38.617 E1.91915
G1 X190.063 Y39.125 E1.93671
G1 X190.114 Y39.334 E1.94387
G1 X190.296 Y40.181 E1.97268
G1 X190.36 Y40.573 E1.98589
G1 X190.466 Y41.514 E2.01739
G1 X190.499 Y42.077 E2.03614
G1 X190.506 Y42.622 E2.05427
G1 X190.486 Y43.227 E2.07441
G1 X190.428 Y43.904 E2.09701
G1 X190.346 Y44.521 E2.11771
G1 X190.235 Y45.13 E2.1383
G1 X190.112 Y45.665 E2.15656
G1 X189.877 Y46.477 E2.18467
G1 X189.688 Y47.022 E2.20386
G1 X189.438 Y47.644 E2.22615
G1 X189.151 Y48.266 E2.24894
G1 X188.848 Y48.838 E2.27047
G1 X188.524 Y49.382 E2.29153
G1 X188.174 Y49.913 E2.31268
G1 X187.802 Y50.421 E2.33362
G1 X187.388 Y50.929 E2.35542
G1 X186.935 Y51.432 E2.37793
G1 X186.541 Y51.828 E2.39651
G1 X186.151 Y52.191 E2.41423
G1 X185.709 Y52.567 E2.43353
G1 X185.212 Y52.951 E2.45442
G1 X184.699 Y53.31 E2.47525
G1 X184.524 Y53.425 E2.48221
G1 X183.147 Y54.274 E2.53602
G1 X183.091 Y54.317 E2.53836
G1 X181.313 Y55.431 E2.60815
G1 X179.099 Y56.907 E2.69665
G1 X176.89 Y58.471 E2.78667
G1 X174.681 Y60.133 E2.87862
G1 X172.584 Y61.805 E2.96782
G1 X170.495 Y63.568 E3.05874
G1 X168.484 Y65.366 E3.14846
G1 X166.5 Y67.242 E3.23928
G1 X164.564 Y69.182 E3.33043
G1 X163.628 Y70.161 E3.37548
G1 X163.237 Y70.574 E3.3944
G1 X162.888 Y70.922 E3.41079
G1 X40.03 Y187.063 E9.0339
G1 X39.534 Y187.519 E9.05631
G1 X39.092 Y187.871 E9.0751
G1 X38.605 Y188.157 E9.09389
G1 X38.082 Y188.372 E9.1127
G1 X37.534 Y188.511 E9.1315
G1 X36.972 Y188.571 E9.1503
G1 X36.407 Y188.552 E9.1691
G1 X35.85 Y188.453 E9.18792
G1 X35.313 Y188.276 E9.20672
G1 X34.806 Y188.026 E9.22552
G1 X34.34 Y187.707 E9.24431
G1 X33.809 Y187.224 E9.26818
G1 X33.026 Y186.442 E9.30499
G1 X32.562 Y185.966 E9.3271
G1 X32.197 Y185.534 E9.34591
G1 X31.896 Y185.056 E9.3647
G1 X31.666 Y184.539 E9.38352
G1 X31.511 Y183.995 E9.40233
G1 X31.435 Y183.435 E9.42113
G1 X31.438 Y182.87 E9.43992
G1 X31.52 Y182.311 E9.45871
G1 X31.681 Y181.769 E9.47751
G1 X31.916 Y181.255 E9.49631
G1 X32.222 Y180.779 E9.51513
G1 X32.677 Y180.247 E9.53842
G1 X32.753 Y180.164 E9.54216
G1 X148.872 Y57.331 E15.16416
G0 F3000 X149.159 Y57.61
G1 F1200 X149.712 Y57.043 E15.19051
G1 X150.338 Y56.435 E15.21953
G1 X151.149 Y55.67 E15.25661
G1 X153.076 Y53.745 E15.3472
G1 X154.948 Y51.766 E15.43781
G1 X156.764 Y49.734 E15.52845
G1 X158.524 Y47.649 E15.6192
G1 X160.219 Y45.523 E15.70964
G1 X161.871 Y43.324 E15.80111
G1 X163.437 Y41.111 E15.89128
G1 X164.95 Y38.842 E15.98199
G1 X166.381 Y36.56 E16.07158
G1 X166.805 Y35.865 E16.09866
G1 X167.128 Y35.368 E16.11837
G1 X167.501 Y34.852 E16.13955
G1 X167.813 Y34.46 E16.15621
G1 X168.231 Y33.98 E16.17738
G1 X168.576 Y33.618 E16.19401
G1 X169.109 Y33.111 E16.21848
G1 X169.549 Y32.733 E16.23777
G1 X170.084 Y32.321 E16.26023
G1 X170.602 Y31.96 E16.28123
G1 X171.111 Y31.644 E16.30116
G1 X171.733 Y31.304 E16.32474
G1 X172.648 Y30.876 E16.35833
G1 X173.409 Y30.582 E16.38547
G1 X174.008 Y30.392 E16.40637
G1 X174.603 Y30.235 E16.42684
G1 X175.216 Y30.105 E16.44768
G1 X175.839 Y30.005 E16.46866
G1 X176.464 Y29.937 E16.48957
G1 X177.08 Y29.9 E16.5101
G1 X177.737 Y29.894 E16.53195
G1 X178.333 Y29.918 E16.55179
G1 X178.97 Y29.976 E16.57307
G1 X179.473 Y30.046 E16.58996
G1 X180.24 Y30.19 E16.61591
G1 X180.831 Y30.337 E16.63617
G1 X181.426 Y30.516 E16.65683
G1 X182.031 Y30.731 E16.67819
G1 X182.603 Y30.967 E16.69877
G1 X183.201 Y31.249 E16.72076
G1 X183.657 Y31.492 E16.73795
G1 X184.267 Y31.856 E16.76157
G1 X184.799 Y32.212 E16.78286
G1 X185.284 Y32.573 E16.80297
G1 X185.777 Y32.983 E16.8243
G1 X186.232 Y33.398 E16.84478
G1 X186.677 Y33.845 E16.86576
G1 X187.102 Y34.321 E16.88698
G1 X187.497 Y34.808 E16.90784
G1 X187.879 Y35.332 E16.92941
G1 X188.18 Y35.787 E16.94755
G1 X188.529 Y36.377 E16.97035
G1 X188.8 Y36.897 E16.98986
G1 X189.094 Y37.538 E17.01331
G1 X189.309 Y38.073 E17.03249
G1 X189.539 Y38.743 E17.05605
G1 X189.677 Y39.23 E17.07288
G1 X189.723 Y39.418 E17.07932
G1 X189.905 Y40.265 E17.10814
G1 X189.962 Y40.618 E17.12003
G1 X190.068 Y41.559 E17.15153
G1 X190.099 Y42.084 E17.16902
G1 X190.106 Y42.612 E17.18658
G1 X190.087 Y43.199 E17.20611
G1 X190.03 Y43.864 E17.22831
G1 X189.952 Y44.454 E17.24811
G1 X189.842 Y45.053 E17.26836
G1 X189.723 Y45.574 E17.28614
G1 X189.494 Y46.36 E17.31337
G1 X189.316 Y46.875 E17.33149
G1 X189.073 Y47.48 E17.35318
G1 X188.796 Y48.081 E17.37519
G1 X188.502 Y48.636 E17.39608
G1 X188.188 Y49.165 E17.41654
G1 X187.85 Y49.679 E17.437
G1 X187.489 Y50.171 E17.45729
G1 X187.089 Y50.663 E17.47838
G1 X186.649 Y51.152 E17.50026
G1 X186.262 Y51.541 E17.51851
G1 X185.879 Y51.897 E17.5359
G1 X185.452 Y52.26 E17.55454
G1 X184.97 Y52.632 E17.5748
G1 X184.471 Y52.981 E17.59505
G1 X184.314 Y53.084 E17.60129
G1 X182.974 Y53.91 E17.65365
G1 X182.878 Y53.978 E17.65756
G1 X181.142 Y55.066 E17.7257
G1 X178.852 Y56.592 E17.81723
G1 X176.625 Y58.17 E17.90801
G1 X174.454 Y59.802 E17.99835
G1 X172.322 Y61.502 E18.08904
G1 X170.254 Y63.248 E18.17906
G1 X168.189 Y65.094 E18.27118
G1 X166.225 Y66.951 E18.36108
G1 X164.298 Y68.882 E18.45182
G1 X163.339 Y69.885 E18.49797
G1 X162.953 Y70.292 E18.51663
G1 X162.613 Y70.631 E18.5326
G1 X39.759 Y186.768 E24.15552
G1 X39.263 Y187.224 E24.17793
G1 X38.843 Y187.557 E24.19576
G1 X38.377 Y187.823 E24.2136
G1 X37.877 Y188.017 E24.23144
G1 X37.354 Y188.135 E24.24927
G1 X36.819 Y188.174 E24.26711
G1 X36.285 Y188.133 E24.28493
G1 X35.762 Y188.013 E24.30277
G1 X35.263 Y187.816 E24.32062
G1 X34.799 Y187.548 E24.33844
G1 X34.347 Y187.184 E24.35774
G1 X34.019 Y186.871 E24.37282
G1 X33.312 Y186.163 E24.4061
G1 X32.848 Y185.687 E24.42821
G1 X32.503 Y185.276 E24.44606
G1 X32.224 Y184.819 E24.46387
G1 X32.015 Y184.325 E24.48171
G1 X31.882 Y183.805 E24.49956
G1 X31.827 Y183.272 E24.51738
G1 X31.853 Y182.736 E24.53523
G1 X31.957 Y182.21 E24.55306
G1 X32.139 Y181.705 E24.57092
G1 X32.394 Y181.233 E24.58876
G1 X32.741 Y180.776 E24.60784
G1 X33.044 Y180.439 E24.62292
G1 X149.159 Y57.61 E30.24473
G0 F3000 X149.446 Y57.889
G1 F1200 X149.991 Y57.33 E30.2707
G1 X150.612 Y56.726 E30.29951
G1 X151.423 Y55.961 E30.33659
G1 X153.366 Y54.02 E30.42794
G1 X155.254 Y52.024 E30.51932
G1 X157.069 Y49.993 E30.60991
G1 X158.841 Y47.894 E30.70128
G1 X160.536 Y45.768 E30.79171
G1 X162.172 Y43.59 E30.88231
G1 X163.763 Y41.342 E30.97391
G1 X165.3 Y39.037 E31.06606
G1 X166.72 Y36.772 E31.15497
G1 X167.141 Y36.081 E31.18188
G1 X167.454 Y35.6 E31.20097
G1 X167.814 Y35.101 E31.22144
G1 X168.126 Y34.709 E31.2381
G1 X168.531 Y34.245 E31.25859
G1 X168.933 Y33.826 E31.2779
G1 X169.381 Y33.405 E31.29835
G1 X169.808 Y33.038 E31.31707
G1 X170.326 Y32.639 E31.33882
G1 X170.829 Y32.29 E31.35918
G1 X171.32 Y31.985 E31.37841
G1 X171.902 Y31.666 E31.40048
G1 X172.817 Y31.238 E31.43408
G1 X173.546 Y30.958 E31.46005
G1 X174.127 Y30.774 E31.48032
G1 X174.702 Y30.623 E31.5001
G1 X175.297 Y30.497 E31.52032
G1 X175.899 Y30.401 E31.5406
G1 X176.505 Y30.335 E31.56088
G1 X177.101 Y30.299 E31.58073
G1 X177.738 Y30.294 E31.60192
G1 X178.314 Y30.318 E31.6211
G1 X178.931 Y30.374 E31.6417
G1 X179.498 Y30.455 E31.66075
G1 X180.16 Y30.582 E31.68317
G1 X180.732 Y30.724 E31.70277
G1 X181.309 Y30.898 E31.72282
G1 X181.894 Y31.106 E31.74347
G1 X182.448 Y31.336 E31.76342
G1 X183.028 Y31.61 E31.78476
G1 X183.678 Y31.966 E31.8094
G1 X184.195 Y32.285 E31.82961
G1 X184.703 Y32.635 E31.85013
G1 X185.176 Y32.998 E31.86996
G1 X185.629 Y33.385 E31.88978
G1 X186.072 Y33.799 E31.90994
G1 X186.512 Y34.255 E31.93102
G1 X186.897 Y34.699 E31.95056
G1 X187.284 Y35.19 E31.97136
G1 X187.635 Y35.684 E31.99151
G1 X187.932 Y36.146 E32.00978
G1 X188.265 Y36.729 E32.03211
G1 X188.523 Y37.242 E32.05121
G1 X188.729 Y37.702 E32.06797
G1 X188.933 Y38.21 E32.08618
G1 X189.159 Y38.869 E32.10935
G1 X189.332 Y39.502 E32.13118
G1 X189.514 Y40.349 E32.15999
G1 X189.565 Y40.663 E32.17057
G1 X189.671 Y41.604 E32.20207
G1 X189.706 Y42.458 E32.2305
G1 X189.695 Y43.027 E32.24943
G1 X189.66 Y43.543 E32.26663
G1 X189.577 Y44.258 E32.29057
G1 X189.494 Y44.752 E32.30723
G1 X189.333 Y45.482 E32.33209
G1 X189.112 Y46.243 E32.35845
G1 X188.944 Y46.728 E32.37552
G1 X188.709 Y47.315 E32.39655
G1 X188.441 Y47.897 E32.41786
G1 X188.157 Y48.434 E32.43807
G1 X187.853 Y48.947 E32.4579
G1 X187.525 Y49.445 E32.47773
G1 X187.177 Y49.921 E32.49735
G1 X186.79 Y50.398 E32.51778
G1 X186.364 Y50.871 E32.53895
G1 X185.984 Y51.255 E32.55692
G1 X185.608 Y51.603 E32.57396
G1 X185.195 Y51.954 E32.59198
G1 X184.727 Y52.314 E32.61162
G1 X184.244 Y52.652 E32.63123
G1 X184.104 Y52.744 E32.6368
G1 X182.724 Y53.595 E32.69072
G1 X182.666 Y53.639 E32.69315
G1 X180.913 Y54.737 E32.76194
G1 X178.621 Y56.265 E32.85356
G1 X176.399 Y57.839 E32.94413
G1 X174.193 Y59.499 E33.03596
G1 X172.077 Y61.185 E33.12594
G1 X169.975 Y62.959 E33.21743
G1 X167.93 Y64.788 E33.30868
G1 X165.95 Y66.66 E33.39931
G1 X164.008 Y68.606 E33.49075
G1 X163.065 Y69.593 E33.53615
G1 X162.67 Y70.009 E33.55523
G1 X162.338 Y70.34 E33.57082
G1 X39.489 Y186.474 E39.19355
G1 X38.993 Y186.93 E39.21596
G1 X38.595 Y187.241 E39.23276
G1 X38.153 Y187.487 E39.24959
G1 X37.677 Y187.659 E39.26642
G1 X37.181 Y187.754 E39.28322
G1 X36.675 Y187.77 E39.30006
G1 X36.174 Y187.707 E39.31685
G1 X35.689 Y187.565 E39.33366
G1 X35.232 Y187.348 E39.35049
G1 X34.815 Y187.062 E39.3673
G1 X34.361 Y186.645 E39.38781
G1 X33.627 Y185.913 E39.42229
G1 X33.135 Y185.408 E39.44574
G1 X32.811 Y185.019 E39.46257
G1 X32.553 Y184.584 E39.4794
G1 X32.367 Y184.114 E39.49621
G1 X32.257 Y183.621 E39.51301
G1 X32.227 Y183.116 E39.52983
G1 X32.276 Y182.613 E39.54664
G1 X32.403 Y182.124 E39.56345
G1 X32.606 Y181.661 E39.58026
G1 X33.039 Y181.042 E39.60539
G1 X33.335 Y180.714 E39.62008
G1 X149.446 Y57.889 E45.24171
G1 F1800 E38.24171
G1 F300 Z0.4
;MESH:test_hourhand.stl
G0 F3000 X148.383 Y73.46 Z0.4
;TYPE:WALL-INNER
G1 F300 Z0.2
G1 F1800 E45.24171
G1 F1200 X149.093 Y73.591 E45.26572
G1 X149.8 Y73.544 E45.28929
G1 X150.464 Y73.328 E45.31251
G1 X151.064 Y72.952 E45.33606
G1 X151.553 Y72.437 E45.35968
G1 X151.899 Y71.818 E45.38327
G1 X152.083 Y71.132 E45.40689
G1 X152.092 Y70.409 E45.43094
G1 X151.926 Y69.731 E45.45416
G1 X151.587 Y69.095 E45.47813
G1 X151.109 Y68.572 E45.50169
G1 X150.526 Y68.188 E45.52491
G1 X149.861 Y67.954 E45.54836
G1 X149.273 Y67.89 E45.56803
G1 X148.587 Y67.97 E45.591
G1 X147.928 Y68.219 E45.61443
G1 X147.437 Y68.546 E45.63405
G1 X146.961 Y69.05 E45.65711
G1 X146.617 Y69.664 E45.68052
G1 X146.45 Y70.231 E45.70018
G1 X146.409 Y70.921 E45.72317
G1 X146.54 Y71.618 E45.74676
G1 X146.84 Y72.256 E45.77021
G1 X147.194 Y72.713 E45.78943
G1 X147.749 Y73.165 E45.81324
G1 X148.383 Y73.46 E45.8365
G0 F3000 X148.506 Y73.076
;TYPE:WALL-OUTER
G1 F1200 X149.116 Y73.189 E45.85713
G1 X149.724 Y73.148 E45.8774
G1 X150.293 Y72.963 E45.8973
G1 X150.809 Y72.64 E45.91755
G1 X151.228 Y72.198 E45.9378
G1 X151.526 Y71.666 E45.95809
G1 X151.684 Y71.077 E45.97837
G1 X151.691 Y70.455 E45.99906
G1 X151.549 Y69.875 E46.01892
G1 X151.258 Y69.328 E46.03953
G1 X150.847 Y68.879 E46.05977
G1 X150.347 Y68.549 E46.0797
G1 X149.772 Y68.347 E46.09997
G1 X149.275 Y68.293 E46.1166
G1 X148.682 Y68.362 E46.13645
G1 X148.112 Y68.577 E46.15671
G1 X147.697 Y68.854 E46.17331
G1 X147.286 Y69.289 E46.19321
G1 X146.988 Y69.82 E46.21347
G1 X146.847 Y70.3 E46.23011
G1 X146.811 Y70.896 E46.24996
G1 X146.924 Y71.494 E46.27021
G1 X147.183 Y72.046 E46.29049
G1 X147.482 Y72.432 E46.30673
G1 X147.963 Y72.823 E46.32734
G1 X148.506 Y73.076 E46.34727
G0 F3000 X148.702 Y73.112
G0 X148.621 Y73.544
G1 F1800 E39.34727
G1 F300 Z0.4
G0 F3000 X148.592 Y73.701 Z0.4
G0 X156.515 Y64.758
;TYPE:WALL-INNER
G1 F300 Z0.2
G1 F1800 E46.34727
G1 F1200 X159.527 Y67.769 E46.48892
G1 X36.839 Y183.751 E52.10429
G1 X36.249 Y183.161 E52.13204
G1 X152.231 Y60.473 E57.74741
G1 X155.242 Y63.485 E57.88906
G1 X170.955 Y47.773 E58.62813
G1 X170.429 Y46.992 E58.65944
G1 X170.022 Y46.278 E58.68678
G1 X169.676 Y45.5 E58.7151
G1 X169.419 Y44.717 E58.74251
G1 X169.232 Y43.873 E58.77126
G1 X169.136 Y43.059 E58.79852
G1 X169.122 Y42.218 E58.8265
G1 X169.192 Y41.368 E58.85486
G1 X169.342 Y40.547 E58.88262
G1 X169.576 Y39.747 E58.91035
G1 X169.894 Y38.958 E58.93864
G1 X170.28 Y38.219 E58.96637
G1 X170.714 Y37.557 E58.9927
G1 X171.279 Y36.859 E59.02257
G1 X171.869 Y36.267 E59.05036
G1 X172.482 Y35.762 E59.07678
G1 X173.18 Y35.291 E59.10479
G1 X173.958 Y34.877 E59.1341
G1 X174.702 Y34.57 E59.16087
G1 X175.503 Y34.33 E59.18868
G1 X176.328 Y34.17 E59.21663
G1 X177.167 Y34.092 E59.24466
G1 X178.007 Y34.098 E59.2726
G1 X178.844 Y34.19 E59.3006
G1 X179.658 Y34.362 E59.32827
G1 X180.467 Y34.621 E59.35653
G1 X181.244 Y34.957 E59.38468
G1 X181.963 Y35.359 E59.41208
G1 X182.662 Y35.844 E59.44038
G1 X183.299 Y36.392 E59.46833
G1 X183.878 Y37 E59.49625
G1 X184.399 Y37.672 E59.52453
G1 X184.839 Y38.368 E59.55192
G1 X185.215 Y39.125 E59.58003
G1 X185.508 Y39.903 E59.60768
G1 X185.73 Y40.735 E59.63632
G1 X185.863 Y41.557 E59.66402
G1 X185.914 Y42.388 E59.69171
G1 X185.886 Y43.191 E59.71843
G1 X185.773 Y44.029 E59.74656
G1 X185.582 Y44.832 E59.77401
G1 X185.304 Y45.631 E59.80215
G1 X184.943 Y46.406 E59.83058
G1 X184.519 Y47.121 E59.85823
