;FLAVOR:Marlin
;TIME:847
;Filament used: 0.263229m
;Layer height: 0.1
;MINX:97.017
;MINY:81.451
;MINZ:0.2
;MAXX:122.979
;MAXY:138.566
;MAXZ:2
;Generated with Cura_SteamEngine master
M82 ;absolute extrusion mode
;Sliced at: Sun 30-10-2022 22:05:25
;Basic settings: Layer height: 0.1 Walls: 0.8 Fill: 30.0
G21 ;metric values
G90 ;absolute positioning
M82 ;set extruder to absolute mode
M107 ;start with the fan off
M117 Start heating ...
M104 S200
M117 Homing X/Y ...
G28 X0 Y0 ;move X/Y to min endstops
M117 Homing Z ...
G28 Z0 ;move Z to min endstops
G1 Z15.0 F100 ;move the platform down 15mm
M117 Heating ...
M109 S200
M117 Start cleaning ...
G92 E0 ;zero the extruded length
G1 F200 E10 ;extrude 10mm of feed stock
G92 E0 ;zero the extruded length again
M117 Intro line ...
G1 Z2.0 F3000 ; Move Z Axis up little to prevent scratching of Heat Bed
G1 X0.1 Y20 Z0.1 F5000.0 ; Move to start position
G1 X0.1 Y200.0 Z0.1 F1500.0 E15 ; Draw the first line
G1 X0.4 Y200.0 Z0.1 F5000.0 ; Move to side a little
G1 X0.4 Y20 Z0.3 F1500.0 E30 ; Draw the second line
G92 E0 ; Reset Extruder
G1 E-1 F500 ; Retract filiment by 1 mm
G1 Z2.0 F3000 ; Move Z Axis up little to prevent scratching of Heat Bed
G1 X5 Y20 Z0.3 F100 ; Move over to prevent blob squish
G1 F100
G92 E0 ; Reset Extruder
M117 Printing...

G92 E0
G92 E0
G1 F1800 E-7
;LAYER_COUNT:19
;LAYER:0
M107
G1 F300 Z0.4
G0 F3000 X100.029 Y86.115 Z0.4
;TYPE:SKIRT
G1 F300 Z0.2
G1 F1800 E0
G1 F1200 X100.327 Y85.771 E0.01514
G1 X100.795 Y85.288 E0.03751
G1 X100.885 Y85.198 E0.04174
G1 X101.331 Y84.766 E0.06239
G1 X101.669 Y84.473 E0.07727
G1 X102.187 Y84.073 E0.09904
G1 X102.778 Y83.642 E0.12337
G1 X103.155 Y83.4 E0.13827
G1 X103.86 Y83.002 E0.16519
G1 X104.386 Y82.725 E0.18497
G1 X104.795 Y82.538 E0.19992
G1 X105.412 Y82.297 E0.22195
G1 X105.528 Y82.254 E0.22607
G1 X106.125 Y82.042 E0.24714
G1 X106.552 Y81.916 E0.26195
G1 X107.18 Y81.769 E0.2834
G1 X107.906 Y81.619 E0.30806
G1 X108.365 Y81.553 E0.32348
G1 X109.126 Y81.489 E0.34888
G1 X109.762 Y81.452 E0.37007
G1 X110.213 Y81.451 E0.38507
G1 X110.871 Y81.487 E0.40699
G1 X111.001 Y81.496 E0.41132
G1 X111.618 Y81.55 E0.43192
G1 X112.057 Y81.613 E0.44667
G1 X112.704 Y81.743 E0.46862
G1 X113.434 Y81.912 E0.49354
G1 X113.854 Y82.034 E0.50809
G1 X114.481 Y82.255 E0.5302
G1 X115.169 Y82.521 E0.55474
G1 X115.582 Y82.709 E0.56983
G1 X116.274 Y83.075 E0.59587
G1 X116.818 Y83.382 E0.61664
G1 X117.201 Y83.629 E0.6318
G1 X117.815 Y84.076 E0.65706
G1 X118.317 Y84.462 E0.67812
G1 X118.662 Y84.76 E0.69328
G1 X119.138 Y85.221 E0.71532
G1 X119.649 Y85.744 E0.73964
G1 X119.947 Y86.087 E0.75476
G1 X120.352 Y86.611 E0.77678
G1 X120.782 Y87.199 E0.80101
G1 X121.032 Y87.586 E0.81634
G1 X121.373 Y88.189 E0.83938
G1 X121.681 Y88.768 E0.86119
G1 X121.962 Y89.397 E0.8841
G1 X122.17 Y89.934 E0.90326
G1 X122.393 Y90.561 E0.92539
G1 X122.517 Y90.981 E0.93996
G1 X122.655 Y91.565 E0.95991
G1 X122.814 Y92.338 E0.98616
G1 X122.88 Y92.789 E1.00132
G1 X122.936 Y93.43 E1.02272
G1 X122.977 Y94.1 E1.04505
G1 X122.979 Y94.541 E1.05972
G1 X122.929 Y95.516 E1.09219
G1 X122.885 Y96.049 E1.10998
G1 X122.821 Y96.495 E1.12496
G1 X122.593 Y97.625 E1.1633
G1 X122.084 Y100.354 E1.25564
G1 X121.661 Y103.031 E1.34578
G1 X121.313 Y105.724 E1.43609
G1 X121.044 Y108.417 E1.52611
G1 X120.848 Y111.152 E1.61731
G1 X120.733 Y113.822 E1.70619
G1 X120.691 Y116.559 E1.79724
G1 X120.727 Y119.276 E1.88761
G1 X120.84 Y122.008 E1.97856
G1 X120.931 Y123.304 E2.02177
G1 X120.988 Y124.313 E2.05538
G1 X121 Y124.764 E2.07039
G1 X121 Y133.885 E2.37375
G1 X120.99 Y134.612 E2.39794
G1 X120.942 Y135.175 E2.41673
G1 X120.815 Y135.726 E2.43554
G1 X120.612 Y136.254 E2.45435
G1 X120.337 Y136.748 E2.47316
G1 X119.995 Y137.198 E2.49195
G1 X119.592 Y137.595 E2.51077
G1 X119.138 Y137.931 E2.52956
G1 X118.641 Y138.2 E2.54835
G1 X118.111 Y138.397 E2.56716
G1 X117.558 Y138.516 E2.58597
G1 X116.782 Y138.564 E2.61183
G1 X116.67 Y138.566 E2.61556
G1 X112.948 Y138.566 E2.73935
G1 X111.315 Y138.543 E2.79367
G1 X108.587 Y138.543 E2.8844
G1 X107.559 Y138.565 E2.9186
G1 X103.655 Y138.566 E3.04845
G1 X102.957 Y138.557 E3.07167
G1 X102.394 Y138.509 E3.09046
G1 X101.843 Y138.383 E3.10926
G1 X101.315 Y138.181 E3.12806
G1 X100.821 Y137.906 E3.14687
G1 X100.371 Y137.564 E3.16567
G1 X99.973 Y137.162 E3.18448
G1 X99.637 Y136.708 E3.20327
G1 X99.367 Y136.211 E3.22208
G1 X99.17 Y135.681 E3.24089
G1 X99.05 Y135.129 E3.25968
G1 X99.001 Y134.332 E3.28623
G1 X99 Y125.085 E3.59379
G1 X99.01 Y124.37 E3.61757
G1 X99.02 Y124.142 E3.62516
G1 X99.069 Y123.461 E3.64787
G1 X99.226 Y120.674 E3.74072
G1 X99.301 Y118.005 E3.82952
G1 X99.301 Y115.261 E3.92079
G1 X99.224 Y112.585 E4.00983
G1 X99.069 Y109.848 E4.10101
G1 X98.837 Y107.119 E4.1921
G1 X98.533 Y104.454 E4.28132
G1 X98.147 Y101.742 E4.37243
G1 X97.689 Y99.074 E4.46246
G1 X97.388 Y97.525 E4.51495
G1 X97.184 Y96.52 E4.54905
G1 X97.119 Y96.069 E4.56421
G1 X97.052 Y95.279 E4.59058
G1 X97.017 Y94.659 E4.61123
G1 X97.017 Y94.213 E4.62607
G1 X97.06 Y93.463 E4.65105
G1 X97.114 Y92.829 E4.67222
G1 X97.18 Y92.373 E4.68754
G1 X97.344 Y91.573 E4.7147
G1 X97.48 Y90.991 E4.73458
G1 X97.607 Y90.559 E4.74956
G1 X97.865 Y89.837 E4.77506
G1 X98.088 Y89.263 E4.79554
G1 X98.277 Y88.85 E4.81065
G1 X98.651 Y88.142 E4.83728
G1 X98.954 Y87.607 E4.85773
G1 X99.197 Y87.23 E4.87265
G1 X99.636 Y86.626 E4.89748
G1 X100.029 Y86.115 E4.91892
G0 F3000 X100.346 Y86.359
G1 F1200 X100.615 Y86.049 E4.93257
G1 X101.163 Y85.485 E4.95873
G1 X101.609 Y85.053 E4.97938
G1 X101.914 Y84.79 E4.99278
G1 X102.517 Y84.326 E5.01808
G1 X103.013 Y83.966 E5.03847
G1 X103.352 Y83.748 E5.05187
G1 X103.948 Y83.41 E5.07466
G1 X104.573 Y83.079 E5.09818
G1 X104.94 Y82.911 E5.11161
G1 X105.557 Y82.67 E5.13364
G1 X106.259 Y82.419 E5.15844
G1 X106.644 Y82.306 E5.17178
G1 X107.371 Y82.137 E5.19661
G1 X107.987 Y82.011 E5.21752
G1 X108.399 Y81.951 E5.23137
G1 X109.149 Y81.888 E5.2564
G1 X109.785 Y81.851 E5.27759
G1 X110.191 Y81.85 E5.29109
G1 X110.849 Y81.886 E5.31301
G1 X111.583 Y81.949 E5.33751
G1 X111.978 Y82.006 E5.35079
G1 X112.735 Y82.159 E5.37647
G1 X113.343 Y82.301 E5.39724
G1 X113.721 Y82.412 E5.41034
G1 X114.348 Y82.633 E5.43245
G1 X114.456 Y82.673 E5.43628
G1 X115.024 Y82.894 E5.45656
G1 X115.396 Y83.063 E5.47015
G1 X115.985 Y83.373 E5.49228
G1 X116.621 Y83.731 E5.51656
G1 X116.966 Y83.952 E5.53018
G1 X117.571 Y84.393 E5.55509
G1 X118.073 Y84.779 E5.57615
G1 X118.384 Y85.047 E5.5898
G1 X118.86 Y85.508 E5.61184
G1 X119.363 Y86.023 E5.63579
G1 X119.63 Y86.331 E5.64934
G1 X120.096 Y86.936 E5.67474
G1 X120.459 Y87.434 E5.69524
G1 X120.684 Y87.783 E5.70905
G1 X121.072 Y88.472 E5.73535
G1 X121.328 Y88.955 E5.75353
G1 X121.593 Y89.551 E5.77523
G1 X121.793 Y90.068 E5.79366
G1 X122.016 Y90.695 E5.8158
G1 X122.128 Y91.073 E5.82891
G1 X122.266 Y91.657 E5.84887
G1 X122.422 Y92.417 E5.87467
G1 X122.481 Y92.824 E5.88835
G1 X122.545 Y93.565 E5.91309
G1 X122.578 Y94.123 E5.93168
G1 X122.579 Y94.52 E5.94489
G1 X122.521 Y95.621 E5.98156
G1 X122.429 Y96.416 E6.00817
G1 X122.2 Y97.552 E6.04672
G1 X121.689 Y100.29 E6.13936
G1 X121.263 Y102.989 E6.23024
G1 X120.917 Y105.669 E6.32011
G1 X120.645 Y108.385 E6.4109
G1 X120.45 Y111.106 E6.50163
G1 X120.332 Y113.833 E6.59242
G1 X120.291 Y116.559 E6.6831
G1 X120.327 Y119.297 E6.77417
G1 X120.44 Y122.019 E6.86478
G1 X120.532 Y123.327 E6.90839
G1 X120.584 Y124.226 E6.93834
G1 X120.6 Y124.764 E6.95625
G1 X120.6 Y133.88 E7.25945
G1 X120.59 Y134.607 E7.28363
G1 X120.542 Y135.141 E7.30146
G1 X120.416 Y135.662 E7.31929
G1 X120.214 Y136.159 E7.33713
G1 X119.94 Y136.62 E7.35497
G1 X119.601 Y137.035 E7.37279
G1 X119.204 Y137.396 E7.39064
G1 X118.758 Y137.693 E7.40846
G1 X118.272 Y137.921 E7.42632
G1 X117.758 Y138.074 E7.44415
G1 X117.091 Y138.156 E7.4665
G1 X116.67 Y138.166 E7.48051
G1 X112.953 Y138.166 E7.60414
G1 X111.32 Y138.143 E7.65846
G1 X108.578 Y138.143 E7.74966
G1 X107.559 Y138.165 E7.78356
G1 X103.661 Y138.166 E7.9132
G1 X102.963 Y138.157 E7.93642
G1 X102.428 Y138.11 E7.95428
G1 X101.907 Y137.984 E7.97211
G1 X101.41 Y137.782 E7.98996
G1 X100.949 Y137.509 E8.00778
G1 X100.533 Y137.17 E8.02562
G1 X100.172 Y136.774 E8.04345
G1 X99.874 Y136.328 E8.06129
G1 X99.646 Y135.842 E8.07914
G1 X99.493 Y135.328 E8.09698
G1 X99.41 Y134.654 E8.11957
G1 X99.4 Y134.224 E8.13387
G1 X99.4 Y125.091 E8.43764
G1 X99.41 Y124.376 E8.46142
G1 X99.419 Y124.17 E8.46828
G1 X99.471 Y123.44 E8.49262
G1 X99.624 Y120.742 E8.5825
G1 X99.701 Y117.98 E8.6744
G1 X99.701 Y115.284 E8.76407
G1 X99.622 Y112.517 E8.85614
G1 X99.469 Y109.825 E8.94582
G1 X99.238 Y107.107 E9.03655
G1 X98.929 Y104.393 E9.1274
G1 X98.543 Y101.69 E9.21821
G1 X98.089 Y99.037 E9.30773
G1 X97.781 Y97.449 E9.36153
G1 X97.576 Y96.44 E9.39578
G1 X97.517 Y96.035 E9.40939
G1 X97.459 Y95.364 E9.43179
G1 X97.417 Y94.637 E9.45601
G1 X97.417 Y94.235 E9.46938
G1 X97.459 Y93.496 E9.494
G1 X97.513 Y92.862 E9.51517
G1 X97.572 Y92.452 E9.52894
G1 X97.733 Y91.664 E9.55569
G1 X97.869 Y91.082 E9.57557
G1 X97.984 Y90.693 E9.58906
G1 X98.238 Y89.982 E9.61418
G1 X98.461 Y89.408 E9.63466
G1 X98.631 Y89.036 E9.64826
G1 X98.946 Y88.437 E9.67077
G1 X99.303 Y87.804 E9.69494
G1 X99.521 Y87.465 E9.70835
G1 X99.953 Y86.87 E9.7328
G1 X100.346 Y86.359 E9.75424
G0 F3000 X100.663 Y86.603
G1 F1200 X100.902 Y86.327 E9.76639
G1 X101.442 Y85.772 E9.79214
G1 X101.888 Y85.34 E9.81279
G1 X102.158 Y85.106 E9.82468
G1 X102.752 Y84.649 E9.8496
G1 X103.248 Y84.289 E9.86999
G1 X103.549 Y84.095 E9.8819
G1 X104.145 Y83.757 E9.90469
G1 X104.759 Y83.433 E9.92778
G1 X105.086 Y83.283 E9.93974
G1 X105.796 Y83.007 E9.96508
G1 X106.393 Y82.795 E9.98615
G1 X106.735 Y82.695 E9.998
G1 X107.451 Y82.529 E10.02245
G1 X108.067 Y82.403 E10.04336
G1 X108.433 Y82.35 E10.05566
G1 X109.172 Y82.287 E10.08033
G1 X109.808 Y82.25 E10.10152
G1 X110.169 Y82.25 E10.11353
G1 X110.931 Y82.293 E10.13891
G1 X111.548 Y82.347 E10.15951
G1 X111.899 Y82.398 E10.17131
G1 X112.644 Y82.549 E10.19659
G1 X113.252 Y82.691 E10.21736
G1 X113.588 Y82.789 E10.229
G1 X114.215 Y83.01 E10.25111
G1 X114.879 Y83.267 E10.27479
G1 X115.209 Y83.417 E10.28685
G1 X115.881 Y83.772 E10.31212
G1 X116.425 Y84.079 E10.3329
G1 X116.732 Y84.276 E10.34503
G1 X117.328 Y84.71 E10.36955
G1 X117.83 Y85.096 E10.39062
G1 X118.105 Y85.334 E10.40271
G1 X118.649 Y85.863 E10.42795
G1 X119.076 Y86.302 E10.44832
G1 X119.314 Y86.576 E10.46039
G1 X119.773 Y87.172 E10.48541
G1 X120.136 Y87.67 E10.50591
G1 X120.335 Y87.98 E10.51816
G1 X120.718 Y88.659 E10.54409
G1 X120.974 Y89.142 E10.56227
G1 X121.224 Y89.705 E10.58276
G1 X121.416 Y90.202 E10.60048
G1 X121.639 Y90.829 E10.62261
G1 X121.738 Y91.165 E10.63426
G1 X121.897 Y91.845 E10.65749
G1 X122.03 Y92.497 E10.67962
G1 X122.083 Y92.858 E10.69176
G1 X122.139 Y93.499 E10.71316
G1 X122.178 Y94.147 E10.73475
G1 X122.18 Y94.5 E10.74649
G1 X122.13 Y95.475 E10.77896
G1 X122.088 Y95.98 E10.79582
G1 X122.037 Y96.337 E10.80781
G1 X121.807 Y97.478 E10.84653
G1 X121.295 Y100.219 E10.93927
G1 X120.87 Y102.912 E11.02995
G1 X120.517 Y105.649 E11.12173
G1 X120.246 Y108.35 E11.21202
G1 X120.05 Y111.096 E11.30358
G1 X119.933 Y113.81 E11.39394
G1 X119.891 Y116.559 E11.48538
G1 X119.928 Y119.32 E11.57722
G1 X120.04 Y122.028 E11.66736
G1 X120.133 Y123.35 E11.71144
G1 X120.189 Y124.337 E11.74432
G1 X120.2 Y124.764 E11.75853
G1 X120.2 Y133.874 E12.06153
G1 X120.19 Y134.601 E12.08571
G1 X120.143 Y135.104 E12.10252
G1 X120.017 Y135.594 E12.11934
G1 X119.816 Y136.058 E12.13616
G1 X119.544 Y136.484 E12.15297
G1 X119.209 Y136.863 E12.1698
G1 X118.818 Y137.183 E12.1866
G1 X118.382 Y137.438 E12.2034
G1 X117.911 Y137.622 E12.22022
G1 X117.416 Y137.728 E12.23706
G1 X116.76 Y137.765 E12.25891
G1 X112.959 Y137.766 E12.38533
G1 X111.326 Y137.743 E12.43965
G1 X108.569 Y137.743 E12.53135
G1 X107.559 Y137.765 E12.56495
G1 X103.666 Y137.766 E12.69443
G1 X102.968 Y137.757 E12.71765
G1 X102.464 Y137.71 E12.73448
G1 X101.974 Y137.585 E12.7513
G1 X101.51 Y137.384 E12.76812
G1 X101.084 Y137.113 E12.78491
G1 X100.705 Y136.778 E12.80174
G1 X100.384 Y136.387 E12.81856
G1 X100.129 Y135.951 E12.83536
G1 X99.945 Y135.48 E12.85218
G1 X99.838 Y134.986 E12.86899
G1 X99.801 Y134.31 E12.89151
G1 X99.8 Y125.096 E13.19797
G1 X99.81 Y124.381 E13.22175
G1 X99.818 Y124.199 E13.22781
G1 X99.87 Y123.469 E13.25215
G1 X100.024 Y120.741 E13.34303
G1 X100.101 Y117.992 E13.4345
G1 X100.101 Y115.273 E13.52493
G1 X100.022 Y112.517 E13.61664
G1 X99.866 Y109.769 E13.70818
G1 X99.636 Y107.064 E13.79848
G1 X99.328 Y104.358 E13.88906
G1 X98.94 Y101.636 E13.98051
G1 X98.474 Y98.917 E14.07226
G1 X98.173 Y97.372 E14.12461
G1 X97.968 Y96.361 E14.15893
G1 X97.916 Y96.001 E14.17102
G1 X97.851 Y95.234 E14.19663
G1 X97.816 Y94.614 E14.21728
G1 X97.816 Y94.257 E14.22915
G1 X97.851 Y93.625 E14.25021
G1 X97.912 Y92.896 E14.27454
G1 X97.964 Y92.532 E14.28677
G1 X98.123 Y91.755 E14.31315
G1 X98.259 Y91.173 E14.33302
G1 X98.36 Y90.828 E14.34498
G1 X98.611 Y90.127 E14.36975
G1 X98.834 Y89.553 E14.39023
G1 X98.985 Y89.223 E14.4023
G1 X99.348 Y88.536 E14.42814
G1 X99.651 Y88.001 E14.44859
G1 X99.844 Y87.699 E14.46051
G1 X100.27 Y87.114 E14.48458
G1 X100.663 Y86.603 E14.50602
G1 F1800 E7.50602
G1 F300 Z0.4
G0 F3000 X105.322 Y89.924 Z0.4
;TYPE:SUPPORT
G1 F300 Z0.2
G1 F1800 E14.50602
G1 F1200 X106.055 Y89.271 E14.53867
G1 X106.891 Y88.728 E14.57183
G1 X107.81 Y88.317 E14.60531
G1 X108.757 Y88.056 E14.63798
G1 X109.756 Y87.943 E14.67142
G1 X110.751 Y87.982 E14.70454
G1 X111.716 Y88.168 E14.73723
G1 X112.651 Y88.503 E14.77026
G1 X113.541 Y88.987 E14.80396
G1 X114.319 Y89.58 E14.83649
G1 X115.008 Y90.296 E14.86954
G1 X115.588 Y91.122 E14.90311
G1 X116.023 Y92 E14.9357
G1 X116.325 Y92.952 E14.96892
G1 X116.478 Y93.944 E15.00231
G1 X116.478 Y94.924 E15.0349
G1 X116.325 Y95.916 E15.06828
G1 X116.023 Y96.869 E15.10154
G1 X115.586 Y97.753 E15.13433
G1 X115.012 Y98.568 E15.16749
G1 X114.319 Y99.288 E15.20073
G1 X113.541 Y99.881 E15.23326
G1 X112.651 Y100.365 E15.26696
G1 X111.716 Y100.7 E15.29999
G1 X110.75 Y100.887 E15.33272
G1 X109.757 Y100.925 E15.36577
G1 X108.757 Y100.812 E15.39924
G1 X107.805 Y100.55 E15.43208
G1 X106.901 Y100.145 E15.46503
G1 X106.051 Y99.593 E15.49874
G1 X105.322 Y98.944 E15.5312
G1 X104.688 Y98.175 E15.56435
G1 X104.178 Y97.315 E15.59761
G1 X103.808 Y96.399 E15.63046
G1 X103.577 Y95.416 E15.66405
G1 X103.502 Y94.432 E15.69687
G1 X103.577 Y93.452 E15.72956
G1 X103.808 Y92.469 E15.76315
G1 X104.178 Y91.553 E15.796
G1 X104.688 Y90.693 E15.82926
G1 X105.322 Y89.924 E15.86241
G0 F3000 X104.907 Y90.678
G1 F1200 X115.081 Y90.678 E16.2008
G0 F3000 X114.681 Y90.187
G1 F1200 X114.681 Y98.682 E16.48334
G1 X114.683 Y98.679
G1 X105.309 Y98.679 E16.79512
G1 F1800 E9.79512
G1 F300 Z0.4
G0 F3000 X106.68 Y99.81 Z0.4
G1 F300 Z0.2
G1 F1800 E16.79512
G1 F1200 X106.68 Y89.056 E17.1528
G1 F1800 E10.1528
G1 F300 Z0.4
G0 F3000 X109.347 Y88.15 Z0.4
G1 F300 Z0.2
G1 F1800 E17.1528
G1 F1200 X109.347 Y100.717 E17.57078
G1 F1800 E10.57078
G1 F300 Z0.4
G0 F3000 X112.014 Y100.425 Z0.4
G1 F300 Z0.2
G1 F1800 E17.57078
G1 F1200 X112.014 Y88.444 E17.96927
G1 F1800 E10.96927
G1 F300 Z0.4
G0 F3000 X116.224 Y93.345 Z0.4
G1 F300 Z0.2
G1 F1800 E17.96927
G1 F1200 X103.767 Y93.345 E18.38359
G0 F3000 X104.013 Y92.389
G1 F1200 X104.013 Y96.478 E18.51959
G0 F3000 X103.881 Y96.012
G1 F1200 X116.126 Y96.012 E18.92686
G1 F1800 E11.92686
G1 F300 Z0.4
;MESH:test_clock-minutehand-balancer-reverse.stl
G0 F3000 X108.458 Y102.388 Z0.4
;TYPE:WALL-INNER
G1 F300 Z0.2
G1 F1800 E18.92686
G1 F1200 X109.141 Y102.466 E18.94973
G1 X109.69 Y102.53 E18.96811
G1 X110.929 Y102.483 E19.00935
G1 X112.146 Y102.246 E19.05059
G1 X113.314 Y101.827 E19.09186
G1 X114.404 Y101.234 E19.13313
G1 X115.39 Y100.483 E19.17436
G1 X116.25 Y99.589 E19.21562
G1 X116.964 Y98.575 E19.25686
G1 X117.514 Y97.463 E19.29812
G1 X117.759 Y96.69 E19.3251
G1 X117.889 Y96.28 E19.3394
G1 X117.999 Y95.567 E19.3634
G1 X118.078 Y95.054 E19.38066
G1 X118.078 Y94.427 E19.40151
G1 X118.078 Y93.814 E19.4219
G1 X117.996 Y93.282 E19.43981
G1 X117.889 Y92.588 E19.46316
G1 X117.753 Y92.158 E19.47816
G1 X117.514 Y91.406 E19.50441
G1 X116.964 Y90.295 E19.54564
G1 X116.251 Y89.279 E19.58692
G1 X115.39 Y88.385 E19.6282
