;FLAVOR:Marlin
;TIME:2562
;Filament used: 0.450702m
;Layer height: 0.1
;MINX:97.018
;MINY:69.84
;MINZ:0.1
;MAXX:122.982
;MAXY:150.168
;MAXZ:4
;Generated with Cura_SteamEngine master
M82 ;absolute extrusion mode
;Sliced at: Sun 04-12-2022 13:19:08
;Basic settings: Layer height: 0.1 Walls: 0.8 Fill: 30.0
G21 ;metric values
G90 ;absolute positioning
M82 ;set extruder to absolute mode
M107 ;start with the fan off
M117 Start heating ...
M104 S200
M117 Homing X/Y ...
G28 X0 Y0 ;move X/Y to min endstops
M117 Homing Z ...
G28 Z0 ;move Z to min endstops
G1 Z15.0 F50 ;move the platform down 15mm
M117 Heating ...
M109 S200
M117 Start cleaning ...
G92 E0 ;zero the extruded length
G1 F200 E10 ;extrude 10mm of feed stock
G92 E0 ;zero the extruded length again
M117 Intro line ...
G1 Z2.0 F3000 ; Move Z Axis up little to prevent scratching of Heat Bed
G1 X0.1 Y20 Z0.1 F5000.0 ; Move to start position
G1 X0.1 Y200.0 Z0.1 F1500.0 E15 ; Draw the first line
G1 X0.4 Y200.0 Z0.1 F5000.0 ; Move to side a little
G1 X0.4 Y20 Z0.3 F1500.0 E30 ; Draw the second line
G92 E0 ; Reset Extruder
G1 E-1 F500 ; Retract filiment by 1 mm
G1 Z2.0 F3000 ; Move Z Axis up little to prevent scratching of Heat Bed
G1 X5 Y20 Z0.3 F50 ; Move over to prevent blob squish
G1 F50
G92 E0 ; Reset Extruder
M117 Printing...

G92 E0
G92 E0
G1 F1800 E-7
;LAYER_COUNT:38
;LAYER:0
M107
G1 F300 Z0.3
G0 F1500 X99.487 Y75.201 Z0.3
;TYPE:SKIRT
G1 F300 Z0.1
G1 F1800 E0
G1 F900 X99.85 Y74.73 E0.00989
G1 X100.014 Y74.534 E0.01414
G1 X100.616 Y73.857 E0.02921
G1 X100.966 Y73.495 E0.03758
G1 X101.665 Y72.874 E0.05313
G1 X101.855 Y72.721 E0.05718
G1 X102.555 Y72.193 E0.07177
G1 X103.025 Y71.869 E0.08126
G1 X103.447 Y71.614 E0.08946
G1 X103.96 Y71.329 E0.09922
G1 X104.455 Y71.086 E0.10839
G1 X104.572 Y71.033 E0.11052
G1 X105.14 Y70.786 E0.12083
G1 X105.758 Y70.557 E0.13179
G1 X106.304 Y70.384 E0.14131
G1 X106.534 Y70.319 E0.14529
G1 X107.203 Y70.152 E0.15675
G1 X107.806 Y70.027 E0.16699
G1 X108.237 Y69.962 E0.17424
G1 X108.913 Y69.884 E0.18556
G1 X109.475 Y69.849 E0.19492
G1 X110.054 Y69.84 E0.20455
G1 X110.653 Y69.858 E0.21452
G1 X110.837 Y69.87 E0.21758
G1 X111.47 Y69.926 E0.22815
G1 X111.968 Y69.992 E0.23651
G1 X112.135 Y70.021 E0.23933
G1 X112.75 Y70.139 E0.24974
G1 X113.3 Y70.272 E0.25915
G1 X113.863 Y70.437 E0.26891
G1 X114.093 Y70.514 E0.27294
G1 X114.825 Y70.782 E0.2859
G1 X115.399 Y71.019 E0.29623
G1 X115.828 Y71.227 E0.30416
G1 X116.381 Y71.519 E0.31456
G1 X116.836 Y71.787 E0.32334
G1 X116.97 Y71.872 E0.32598
G1 X117.495 Y72.22 E0.33645
G1 X118.02 Y72.61 E0.34733
G1 X118.478 Y72.986 E0.35719
G1 X118.953 Y73.42 E0.36789
G1 X119.462 Y73.94 E0.37999
G1 X120.059 Y74.622 E0.39506
G1 X120.449 Y75.117 E0.40554
G1 X120.94 Y75.836 E0.42002
G1 X121.073 Y76.052 E0.42424
G1 X121.453 Y76.717 E0.43697
G1 X121.735 Y77.263 E0.44719
G1 X122 Y77.865 E0.45813
G1 X122.244 Y78.498 E0.46941
G1 X122.415 Y79.03 E0.47871
G1 X122.629 Y79.801 E0.49201
G1 X122.738 Y80.331 E0.50101
G1 X122.826 Y80.824 E0.50934
G1 X122.86 Y81.055 E0.51322
G1 X122.924 Y81.594 E0.52225
G1 X122.977 Y82.262 E0.53339
G1 X122.982 Y83.142 E0.54803
G1 X122.97 Y83.397 E0.55227
G1 X122.897 Y84.32 E0.56767
G1 X122.832 Y84.849 E0.57653
G1 X122.748 Y85.319 E0.58447
G1 X122.622 Y85.896 E0.5943
G1 X121.815 Y88.97 E0.64715
G1 X121.205 Y91.585 E0.6918
G1 X120.664 Y94.261 E0.73721
G1 X120.204 Y96.911 E0.78194
G1 X119.81 Y99.63 E0.82762
G1 X119.502 Y102.289 E0.87214
G1 X119.263 Y105.018 E0.9177
G1 X119.104 Y107.71 E0.96254
G1 X119.021 Y110.43 E1.0078
G1 X119.014 Y113.141 E1.05288
G1 X119.085 Y115.878 E1.09841
G1 X119.233 Y118.589 E1.14357
G1 X119.453 Y121.253 E1.18802
G1 X119.758 Y123.998 E1.23395
G1 X120.132 Y126.669 E1.2788
G1 X120.585 Y129.346 E1.32395
G1 X120.919 Y131.084 E1.35338
G1 X120.989 Y131.728 E1.36416
G1 X121 Y132.16 E1.37134
G1 X121 Y139.618 E1.49537
G1 X120.99 Y140.319 E1.50703
G1 X120.909 Y141.064 E1.51949
G1 X120.86 Y141.288 E1.52331
G1 X120.717 Y141.881 E1.53345
G1 X119.859 Y145.234 E1.59101
G1 X119.839 Y145.342 E1.59283
G1 X119.685 Y145.955 E1.60334
G1 X119.372 Y147.111 E1.62326
G1 X119.186 Y147.645 E1.63266
G1 X118.926 Y148.147 E1.64207
G1 X118.599 Y148.608 E1.65147
G1 X118.042 Y149.162 E1.66453
G1 X117.938 Y149.247 E1.66676
G1 X117.476 Y149.573 E1.67617
G1 X116.973 Y149.831 E1.68557
G1 X116.439 Y150.015 E1.69496
G1 X115.883 Y150.122 E1.70438
G1 X115.483 Y150.149 E1.71104
G1 X114.456 Y150.168 E1.72813
G1 X105.241 Y150.168 E1.88137
G1 X104.553 Y150.158 E1.89282
G1 X103.99 Y150.109 E1.90221
G1 X103.439 Y149.982 E1.91162
G1 X102.911 Y149.779 E1.92102
G1 X102.234 Y149.375 E1.93413
G1 X102.123 Y149.293 E1.93643
G1 X101.693 Y148.926 E1.94583
G1 X101.32 Y148.502 E1.95522
G1 X101.009 Y148.029 E1.96464
G1 X100.769 Y147.518 E1.97403
G1 X100.644 Y147.14 E1.98065
G1 X100.35 Y146.069 E1.99912
G1 X99.3 Y141.94 E2.06997
G1 X99.123 Y141.21 E2.08246
G1 X99.013 Y140.412 E2.09585
G1 X99.006 Y140.205 E2.0993
G1 X99 Y139.702 E2.10766
G1 X99 Y132.475 E2.22785
G1 X99.011 Y131.769 E2.23959
G1 X99.078 Y131.101 E2.25076
G1 X99.344 Y129.672 E2.27493
G1 X99.378 Y129.504 E2.27778
G1 X99.837 Y126.813 E2.32318
G1 X100.212 Y124.17 E2.36757
G1 X100.521 Y121.437 E2.41331
G1 X100.749 Y118.738 E2.45836
G1 X100.902 Y116.003 E2.50391
G1 X100.977 Y113.328 E2.54841
G1 X100.975 Y110.584 E2.59405
G1 X100.898 Y107.88 E2.63903
G1 X100.742 Y105.173 E2.68412
G1 X100.512 Y102.476 E2.72914
G1 X100.205 Y99.789 E2.77411
G1 X99.814 Y97.064 E2.81989
G1 X99.359 Y94.415 E2.86459
G1 X98.823 Y91.745 E2.90988
G1 X98.219 Y89.13 E2.95451
G1 X97.713 Y87.226 E2.98728
G1 X97.692 Y87.117 E2.98912
G1 X97.447 Y86.175 E3.00531
G1 X97.303 Y85.573 E3.0156
G1 X97.201 Y85.044 E3.02456
G1 X97.174 Y84.871 E3.02747
G1 X97.088 Y84.234 E3.03816
G1 X97.043 Y83.718 E3.04678
G1 X97.018 Y83.083 E3.05735
G1 X97.018 Y82.839 E3.0614
G1 X97.038 Y82.112 E3.0735
G1 X97.09 Y81.385 E3.08562
G1 X97.219 Y80.534 E3.09993
G1 X97.271 Y80.279 E3.10426
G1 X97.49 Y79.351 E3.12012
G1 X97.58 Y79.045 E3.12542
G1 X97.825 Y78.318 E3.13818
G1 X98.103 Y77.616 E3.15074
G1 X98.334 Y77.127 E3.15973
G1 X98.634 Y76.537 E3.17074
G1 X98.853 Y76.163 E3.17794
G1 X99.201 Y75.613 E3.18877
G1 X99.487 Y75.201 E3.19711
G0 F1500 X99.905 Y75.31
G1 F900 X100.313 Y74.8 E3.20797
G1 X100.915 Y74.123 E3.22304
G1 X101.459 Y73.581 E3.23581
G1 X101.924 Y73.178 E3.24604
G1 X102.096 Y73.04 E3.24971
G1 X102.796 Y72.512 E3.26429
G1 X103.234 Y72.21 E3.27314
G1 X103.642 Y71.964 E3.28106
G1 X104.155 Y71.679 E3.29082
G1 X104.626 Y71.447 E3.29955
G1 X105.299 Y71.153 E3.31176
G1 X105.887 Y70.936 E3.32219
G1 X106.424 Y70.765 E3.33156
G1 X106.631 Y70.707 E3.33513
G1 X107.289 Y70.543 E3.34641
G1 X107.869 Y70.422 E3.35626
G1 X108.282 Y70.36 E3.36321
G1 X108.958 Y70.282 E3.37453
G1 X109.494 Y70.248 E3.38346
G1 X110.048 Y70.24 E3.39267
G1 X110.637 Y70.257 E3.40247
G1 X110.802 Y70.268 E3.40522
G1 X111.435 Y70.324 E3.41579
G1 X112.059 Y70.413 E3.42627
G1 X112.674 Y70.531 E3.43668
G1 X113.2 Y70.66 E3.44569
G1 X113.749 Y70.821 E3.45521
G1 X113.956 Y70.889 E3.45883
G1 X114.688 Y71.157 E3.47179
G1 X115.228 Y71.381 E3.48151
G1 X115.641 Y71.581 E3.48915
G1 X116.194 Y71.873 E3.49955
G1 X116.629 Y72.129 E3.50794
G1 X116.749 Y72.205 E3.5103
G1 X117.274 Y72.553 E3.52078
G1 X117.766 Y72.92 E3.53098
G1 X118.224 Y73.296 E3.54084
G1 X118.671 Y73.702 E3.55088
G1 X119.161 Y74.204 E3.56255
G1 X119.758 Y74.886 E3.57762
G1 X120.132 Y75.361 E3.58767
G1 X120.606 Y76.056 E3.60166
G1 X120.726 Y76.251 E3.60547
G1 X121.106 Y76.916 E3.61821
G1 X121.372 Y77.431 E3.62785
G1 X121.632 Y78.022 E3.63859
G1 X121.863 Y78.622 E3.64928
G1 X122.032 Y79.143 E3.65839
G1 X122.237 Y79.882 E3.67114
G1 X122.344 Y80.401 E3.67995
G1 X122.432 Y80.894 E3.68828
G1 X122.463 Y81.103 E3.69179
G1 X122.527 Y81.642 E3.70082
G1 X122.577 Y82.274 E3.71136
G1 X122.582 Y83.136 E3.7257
G1 X122.571 Y83.366 E3.72953
G1 X122.498 Y84.289 E3.74493
G1 X122.389 Y85.07 E3.75804
G1 X122.357 Y85.234 E3.76082
G1 X122.231 Y85.811 E3.77064
G1 X121.433 Y88.848 E3.82286
G1 X120.812 Y91.513 E3.86837
G1 X120.271 Y94.186 E3.91372
G1 X119.807 Y96.857 E3.9588
G1 X119.415 Y99.563 E4.00428
G1 X119.1 Y102.279 E4.04975
G1 X118.866 Y104.96 E4.0945
G1 X118.703 Y107.725 E4.14056
G1 X118.621 Y110.417 E4.18535
G1 X118.614 Y113.15 E4.2308
G1 X118.685 Y115.876 E4.27615
G1 X118.833 Y118.605 E4.3216
G1 X119.059 Y121.332 E4.36711
G1 X119.359 Y124.032 E4.41228
G1 X119.735 Y126.714 E4.45732
G1 X120.197 Y129.451 E4.50348
G1 X120.526 Y131.16 E4.53242
G1 X120.59 Y131.739 E4.54211
G1 X120.6 Y132.16 E4.54911
G1 X120.6 Y139.612 E4.67304
G1 X120.59 Y140.313 E4.6847
G1 X120.517 Y140.983 E4.69591
G1 X120.472 Y141.194 E4.6995
G1 X120.33 Y141.781 E4.70954
G1 X119.461 Y145.176 E4.76782
G1 X119.451 Y145.245 E4.76898
G1 X119.298 Y145.853 E4.77941
G1 X118.986 Y147.006 E4.79927
G1 X118.807 Y147.512 E4.8082
G1 X118.556 Y147.986 E4.81711
G1 X118.237 Y148.417 E4.82603
G1 X117.789 Y148.852 E4.83642
G1 X117.685 Y148.937 E4.83865
G1 X117.246 Y149.245 E4.84757
G1 X116.766 Y149.484 E4.85649
G1 X116.255 Y149.649 E4.86542
G1 X115.475 Y149.749 E4.87849
G1 X114.456 Y149.768 E4.89544
G1 X105.247 Y149.768 E5.04859
G1 X104.559 Y149.758 E5.06003
G1 X104.025 Y149.71 E5.06895
G1 X103.503 Y149.583 E5.07788
G1 X103.007 Y149.381 E5.08679
G1 X102.472 Y149.054 E5.09722
G1 X102.361 Y148.972 E5.09951
G1 X101.955 Y148.622 E5.10842
G1 X101.605 Y148.215 E5.11735
G1 X101.319 Y147.761 E5.12627
G1 X101.03 Y147.033 E5.1393
G1 X100.737 Y145.971 E5.15762
G1 X99.688 Y141.845 E5.22842
G1 X99.511 Y141.115 E5.24091
G1 X99.412 Y140.398 E5.25295
G1 X99.406 Y140.2 E5.25624
G1 X99.4 Y139.697 E5.26461
G1 X99.4 Y132.481 E5.38461
G1 X99.411 Y131.775 E5.39635
G1 X99.471 Y131.174 E5.4064
G1 X99.736 Y129.751 E5.43047
G1 X99.77 Y129.584 E5.4333
G1 X100.234 Y126.865 E5.47917
G1 X100.612 Y124.2 E5.52394
G1 X100.92 Y121.479 E5.56948
G1 X101.149 Y118.76 E5.61485
G1 X101.3 Y116.072 E5.65963
G1 X101.377 Y113.303 E5.70569
G1 X101.375 Y110.609 E5.75049
G1 X101.296 Y107.845 E5.79648
G1 X101.141 Y105.152 E5.84134
G1 X100.909 Y102.434 E5.8867
G1 X100.599 Y99.72 E5.93213
G1 X100.211 Y97.01 E5.97766
G1 X99.752 Y94.34 E6.02271
G1 X99.218 Y91.682 E6.0678
G1 X98.598 Y88.998 E6.11361
G1 X98.1 Y87.123 E6.14587
G1 X98.082 Y87.026 E6.14751
G1 X97.836 Y86.082 E6.16373
G1 X97.692 Y85.48 E6.17403
G1 X97.595 Y84.973 E6.18261
G1 X97.57 Y84.818 E6.18522
G1 X97.484 Y84.181 E6.19591
G1 X97.434 Y83.547 E6.20649
G1 X97.417 Y82.85 E6.21808
G1 X97.437 Y82.123 E6.23018
G1 X97.487 Y81.438 E6.2416
G1 X97.614 Y80.6 E6.25569
G1 X97.66 Y80.37 E6.25959
G1 X97.85 Y79.56 E6.27343
G1 X97.96 Y79.172 E6.28014
G1 X98.205 Y78.445 E6.29289
G1 X98.464 Y77.788 E6.30464
G1 X98.692 Y77.304 E6.31354
G1 X98.981 Y76.737 E6.32412
G1 X99.191 Y76.377 E6.33105
G1 X99.539 Y75.827 E6.34187
G1 X99.905 Y75.31 E6.35241
G0 F1500 X100.221 Y75.556
G1 F900 X100.612 Y75.066 E6.36283
G1 X101.214 Y74.389 E6.3779
G1 X101.733 Y73.872 E6.39008
G1 X102.184 Y73.482 E6.4
G1 X102.337 Y73.359 E6.40326
G1 X103.037 Y72.831 E6.41784
G1 X103.716 Y72.384 E6.43136
G1 X103.836 Y72.314 E6.43367
G1 X104.349 Y72.029 E6.44343
G1 X104.798 Y71.809 E6.45175
G1 X104.891 Y71.766 E6.45345
G1 X105.459 Y71.519 E6.46375
G1 X106.016 Y71.315 E6.47362
G1 X106.545 Y71.147 E6.48285
G1 X106.729 Y71.095 E6.48603
G1 X107.375 Y70.933 E6.4971
G1 X107.931 Y70.817 E6.50655
G1 X108.328 Y70.757 E6.51322
G1 X109.004 Y70.679 E6.52454
G1 X109.513 Y70.648 E6.53302
G1 X110.043 Y70.64 E6.54184
G1 X110.62 Y70.657 E6.55144
G1 X110.767 Y70.666 E6.55389
G1 X111.4 Y70.722 E6.56445
G1 X111.984 Y70.806 E6.57427
G1 X112.599 Y70.924 E6.58468
G1 X113.1 Y71.047 E6.59326
G1 X113.634 Y71.204 E6.60251
G1 X113.818 Y71.265 E6.60574
G1 X114.55 Y71.533 E6.6187
G1 X115.056 Y71.742 E6.62781
G1 X115.454 Y71.934 E6.63515
G1 X116.007 Y72.226 E6.64555
G1 X116.528 Y72.539 E6.65566
G1 X117.053 Y72.887 E6.66614
G1 X117.512 Y73.229 E6.67566
G1 X117.97 Y73.605 E6.68551
G1 X118.388 Y73.985 E6.69491
G1 X118.86 Y74.467 E6.70612
G1 X119.457 Y75.149 E6.7212
G1 X119.815 Y75.605 E6.73084
G1 X120.272 Y76.277 E6.74435
G1 X120.378 Y76.449 E6.74771
G1 X120.758 Y77.114 E6.76045
G1 X121.009 Y77.598 E6.76952
G1 X121.265 Y78.18 E6.78009
G1 X121.483 Y78.747 E6.79019
G1 X121.648 Y79.256 E6.79909
G1 X121.846 Y79.964 E6.81132
G1 X121.95 Y80.472 E6.81994
G1 X122.038 Y80.965 E6.82827
G1 X122.066 Y81.15 E6.83138
G1 X122.13 Y81.689 E6.84041
G1 X122.178 Y82.286 E6.85037
G1 X122.182 Y83.13 E6.8644
G1 X122.172 Y83.334 E6.8678
G1 X122.099 Y84.257 E6.8832
G1 X121.995 Y85.003 E6.89572
G1 X121.966 Y85.149 E6.8982
G1 X121.84 Y85.726 E6.90802
G1 X121.042 Y88.761 E6.96021
G1 X120.417 Y91.44 E7.00596
G1 X119.883 Y94.081 E7.05077
G1 X119.411 Y96.802 E7.09669
G1 X119.021 Y99.492 E7.14189
G1 X118.703 Y102.234 E7.1878
G1 X118.464 Y104.971 E7.23349
G1 X118.306 Y107.641 E7.27797
G1 X118.221 Y110.439 E7.32452
G1 X118.214 Y113.159 E7.36976
G1 X118.285 Y115.908 E7.41549
G1 X118.433 Y118.624 E7.46072
G1 X118.66 Y121.373 E7.50659
G1 X118.959 Y124.065 E7.55164
G1 X119.343 Y126.8 E7.59757
G1 X119.799 Y129.499 E7.64309
G1 X120.133 Y131.235 E7.67249
G1 X120.19 Y131.75 E7.6811
G1 X120.2 Y132.16 E7.68792
G1 X120.2 Y139.607 E7.81177
G1 X120.19 Y140.308 E7.82343
G1 X120.125 Y140.903 E7.83338
G1 X120.083 Y141.1 E7.83673
G1 X119.942 Y141.682 E7.84669
G1 X119.086 Y145.026 E7.90409
G1 X119.063 Y145.148 E7.90616
G1 X118.911 Y145.751 E7.9165
G1 X118.6 Y146.902 E7.93633
G1 X118.429 Y147.378 E7.94474
G1 X118.186 Y147.821 E7.95314
G1 X117.876 Y148.22 E7.96154
G1 X117.432 Y148.628 E7.97157
G1 X117.017 Y148.916 E7.97997
G1 X116.561 Y149.135 E7.98838
G1 X116.076 Y149.279 E7.9968
G1 X115.468 Y149.349 E8.00697
G1 X114.456 Y149.368 E8.02381
G1 X105.252 Y149.368 E8.17687
G1 X104.564 Y149.358 E8.18831
G1 X104.061 Y149.31 E8.19672
G1 X103.572 Y149.184 E8.20511
G1 X103.108 Y148.983 E8.21352
G1 X102.599 Y148.65 E8.22364
G1 X102.217 Y148.318 E8.23205
G1 X101.892 Y147.931 E8.24046
G1 X101.633 Y147.497 E8.24886
G1 X101.415 Y146.927 E8.25901
G1 X101.125 Y145.873 E8.27719
G1 X100.077 Y141.751 E8.34792
G1 X99.9 Y141.021 E8.36041
G1 X99.812 Y140.383 E8.37112
G1 X99.806 Y140.195 E8.37425
G1 X99.8 Y139.692 E8.38262
G1 X99.8 Y132.487 E8.50244
G1 X99.811 Y131.781 E8.51418
G1 X99.865 Y131.247 E8.52311
G1 X100.128 Y129.83 E8.54707
G1 X100.168 Y129.633 E8.55042
G1 X100.626 Y126.951 E8.59566
G1 X101.006 Y124.264 E8.64079
G1 X101.317 Y121.522 E8.68668
G1 X101.548 Y118.783 E8.7324
G1 X101.7 Y116.068 E8.77762
G1 X101.777 Y113.315 E8.82342
G1 X101.775 Y110.597 E8.86862
G1 X101.696 Y107.845 E8.9144
G1 X101.538 Y105.096 E8.96019
G1 X101.307 Y102.387 E9.00541
G1 X100.998 Y99.688 E9.05059
G1 X100.607 Y96.957 E9.09647
G1 X100.14 Y94.237 E9.14236
G1 X99.613 Y91.611 E9.1869
G1 X98.992 Y88.924 E9.23277
G1 X98.486 Y87.02 E9.26553
G1 X98.469 Y86.925 E9.26713
G1 X98.225 Y85.988 E9.28324
G1 X98.081 Y85.386 E9.29353
G1 X97.967 Y84.764 E9.30405
G1 X97.881 Y84.127 E9.31474
G1 X97.834 Y83.533 E9.32464
G1 X97.817 Y82.861 E9.33582
G1 X97.837 Y82.134 E9.34792
G1 X97.883 Y81.49 E9.35866
G1 X98.009 Y80.666 E9.37252
G1 X98.05 Y80.461 E9.37599
G1 X98.263 Y79.557 E9.39144
G1 X98.339 Y79.3 E9.3959
G1 X98.622 Y78.465 E9.41056
G1 X98.825 Y77.96 E9.41961
G1 X99.051 Y77.481 E9.42842
G1 X99.327 Y76.936 E9.43858
G1 X99.529 Y76.591 E9.44523
G1 X99.877 Y76.041 E9.45605
G1 X100.221 Y75.556 E9.46594
G1 F1800 E2.46594
G1 F300 Z0.3
G0 F1500 X102.723 Y77.88 Z0.3
;TYPE:SUPPORT
G1 F300 Z0.1
G1 F1800 E9.46594
G1 F900 X103.271 Y77.158 E9.48101
G1 X103.849 Y76.535 E9.49514
G1 X104.518 Y75.946 E9.50997
G1 X105.228 Y75.434 E9.52452
G1 X105.966 Y75.007 E9.5387
G1 X106.015 Y74.988 E9.53958
G1 X106.777 Y74.642 E9.55349
G1 X107.626 Y74.361 E9.56837
G1 X108.45 Y74.168 E9.58244
G1 X109.382 Y74.048 E9.59807
G1 X110.023 Y74.033 E9.60873
G1 X110.223 Y74.033 E9.61206
G1 X111.08 Y74.097 E9.62635
G1 X111.963 Y74.255 E9.64127
G1 X112.794 Y74.49 E9.65563
G1 X113.613 Y74.809 E9.67024
G1 X114.411 Y75.216 E9.68514
G1 X115.165 Y75.702 E9.70006
G1 X115.797 Y76.206 E9.7135
G1 X116.443 Y76.836 E9.72851
G1 X117.015 Y77.517 E9.7433
G1 X117.516 Y78.257 E9.75816
G1 X117.919 Y78.994 E9.77213
G1 X118.22 Y79.713 E9.78509
G1 X118.266 Y79.817 E9.78698
G1 X118.524 Y80.644 E9.80139
