;FLAVOR:Marlin
;TIME:8056
;Filament used: 3.82862m
;Layer height: 0.1
;MINX:89.2
;MINY:87.45
;MINZ:0.1
;MAXX:134.8
;MAXY:136.55
;MAXZ:30
;Generated with Cura_SteamEngine 4.2.1
M140 S60
M105
M190 S60
M104 S200
M105
M109 S200
M82 ;absolute extrusion mode
G21 ;metric values
G90 ;absolute positioning
M82 ;set extruder to absolute mode
M107 ;start with the fan off
G28 X0 Y0 ;move X/Y to min endstops
G28 Z0 ;move Z to min endstops
G1 Z15.0 F50 ;move the platform down 15mm
G92 E0 ;zero the extruded length
G1 F200 E3 ;extrude 3mm of feed stock
G92 E0 ;zero the extruded length again
G1 F50
M117 Printing...
G5
M141 S28
G92 E0
G92 E0
G1 F2400 E-6
;LAYER_COUNT:300
;LAYER:0
M106 S255
M204 S3000
M205 X10 Y10
;MESH:Borotva.Tarto (1).stl
G0 F1500 X118.177 Y92.66 Z0.1
M204 S1800
M205 X8 Y8
;TYPE:WALL-INNER
G1 F2400 E0
G1 F1500 X116.028 Y92.35 E0.05055
G1 X107.895 Y92.35 E0.2399
G1 X106.53 Y92.701 E0.27272
G1 X106.392 Y92.751 E0.27614
G1 X105.647 Y92.855 E0.29365
G1 X104.843 Y93.188 E0.31391
G1 X102.712 Y94.356 E0.37049
G1 X100.775 Y95.814 E0.42693
G1 X100.123 Y96.42 E0.44766
G1 X99.937 Y96.716 E0.4558
G1 X98.878 Y96.73 E0.48045
G1 X90.68 Y96.731 E0.67132
G1 X90.4 Y96.731 E0.67784
G1 X90.4 Y96.451 E0.68206
G1 X90.4 Y88.65 E0.86368
G1 X133.6 Y88.65 E1.86947
G1 X133.6 Y96.73 E2.05759
G1 X125.124 Y96.731 E2.25493
G1 X124.071 Y96.717 E2.27945
G1 X123.909 Y96.456 E2.2866
G1 X123.229 Y95.815 E2.30836
G1 X121.306 Y94.371 E2.36434
G1 X120.62 Y93.963 E2.38293
G1 X119.752 Y93.488 E2.40596
G1 X118.996 Y93.11 E2.42564
G1 X118.249 Y92.979 E2.4433
G1 X118.177 Y92.66 E2.45091
M204 S3000
M205 X10 Y10
G0 X117.716 Y93.159
M204 S1800
M205 X8 Y8
G1 X115.988 Y92.91 E2.49156
G1 X107.966 Y92.91 E2.67833
G1 X106.696 Y93.236 E2.70886
G1 X106.527 Y93.298 E2.71305
G1 X105.795 Y93.4 E2.73025
G1 X105.085 Y93.694 E2.74815
G1 X103.017 Y94.828 E2.80306
G1 X101.135 Y96.244 E2.85789
G1 X100.558 Y96.78 E2.87623
G1 X100.249 Y97.273 E2.88977
G1 X100.169 Y97.273 E2.89164
G1 X98.885 Y97.29 E2.92153
G1 X90.12 Y97.291 E3.1256
G1 X89.84 Y97.291 E3.13212
G1 X89.84 Y97.011 E3.13634
G1 X89.84 Y88.09 E3.34404
G1 X134.16 Y88.09 E4.3759
G1 X134.16 Y97.29 E4.5901
G1 X125.117 Y97.291 E4.80064
G1 X123.757 Y97.273 E4.8323
G1 X123.472 Y96.813 E4.8449
G1 X122.868 Y96.244 E4.86422
G1 X120.994 Y94.837 E4.91878
G1 X120.342 Y94.449 E4.93644
G1 X119.492 Y93.984 E4.959
G1 X118.818 Y93.647 E4.97655
G1 X117.95 Y93.494 E4.99707
G1 X117.776 Y93.424 E5.00143
G1 X117.716 Y93.159 E5.00776
M204 S3000
M205 X10 Y10
G0 X117.255 Y93.658
M204 S1800
M205 X8 Y8
;TYPE:WALL-OUTER
G1 X115.948 Y93.47 E5.0385
G1 X108.037 Y93.47 E5.22269
G1 X106.862 Y93.772 E5.25093
G1 X106.662 Y93.845 E5.25589
G1 X105.943 Y93.945 E5.27279
G1 X105.327 Y94.2 E5.28831
G1 X103.322 Y95.3 E5.34156
G1 X101.495 Y96.674 E5.39478
G1 X100.993 Y97.14 E5.41073
G1 X100.56 Y97.831 E5.42971
G1 X100.174 Y97.833 E5.4387
G1 X98.892 Y97.85 E5.46855
G1 X89.56 Y97.851 E5.68582
G1 X89.28 Y97.851 E5.69234
G1 X89.28 Y97.571 E5.69656
G1 X89.28 Y87.53 E5.93033
G1 X134.72 Y87.53 E6.98827
G1 X134.72 Y97.85 E7.22854
G1 X125.109 Y97.851 E7.45231
G1 X123.695 Y97.832 E7.48523
G1 X123.445 Y97.832 E7.49105
G1 X123.035 Y97.17 E7.50918
G1 X122.507 Y96.673 E7.52606
G1 X120.682 Y95.303 E7.57919
G1 X120.064 Y94.935 E7.59594
G1 X119.232 Y94.48 E7.61802
G1 X118.641 Y94.184 E7.63341
G1 X117.797 Y94.036 E7.65336
G1 X117.295 Y93.835 E7.66594
G1 X117.255 Y93.658 E7.67017
M204 S3000
M205 X10 Y10
G0 X117.057 Y93.63
G0 X117.151 Y92.977
G0 X118.705 Y92.5
M204 S1800
M205 X8 Y8
;TYPE:SKIN
G1 X118.631 Y92.169 E7.67807
G1 X116.067 Y91.8 E7.73838
G1 X107.826 Y91.8 E7.93024
G1 X106.367 Y92.175 E7.96532
G1 X106.255 Y92.215 E7.96809
G1 X105.502 Y92.32 E7.98579
G1 X104.605 Y92.691 E8.00839
G1 X102.413 Y93.893 E8.06659
G1 X100.421 Y95.392 E8.12463
G1 X99.695 Y96.066 E8.1477
G1 X99.63 Y96.17 E8.15055
G1 X98.87 Y96.18 E8.16825
G1 X90.95 Y96.181 E8.35264
G1 X90.95 Y89.2 E8.51517
G1 X133.05 Y89.2 E9.49535
G1 X133.05 Y96.18 E9.65786
G1 X125.132 Y96.181 E9.84221
G1 X124.38 Y96.171 E9.85972
G1 X124.339 Y96.105 E9.86153
G1 X123.584 Y95.394 E9.88567
G1 X121.613 Y93.913 E9.94307
G1 X120.893 Y93.485 E9.96257
G1 X120.007 Y93.001 E9.98608
G1 X119.171 Y92.582 E10.00785
G1 X118.705 Y92.5 E10.01887
M204 S3000
M205 X10 Y10
G0 X132.789 Y90.023
M204 S1800
M205 X8 Y8
G1 X132.226 Y89.46 E10.0374
M204 S3000
M205 X10 Y10
G0 X131.434 Y89.46
M204 S1800
M205 X8 Y8
G1 X132.789 Y90.815 E10.08202
M204 S3000
M205 X10 Y10
G0 X132.789 Y91.607
M204 S1800
M205 X8 Y8
G1 X130.642 Y89.46 E10.15271
M204 S3000
M205 X10 Y10
G0 X129.85 Y89.46
M204 S1800
M205 X8 Y8
G1 X132.789 Y92.399 E10.24948
M204 S3000
M205 X10 Y10
G0 X132.789 Y93.191
M204 S1800
M205 X8 Y8
G1 X129.058 Y89.46 E10.37232
M204 S3000
M205 X10 Y10
G0 X128.266 Y89.46
M204 S1800
M205 X8 Y8
G1 X132.789 Y93.983 E10.52125
M204 S3000
M205 X10 Y10
G0 X132.789 Y94.775
M204 S1800
M205 X8 Y8
G1 X127.474 Y89.46 E10.69625
M204 S3000
M205 X10 Y10
G0 X126.682 Y89.46
M204 S1800
M205 X8 Y8
G1 X132.789 Y95.567 E10.89733
M204 S3000
M205 X10 Y10
G0 X132.349 Y95.919
M204 S1800
M205 X8 Y8
G1 X125.89 Y89.46 E11.11
M204 S3000
M205 X10 Y10
G0 X125.098 Y89.46
M204 S1800
M205 X8 Y8
G1 X131.557 Y95.919 E11.32266
M204 S3000
M205 X10 Y10
G0 X130.765 Y95.919
M204 S1800
M205 X8 Y8
G1 X124.306 Y89.46 E11.53533
M204 S3000
M205 X10 Y10
G0 X123.514 Y89.46
M204 S1800
M205 X8 Y8
G1 X129.974 Y95.919 E11.74802
M204 S3000
M205 X10 Y10
G0 X129.182 Y95.919
M204 S1800
M205 X8 Y8
G1 X122.722 Y89.46 E11.9607
M204 S3000
M205 X10 Y10
G0 X121.93 Y89.46
M204 S1800
M205 X8 Y8
G1 X128.39 Y95.919 E12.17339
M204 S3000
M205 X10 Y10
G0 X127.598 Y95.919
M204 S1800
M205 X8 Y8
G1 X121.138 Y89.46 E12.38607
M204 S3000
M205 X10 Y10
G0 X120.346 Y89.46
M204 S1800
M205 X8 Y8
G1 X126.806 Y95.919 E12.59875
M204 S3000
M205 X10 Y10
G0 X126.014 Y95.919
M204 S1800
M205 X8 Y8
G1 X119.554 Y89.46 E12.81144
M204 S3000
M205 X10 Y10
G0 X118.762 Y89.46
M204 S1800
M205 X8 Y8
G1 X125.222 Y95.919 E13.02412
G1 X125.292 Y95.989
M204 S3000
M205 X10 Y10
G0 X123.567 Y95.057
M204 S1800
M205 X8 Y8
G1 X117.97 Y89.46 E13.20841
M204 S3000
M205 X10 Y10
G0 X117.178 Y89.46
M204 S1800
M205 X8 Y8
G1 X120.924 Y93.205 E13.33173
G1 X120.994 Y93.275
M204 S3000
M205 X10 Y10
G0 X119.264 Y92.337
M204 S1800
M205 X8 Y8
G1 X116.386 Y89.46 E13.42648
M204 S3000
M205 X10 Y10
G0 X115.594 Y89.46
M204 S1800
M205 X8 Y8
G1 X117.941 Y91.807 E13.50375
M204 S3000
M205 X10 Y10
G0 X117.016 Y91.674
M204 S1800
M205 X8 Y8
G1 X114.803 Y89.46 E13.57664
M204 S3000
M205 X10 Y10
G0 X114.011 Y89.46
M204 S1800
M205 X8 Y8
G1 X116.091 Y91.54 E13.64512
M204 S3000
M205 X10 Y10
G0 X115.298 Y91.539
M204 S1800
M205 X8 Y8
G1 X113.219 Y89.46 E13.71357
M204 S3000
M205 X10 Y10
G0 X112.427 Y89.46
M204 S1800
M205 X8 Y8
G1 X114.506 Y91.539 E13.78203
M204 S3000
M205 X10 Y10
G0 X113.714 Y91.539
M204 S1800
M205 X8 Y8
G1 X111.635 Y89.46 E13.85048
M204 S3000
M205 X10 Y10
G0 X110.843 Y89.46
M204 S1800
M205 X8 Y8
G1 X112.922 Y91.539 E13.91893
M204 S3000
M205 X10 Y10
G0 X112.13 Y91.539
M204 S1800
M205 X8 Y8
G1 X110.051 Y89.46 E13.98739
M204 S3000
M205 X10 Y10
G0 X109.259 Y89.46
M204 S1800
M205 X8 Y8
G1 X111.338 Y91.539 E14.05584
M204 S3000
M205 X10 Y10
G0 X110.546 Y91.539
M204 S1800
M205 X8 Y8
G1 X108.467 Y89.46 E14.12429
M204 S3000
M205 X10 Y10
G0 X107.675 Y89.46
M204 S1800
M205 X8 Y8
G1 X109.754 Y91.539 E14.19274
M204 S3000
M205 X10 Y10
G0 X108.963 Y91.539
M204 S1800
M205 X8 Y8
G1 X106.883 Y89.46 E14.26121
M204 S3000
M205 X10 Y10
G0 X106.091 Y89.46
M204 S1800
M205 X8 Y8
G1 X108.171 Y91.539 E14.32968
M204 S3000
M205 X10 Y10
G0 X107.463 Y91.624
M204 S1800
M205 X8 Y8
G1 X105.299 Y89.46 E14.40093
M204 S3000
M205 X10 Y10
G0 X104.507 Y89.46
M204 S1800
M205 X8 Y8
G1 X106.833 Y91.785 E14.4775
M204 S3000
M205 X10 Y10
G0 X106.21 Y91.954
M204 S1800
M205 X8 Y8
G1 X103.715 Y89.46 E14.55964
M204 S3000
M205 X10 Y10
G0 X102.923 Y89.46
M204 S1800
M205 X8 Y8
G1 X105.518 Y92.054 E14.64506
M204 S3000
M205 X10 Y10
G0 X104.94 Y92.268
M204 S1800
M205 X8 Y8
G1 X102.131 Y89.46 E14.73754
M204 S3000
M205 X10 Y10
G0 X101.339 Y89.46
M204 S1800
M205 X8 Y8
G1 X104.39 Y92.511 E14.83799
M204 S3000
M205 X10 Y10
G0 X103.878 Y92.791
M204 S1800
M205 X8 Y8
G1 X100.547 Y89.46 E14.94767
M204 S3000
M205 X10 Y10
G0 X99.755 Y89.46
M204 S1800
M205 X8 Y8
G1 X103.367 Y93.072 E15.0666
M204 S3000
M205 X10 Y10
G0 X102.856 Y93.352
M204 S1800
M205 X8 Y8
G1 X98.963 Y89.46 E15.19476
M204 S3000
M205 X10 Y10
G0 X98.171 Y89.46
M204 S1800
M205 X8 Y8
G1 X102.344 Y93.632 E15.33214
M204 S3000
M205 X10 Y10
G0 X101.884 Y93.964
M204 S1800
M205 X8 Y8
G1 X97.379 Y89.46 E15.48046
M204 S3000
M205 X10 Y10
G0 X96.587 Y89.46
M204 S1800
M205 X8 Y8
G1 X101.432 Y94.304 E15.63997
M204 S3000
M205 X10 Y10
G0 X100.98 Y94.644
M204 S1800
M205 X8 Y8
G1 X95.795 Y89.46 E15.81067
M204 S3000
M205 X10 Y10
G0 X95.004 Y89.46
M204 S1800
M205 X8 Y8
G1 X100.528 Y94.984 E15.99255
M204 S3000
M205 X10 Y10
G0 X100.092 Y95.34
M204 S1800
M205 X8 Y8
G1 X94.212 Y89.46 E16.18616
M204 S3000
M205 X10 Y10
G0 X93.42 Y89.46
M204 S1800
M205 X8 Y8
G1 X99.682 Y95.722 E16.39234
M204 S3000
M205 X10 Y10
G0 X99.084 Y95.916
M204 S1800
M205 X8 Y8
G1 X92.628 Y89.46 E16.60491
M204 S3000
M205 X10 Y10
G0 X91.836 Y89.46
M204 S1800
M205 X8 Y8
G1 X98.295 Y95.919 E16.81758
M204 S3000
M205 X10 Y10
G0 X97.503 Y95.919
M204 S1800
M205 X8 Y8
G1 X91.208 Y89.625 E17.02483
M204 S3000
M205 X10 Y10
G0 X91.208 Y90.417
M204 S1800
M205 X8 Y8
G1 X96.711 Y95.919 E17.206
M204 S3000
M205 X10 Y10
G0 X95.919 Y95.919
M204 S1800
M205 X8 Y8
G1 X91.208 Y91.208 E17.36112
M204 S3000
M205 X10 Y10
G0 X91.208 Y92
M204 S1800
M205 X8 Y8
G1 X95.127 Y95.919 E17.49015
M204 S3000
M205 X10 Y10
G0 X94.335 Y95.919
M204 S1800
M205 X8 Y8
G1 X91.208 Y92.792 E17.59311
M204 S3000
M205 X10 Y10
G0 X91.208 Y93.584
M204 S1800
M205 X8 Y8
G1 X93.543 Y95.919 E17.66999
M204 S3000
M205 X10 Y10
G0 X92.751 Y95.919
M204 S1800
M205 X8 Y8
G1 X91.208 Y94.376 E17.7208
M204 S3000
M205 X10 Y10
G0 X91.208 Y95.168
M204 S1800
M205 X8 Y8
G1 X91.959 Y95.919 E17.74553
M204 S3000
M205 X10 Y10
G1 F2400 E11.74553
G0 F1500 X98.885 Y97.27
G0 X98.905 Y98.794
G0 X122.511 Y119.406
G0 X123.814 Y120.243
G0 X126.189 Y120.785
M204 S1800
M205 X8 Y8
;TYPE:WALL-INNER
G1 F2400 E17.74553
G1 F1500 X132.041 Y120.784 E17.88177
G1 X132.045 Y133.514 E18.17815
G1 X132.045 Y133.794 E18.18467
G1 X131.765 Y133.794 E18.18889
G1 X127.185 Y133.787 E18.29553
G1 X124.043 Y121.14 E18.59892
G1 X123.974 Y120.861 E18.60562
G1 X124.051 Y120.786 E18.60812
G1 X124.339 Y120.785 E18.6127
G1 X125.545 Y120.78 E18.64077
G1 X126.189 Y120.785 E18.65577
M204 S3000
M205 X10 Y10
G0 X123.874 Y120.313
G0 X123.79 Y120.259
M204 S1800
M205 X8 Y8
G1 X123.803 Y120.227 E18.65657
G1 X125.547 Y120.22 E18.69718
G1 X126.191 Y120.225 E18.71217
G1 X132.601 Y120.224 E18.86141
G1 X132.605 Y134.075 E19.18389
G1 X132.605 Y134.355 E19.19041
G1 X132.325 Y134.355 E19.19463
G1 X126.753 Y134.346 E19.32436
G1 X126.648 Y133.947 E19.33396
G1 X123.363 Y120.723 E19.6512
G1 X123.435 Y120.603 E19.65446
G1 X123.79 Y120.259 E19.66597
M204 S3000
M205 X10 Y10
G0 X122.852 Y120.487
M204 S1800
M205 X8 Y8
;TYPE:WALL-OUTER
G1 X122.995 Y120.25 E19.67241
G1 X123.314 Y119.941 E19.68275
G1 X123.403 Y119.716 E19.68839
G1 X123.447 Y119.669 E19.68989
G1 X125.549 Y119.66 E19.73883
G1 X126.193 Y119.665 E19.75382
G1 X133.161 Y119.664 E19.91605
G1 X133.165 Y134.597 E20.26372
G1 X133.165 Y134.681 E20.26568
G1 X133.144 Y134.722 E20.26675
G1 X133.13 Y134.721 E20.26708
G1 X132.906 Y134.832 E20.2729
G1 X132.85 Y134.915 E20.27523
G1 X132.766 Y134.915 E20.27718
G1 X126.322 Y134.905 E20.42721
G1 X126.107 Y134.09 E20.44684
G1 X122.774 Y120.672 E20.76873
G1 X122.798 Y120.503 E20.7727
G1 X122.852 Y120.487 E20.77401
M204 S3000
M205 X10 Y10
G0 X122.955 Y120.316
G0 X122.891 Y120.553
G0 X124.659 Y121.334
M204 S1800
M205 X8 Y8
;TYPE:SKIN
G1 X125.543 Y121.33 E20.7946
G1 X126.187 Y121.335 E20.80959
G1 X131.491 Y121.334 E20.93308
G1 X131.495 Y133.244 E21.21037
G1 X127.615 Y133.237 E21.3007
G1 X124.659 Y121.334 E21.58625
M204 S3000
M205 X10 Y10
G0 X131.098 Y121.594
M204 S1800
M205 X8 Y8
G1 X131.231 Y121.727 E21.59063
M204 S3000
M205 X10 Y10
G0 X131.231 Y122.519
M204 S1800
M205 X8 Y8
G1 X130.306 Y121.594 E21.62108
M204 S3000
M205 X10 Y10
G0 X129.514 Y121.594
M204 S1800
M205 X8 Y8
G1 X131.231 Y123.311 E21.67762
M204 S3000
M205 X10 Y10
G0 X131.231 Y124.104
M204 S1800
M205 X8 Y8
G1 X128.722 Y121.594 E21.76024
M204 S3000
M205 X10 Y10
G0 X127.93 Y121.594
M204 S1800
M205 X8 Y8
G1 X131.231 Y124.896 E21.86895
M204 S3000
M205 X10 Y10
G0 X131.232 Y125.688
M204 S1800
M205 X8 Y8
G1 X127.138 Y121.594 E22.00375
M204 S3000
M205 X10 Y10
G0 X126.346 Y121.594
M204 S1800
M205 X8 Y8
G1 X131.232 Y126.48 E22.16462
M204 S3000
M205 X10 Y10
G0 X131.232 Y127.272
M204 S1800
M205 X8 Y8
G1 X125.55 Y121.59 E22.35171
M204 S3000
M205 X10 Y10
G0 X125.065 Y121.898
M204 S1800
M205 X8 Y8
G1 X131.233 Y128.065 E22.55478
M204 S3000
M205 X10 Y10
G0 X131.233 Y128.857
M204 S1800
M205 X8 Y8
G1 X125.327 Y122.951 E22.74924
M204 S3000
M205 X10 Y10
G0 X125.589 Y124.006
M204 S1800
M205 X8 Y8
G1 X131.234 Y129.65 E22.93509
M204 S3000
M205 X10 Y10
G0 X131.234 Y130.442
M204 S1800
M205 X8 Y8
G1 X125.851 Y125.059 E23.11233
M204 S3000
M205 X10 Y10
G0 X126.113 Y126.113
M204 S1800
M205 X8 Y8
G1 X131.234 Y131.234 E23.28094
M204 S3000
M205 X10 Y10
G0 X131.234 Y132.026
M204 S1800
M205 X8 Y8
G1 X126.374 Y127.166 E23.44096
M204 S3000
M205 X10 Y10
G0 X126.636 Y128.22
M204 S1800
M205 X8 Y8
G1 X131.234 Y132.818 E23.59235
M204 S3000
M205 X10 Y10
G0 X130.605 Y132.981
M204 S1800
M205 X8 Y8
G1 X126.898 Y129.273 E23.71443
M204 S3000
M205 X10 Y10
G0 X127.159 Y130.327
M204 S1800
M205 X8 Y8
G1 X129.811 Y132.979 E23.80175
M204 S3000
M205 X10 Y10
G0 X129.017 Y132.977
M204 S1800
M205 X8 Y8
G1 X127.422 Y131.381 E23.85428
M204 S3000
M205 X10 Y10
G0 X127.683 Y132.435
M204 S1800
M205 X8 Y8
G1 X128.224 Y132.976 E23.87209
M204 S3000
M205 X10 Y10
G1 F2400 E17.87209
G0 F1500 X123.847 Y122.671
G0 X122.388 Y123.034
G0 X102.633 Y121.684
G0 X101.16 Y121.3
G0 X98.597 Y128.943
M204 S1800
M205 X8 Y8
;TYPE:WALL-INNER
G1 F2400 E23.87209
G1 F1500 X97.338 Y133.777 E23.98839
G1 X92.235 Y133.792 E24.1072
G1 X91.955 Y133.792 E24.11372
G1 X91.955 Y133.512 E24.11794
G1 X91.959 Y120.788 E24.41418
G1 X99.814 Y120.78 E24.59706
G1 X100.551 Y121.482 E24.62076
G1 X98.597 Y128.943 E24.80033
M204 S3000
M205 X10 Y10
G0 X100.753 Y121.045
G0 X100.82 Y120.972
M204 S1800
M205 X8 Y8
G1 X101.179 Y121.294 E24.81155
G1 X99.139 Y129.085 E24.99906
G1 X97.771 Y134.336 E25.12539
G1 X91.675 Y134.354 E25.26732
G1 X91.395 Y134.354 E25.27384
G1 X91.395 Y134.074 E25.27806
G1 X91.399 Y120.229 E25.6004
G1 X99.76 Y120.219 E25.79506
G1 X100.043 Y120.224 E25.80165
G1 X100.82 Y120.972 E25.82676
M204 S3000
M205 X10 Y10
G0 X100.753 Y121.045
G0 X100.048 Y120.368
G0 X100.506 Y119.893
M204 S1800
M205 X8 Y8
;TYPE:WALL-OUTER
G1 X101.201 Y120.562 E25.84922
G1 X101.538 Y120.864 E25.85976
G1 X101.718 Y120.953 E25.86443
G1 X101.824 Y121.041 E25.86764
G1 X99.681 Y129.227 E26.06465
G1 X98.204 Y134.895 E26.20102
G1 X91.234 Y134.915 E26.3633
G1 X91.149 Y134.915 E26.36528
G1 X91.095 Y134.834 E26.36754
G1 X90.871 Y134.719 E26.37341
G1 X90.854 Y134.721 E26.3738
G1 X90.835 Y134.684 E26.37477
G1 X90.835 Y134.599 E26.37675
G1 X90.839 Y119.67 E26.72433
G1 X99.769 Y119.659 E26.93224
G1 X100.295 Y119.668 E26.94449
G1 X100.482 Y119.676 E26.94885
