;FLAVOR:Marlin
;TIME:20411
;Filament used: 7.71663m
;Layer height: 0.1
;MINX:31.077
;MINY:91.505
;MINZ:0.1
;MAXX:197.794
;MAXY:133.073
;MAXZ:6.5
;Generated with Cura_SteamEngine 4.2.1
M140 S60
M105
M190 S60
M104 S200
M105
M109 S200
M82 ;absolute extrusion mode
G21 ;metric values
G90 ;absolute positioning
M82 ;set extruder to absolute mode
M107 ;start with the fan off
G28 X0 Y0 ;move X/Y to min endstops
G28 Z0 ;move Z to min endstops
G1 Z15.0 F50 ;move the platform down 15mm
G92 E0 ;zero the extruded length
G1 F200 E3 ;extrude 3mm of feed stock
G92 E0 ;zero the extruded length again
G1 F50
M117 Printing...
G5
M141 S28
G92 E0
G92 E0
G1 F2400 E-6
;LAYER_COUNT:65
;LAYER:0
M106 S255
M204 S3000
M205 X10 Y10
;MESH:Tukortarto.Bottom.right.stl
G0 F1500 X195.338 Y109.765 Z0.1
M204 S1800
M205 X8 Y8
;TYPE:WALL-INNER
G1 F2400 E0
G1 F1500 X33.138 Y109.765 E3.77636
G1 X33.138 Y93.845 E4.14701
G1 X33.138 Y93.565 E4.15353
G1 X33.418 Y93.565 E4.15775
G1 X195.338 Y93.566 E7.92758
G1 X195.338 Y109.765 E8.30473
M204 S3000
M205 X10 Y10
G0 X195.898 Y110.325
M204 S1800
M205 X8 Y8
G1 X32.578 Y110.325 E12.10716
G1 X32.578 Y93.285 E12.50389
G1 X32.578 Y93.005 E12.51041
G1 X32.858 Y93.005 E12.51463
G1 X195.898 Y93.006 E16.31054
G1 X195.898 Y110.325 E16.71376
M204 S3000
M205 X10 Y10
G0 X196.458 Y110.885
M204 S1800
M205 X8 Y8
;TYPE:WALL-OUTER
G1 X32.018 Y110.885 E20.54227
G1 X32.018 Y92.725 E20.96507
G1 X32.018 Y92.445 E20.97159
G1 X32.298 Y92.445 E20.97581
G1 X196.458 Y92.446 E24.7978
G1 X196.458 Y110.885 E25.2271
M204 S3000
M205 X10 Y10
G0 X196.258 Y110.885
G0 X195.828 Y110.255
G0 X194.788 Y109.215
M204 S1800
M205 X8 Y8
;TYPE:SKIN
G1 X33.688 Y109.215 E28.97784
G1 X33.688 Y94.115 E29.3294
G1 X194.788 Y94.116 E33.08015
G1 X194.788 Y109.215 E33.43169
M204 S3000
M205 X10 Y10
G0 X194.527 Y94.74
M204 S1800
M205 X8 Y8
G1 X194.162 Y94.375 E33.4437
M204 S3000
M205 X10 Y10
G0 X193.37 Y94.375
M204 S1800
M205 X8 Y8
G1 X194.527 Y95.532 E33.4818
M204 S3000
M205 X10 Y10
G0 X194.527 Y96.324
M204 S1800
M205 X8 Y8
G1 X192.578 Y94.375 E33.54597
M204 S3000
M205 X10 Y10
G0 X191.786 Y94.375
M204 S1800
M205 X8 Y8
G1 X194.527 Y97.116 E33.63622
M204 S3000
M205 X10 Y10
G0 X194.527 Y97.908
M204 S1800
M205 X8 Y8
G1 X190.994 Y94.375 E33.75255
M204 S3000
M205 X10 Y10
G0 X190.202 Y94.375
M204 S1800
M205 X8 Y8
G1 X194.527 Y98.7 E33.89495
M204 S3000
M205 X10 Y10
G0 X194.527 Y99.492
M204 S1800
M205 X8 Y8
G1 X189.41 Y94.375 E34.06343
M204 S3000
M205 X10 Y10
G0 X188.618 Y94.375
M204 S1800
M205 X8 Y8
G1 X194.527 Y100.284 E34.25799
M204 S3000
M205 X10 Y10
G0 X194.527 Y101.075
M204 S1800
M205 X8 Y8
G1 X187.826 Y94.375 E34.47861
M204 S3000
M205 X10 Y10
G0 X187.034 Y94.375
M204 S1800
M205 X8 Y8
G1 X194.527 Y101.867 E34.72531
M204 S3000
M205 X10 Y10
G0 X194.527 Y102.659
M204 S1800
M205 X8 Y8
G1 X186.242 Y94.375 E34.99808
M204 S3000
M205 X10 Y10
G0 X185.45 Y94.375
M204 S1800
M205 X8 Y8
G1 X194.527 Y103.451 E35.29693
M204 S3000
M205 X10 Y10
G0 X194.527 Y104.243
M204 S1800
M205 X8 Y8
G1 X184.658 Y94.375 E35.62186
M204 S3000
M205 X10 Y10
G0 X183.866 Y94.375
M204 S1800
M205 X8 Y8
G1 X194.527 Y105.035 E35.97287
M204 S3000
M205 X10 Y10
G0 X194.527 Y105.827
M204 S1800
M205 X8 Y8
G1 X183.074 Y94.375 E36.34995
M204 S3000
M205 X10 Y10
G0 X182.282 Y94.375
M204 S1800
M205 X8 Y8
G1 X194.527 Y106.619 E36.75311
M204 S3000
M205 X10 Y10
G0 X194.527 Y107.411
M204 S1800
M205 X8 Y8
G1 X181.49 Y94.375 E37.18235
M204 S3000
M205 X10 Y10
G0 X180.699 Y94.375
M204 S1800
M205 X8 Y8
G1 X194.527 Y108.203 E37.63765
M204 S3000
M205 X10 Y10
G0 X194.485 Y108.953
M204 S1800
M205 X8 Y8
G1 X179.907 Y94.375 E38.11764
M204 S3000
M205 X10 Y10
G0 X179.115 Y94.375
M204 S1800
M205 X8 Y8
G1 X193.693 Y108.953 E38.59764
M204 S3000
M205 X10 Y10
G0 X192.901 Y108.953
M204 S1800
M205 X8 Y8
G1 X178.323 Y94.375 E39.07763
M204 S3000
M205 X10 Y10
G0 X177.531 Y94.375
M204 S1800
M205 X8 Y8
G1 X192.109 Y108.953 E39.55762
M204 S3000
M205 X10 Y10
G0 X191.317 Y108.953
M204 S1800
M205 X8 Y8
G1 X176.739 Y94.375 E40.03762
M204 S3000
M205 X10 Y10
G0 X175.947 Y94.375
M204 S1800
M205 X8 Y8
G1 X190.525 Y108.953 E40.51761
M204 S3000
M205 X10 Y10
G0 X189.733 Y108.953
M204 S1800
M205 X8 Y8
G1 X175.155 Y94.375 E40.9976
M204 S3000
M205 X10 Y10
G0 X174.363 Y94.375
M204 S1800
M205 X8 Y8
G1 X188.941 Y108.953 E41.47759
M204 S3000
M205 X10 Y10
G0 X188.149 Y108.953
M204 S1800
M205 X8 Y8
G1 X173.571 Y94.375 E41.95759
M204 S3000
M205 X10 Y10
G0 X172.779 Y94.375
M204 S1800
M205 X8 Y8
G1 X187.357 Y108.953 E42.43758
M204 S3000
M205 X10 Y10
G0 X186.565 Y108.953
M204 S1800
M205 X8 Y8
G1 X171.987 Y94.375 E42.91757
M204 S3000
M205 X10 Y10
G0 X171.195 Y94.375
M204 S1800
M205 X8 Y8
G1 X185.773 Y108.953 E43.39757
M204 S3000
M205 X10 Y10
G0 X184.981 Y108.953
M204 S1800
M205 X8 Y8
G1 X170.403 Y94.375 E43.87756
M204 S3000
M205 X10 Y10
G0 X169.611 Y94.375
M204 S1800
M205 X8 Y8
G1 X184.19 Y108.953 E44.35757
M204 S3000
M205 X10 Y10
G0 X183.398 Y108.953
M204 S1800
M205 X8 Y8
G1 X168.819 Y94.375 E44.83758
M204 S3000
M205 X10 Y10
G0 X168.027 Y94.375
M204 S1800
M205 X8 Y8
G1 X182.606 Y108.953 E45.31759
M204 S3000
M205 X10 Y10
G0 X181.814 Y108.953
M204 S1800
M205 X8 Y8
G1 X167.235 Y94.375 E45.7976
M204 S3000
M205 X10 Y10
G0 X166.443 Y94.375
M204 S1800
M205 X8 Y8
G1 X181.022 Y108.953 E46.27761
M204 S3000
M205 X10 Y10
G0 X180.23 Y108.953
M204 S1800
M205 X8 Y8
G1 X165.651 Y94.375 E46.75762
M204 S3000
M205 X10 Y10
G0 X164.859 Y94.375
M204 S1800
M205 X8 Y8
G1 X179.438 Y108.953 E47.23763
M204 S3000
M205 X10 Y10
G0 X178.646 Y108.953
M204 S1800
M205 X8 Y8
G1 X164.067 Y94.375 E47.71764
M204 S3000
M205 X10 Y10
G0 X163.275 Y94.375
M204 S1800
M205 X8 Y8
G1 X177.854 Y108.953 E48.19765
M204 S3000
M205 X10 Y10
G0 X177.062 Y108.953
M204 S1800
M205 X8 Y8
G1 X162.483 Y94.375 E48.67766
M204 S3000
M205 X10 Y10
G0 X161.691 Y94.375
M204 S1800
M205 X8 Y8
G1 X176.27 Y108.953 E49.15767
M204 S3000
M205 X10 Y10
G0 X175.478 Y108.953
M204 S1800
M205 X8 Y8
G1 X160.9 Y94.375 E49.63766
M204 S3000
M205 X10 Y10
G0 X160.108 Y94.375
M204 S1800
M205 X8 Y8
G1 X174.686 Y108.953 E50.11765
M204 S3000
M205 X10 Y10
G0 X173.894 Y108.953
M204 S1800
M205 X8 Y8
G1 X159.316 Y94.375 E50.59764
M204 S3000
M205 X10 Y10
G0 X158.524 Y94.375
M204 S1800
M205 X8 Y8
G1 X173.102 Y108.953 E51.07764
M204 S3000
M205 X10 Y10
G0 X172.31 Y108.953
M204 S1800
M205 X8 Y8
G1 X157.732 Y94.375 E51.55763
M204 S3000
M205 X10 Y10
G0 X156.94 Y94.375
M204 S1800
M205 X8 Y8
G1 X171.518 Y108.953 E52.03762
M204 S3000
M205 X10 Y10
G0 X170.726 Y108.953
M204 S1800
M205 X8 Y8
G1 X156.148 Y94.375 E52.51762
M204 S3000
M205 X10 Y10
G0 X155.356 Y94.375
M204 S1800
M205 X8 Y8
G1 X169.934 Y108.953 E52.99761
M204 S3000
M205 X10 Y10
G0 X169.142 Y108.953
M204 S1800
M205 X8 Y8
G1 X154.564 Y94.375 E53.4776
M204 S3000
M205 X10 Y10
G0 X153.772 Y94.375
M204 S1800
M205 X8 Y8
G1 X168.35 Y108.953 E53.9576
M204 S3000
M205 X10 Y10
G0 X167.558 Y108.953
M204 S1800
M205 X8 Y8
G1 X152.98 Y94.375 E54.43759
M204 S3000
M205 X10 Y10
G0 X152.188 Y94.375
M204 S1800
M205 X8 Y8
G1 X166.766 Y108.953 E54.91758
M204 S3000
M205 X10 Y10
G0 X165.974 Y108.953
M204 S1800
M205 X8 Y8
G1 X151.396 Y94.375 E55.39758
M204 S3000
M205 X10 Y10
G0 X150.604 Y94.375
M204 S1800
M205 X8 Y8
G1 X165.182 Y108.953 E55.87757
M204 S3000
M205 X10 Y10
G0 X164.391 Y108.953
M204 S1800
M205 X8 Y8
G1 X149.812 Y94.375 E56.35758
M204 S3000
M205 X10 Y10
G0 X149.02 Y94.375
M204 S1800
M205 X8 Y8
G1 X163.599 Y108.953 E56.83759
M204 S3000
M205 X10 Y10
G0 X162.807 Y108.953
M204 S1800
M205 X8 Y8
G1 X148.228 Y94.375 E57.3176
M204 S3000
M205 X10 Y10
G0 X147.436 Y94.375
M204 S1800
M205 X8 Y8
G1 X162.015 Y108.953 E57.79761
M204 S3000
M205 X10 Y10
G0 X161.223 Y108.953
M204 S1800
M205 X8 Y8
G1 X146.644 Y94.375 E58.27762
M204 S3000
M205 X10 Y10
G0 X145.852 Y94.375
M204 S1800
M205 X8 Y8
G1 X160.431 Y108.953 E58.75763
M204 S3000
M205 X10 Y10
G0 X159.639 Y108.953
M204 S1800
M205 X8 Y8
G1 X145.06 Y94.375 E59.23764
M204 S3000
M205 X10 Y10
G0 X144.268 Y94.375
M204 S1800
M205 X8 Y8
G1 X158.847 Y108.953 E59.71765
M204 S3000
M205 X10 Y10
G0 X158.055 Y108.953
M204 S1800
M205 X8 Y8
G1 X143.476 Y94.375 E60.19765
M204 S3000
M205 X10 Y10
G0 X142.684 Y94.375
M204 S1800
M205 X8 Y8
G1 X157.263 Y108.953 E60.67766
M204 S3000
M205 X10 Y10
G0 X156.471 Y108.953
M204 S1800
M205 X8 Y8
G1 X141.892 Y94.375 E61.15767
M204 S3000
M205 X10 Y10
G0 X141.101 Y94.375
M204 S1800
M205 X8 Y8
G1 X155.679 Y108.953 E61.63767
M204 S3000
M205 X10 Y10
G0 X154.887 Y108.953
M204 S1800
M205 X8 Y8
G1 X140.309 Y94.375 E62.11766
M204 S3000
M205 X10 Y10
G0 X139.517 Y94.375
M204 S1800
M205 X8 Y8
G1 X154.095 Y108.953 E62.59765
M204 S3000
M205 X10 Y10
G0 X153.303 Y108.953
M204 S1800
M205 X8 Y8
G1 X138.725 Y94.375 E63.07765
M204 S3000
M205 X10 Y10
G0 X137.933 Y94.375
M204 S1800
M205 X8 Y8
G1 X152.511 Y108.953 E63.55764
M204 S3000
M205 X10 Y10
G0 X151.719 Y108.953
M204 S1800
M205 X8 Y8
G1 X137.141 Y94.375 E64.03763
M204 S3000
M205 X10 Y10
G0 X136.349 Y94.375
M204 S1800
M205 X8 Y8
G1 X150.927 Y108.953 E64.51763
M204 S3000
M205 X10 Y10
G0 X150.135 Y108.953
M204 S1800
M205 X8 Y8
G1 X135.557 Y94.375 E64.99762
M204 S3000
M205 X10 Y10
G0 X134.765 Y94.375
M204 S1800
M205 X8 Y8
G1 X149.343 Y108.953 E65.47761
M204 S3000
M205 X10 Y10
G0 X148.551 Y108.953
M204 S1800
M205 X8 Y8
G1 X133.973 Y94.375 E65.9576
M204 S3000
M205 X10 Y10
G0 X133.181 Y94.375
M204 S1800
M205 X8 Y8
G1 X147.759 Y108.953 E66.4376
M204 S3000
M205 X10 Y10
G0 X146.967 Y108.953
M204 S1800
M205 X8 Y8
G1 X132.389 Y94.375 E66.91759
M204 S3000
M205 X10 Y10
G0 X131.597 Y94.375
M204 S1800
M205 X8 Y8
G1 X146.175 Y108.953 E67.39758
M204 S3000
M205 X10 Y10
G0 X145.383 Y108.953
M204 S1800
M205 X8 Y8
G1 X130.805 Y94.375 E67.87758
M204 S3000
M205 X10 Y10
G0 X130.013 Y94.375
M204 S1800
M205 X8 Y8
G1 X144.592 Y108.953 E68.35759
M204 S3000
M205 X10 Y10
G0 X143.8 Y108.953
M204 S1800
M205 X8 Y8
G1 X129.221 Y94.375 E68.8376
M204 S3000
M205 X10 Y10
G0 X128.429 Y94.375
M204 S1800
M205 X8 Y8
G1 X143.008 Y108.953 E69.31761
M204 S3000
M205 X10 Y10
G0 X142.216 Y108.953
M204 S1800
M205 X8 Y8
G1 X127.637 Y94.375 E69.79762
M204 S3000
M205 X10 Y10
G0 X126.845 Y94.375
M204 S1800
M205 X8 Y8
G1 X141.424 Y108.953 E70.27763
M204 S3000
M205 X10 Y10
G0 X140.632 Y108.953
M204 S1800
M205 X8 Y8
G1 X126.053 Y94.375 E70.75763
M204 S3000
M205 X10 Y10
G0 X125.261 Y94.375
M204 S1800
M205 X8 Y8
G1 X139.84 Y108.953 E71.23764
M204 S3000
M205 X10 Y10
G0 X139.048 Y108.953
M204 S1800
M205 X8 Y8
G1 X124.469 Y94.375 E71.71765
M204 S3000
M205 X10 Y10
G0 X123.677 Y94.375
M204 S1800
M205 X8 Y8
G1 X138.256 Y108.953 E72.19766
M204 S3000
M205 X10 Y10
G0 X137.464 Y108.953
M204 S1800
M205 X8 Y8
G1 X122.885 Y94.375 E72.67767
M204 S3000
M205 X10 Y10
G0 X122.094 Y94.375
M204 S1800
M205 X8 Y8
G1 X136.672 Y108.953 E73.15767
M204 S3000
M205 X10 Y10
G0 X135.88 Y108.953
M204 S1800
M205 X8 Y8
G1 X121.302 Y94.375 E73.63766
M204 S3000
M205 X10 Y10
G0 X120.51 Y94.375
M204 S1800
M205 X8 Y8
G1 X135.088 Y108.953 E74.11765
M204 S3000
M205 X10 Y10
G0 X134.296 Y108.953
M204 S1800
M205 X8 Y8
G1 X119.718 Y94.375 E74.59765
M204 S3000
M205 X10 Y10
G0 X118.926 Y94.375
M204 S1800
M205 X8 Y8
G1 X133.504 Y108.953 E75.07764
M204 S3000
M205 X10 Y10
G0 X132.712 Y108.953
M204 S1800
M205 X8 Y8
G1 X118.134 Y94.375 E75.55763
M204 S3000
M205 X10 Y10
G0 X117.342 Y94.375
M204 S1800
M205 X8 Y8
G1 X131.92 Y108.953 E76.03762
M204 S3000
M205 X10 Y10
G0 X131.128 Y108.953
M204 S1800
M205 X8 Y8
G1 X116.55 Y94.375 E76.51762
M204 S3000
M205 X10 Y10
G0 X115.758 Y94.375
M204 S1800
M205 X8 Y8
G1 X130.336 Y108.953 E76.99761
M204 S3000
M205 X10 Y10
G0 X129.544 Y108.953
M204 S1800
M205 X8 Y8
G1 X114.966 Y94.375 E77.4776
M204 S3000
M205 X10 Y10
G0 X114.174 Y94.375
M204 S1800
M205 X8 Y8
G1 X128.752 Y108.953 E77.9576
M204 S3000
M205 X10 Y10
G0 X127.96 Y108.953
M204 S1800
M205 X8 Y8
G1 X113.382 Y94.375 E78.43759
M204 S3000
M205 X10 Y10
G0 X112.59 Y94.375
M204 S1800
M205 X8 Y8
G1 X127.168 Y108.953 E78.91758
M204 S3000
M205 X10 Y10
G0 X126.376 Y108.953
M204 S1800
M205 X8 Y8
G1 X111.798 Y94.375 E79.39758
M204 S3000
M205 X10 Y10
G0 X111.006 Y94.375
M204 S1800
M205 X8 Y8
G1 X125.584 Y108.953 E79.87757
M204 S3000
M205 X10 Y10
G0 X124.793 Y108.953
M204 S1800
M205 X8 Y8
G1 X110.214 Y94.375 E80.35758
M204 S3000
M205 X10 Y10
G0 X109.422 Y94.375
M204 S1800
M205 X8 Y8
G1 X124.001 Y108.953 E80.83759
M204 S3000
M205 X10 Y10
G0 X123.209 Y108.953
M204 S1800
M205 X8 Y8
G1 X108.63 Y94.375 E81.3176
M204 S3000
M205 X10 Y10
G0 X107.838 Y94.375
M204 S1800
M205 X8 Y8
G1 X122.417 Y108.953 E81.79761
M204 S3000
M205 X10 Y10
G0 X121.625 Y108.953
M204 S1800
M205 X8 Y8
G1 X107.046 Y94.375 E82.27762
M204 S3000
M205 X10 Y10
G0 X106.254 Y94.375
M204 S1800
M205 X8 Y8
G1 X120.833 Y108.953 E82.75763
M204 S3000
M205 X10 Y10
G0 X120.041 Y108.953
M204 S1800
M205 X8 Y8
G1 X105.462 Y94.375 E83.23764
M204 S3000
M205 X10 Y10
G0 X104.67 Y94.375
M204 S1800
M205 X8 Y8
G1 X119.249 Y108.953 E83.71765
M204 S3000
M205 X10 Y10
G0 X118.457 Y108.953
M204 S1800
M205 X8 Y8
G1 X103.878 Y94.375 E84.19766
M204 S3000
M205 X10 Y10
G0 X103.086 Y94.375
M204 S1800
M205 X8 Y8
G1 X117.665 Y108.953 E84.67767
M204 S3000
M205 X10 Y10
G0 X116.873 Y108.953
M204 S1800
M205 X8 Y8
G1 X102.295 Y94.375 E85.15766
M204 S3000
M205 X10 Y10
G0 X101.503 Y94.375
M204 S1800
M205 X8 Y8
G1 X116.081 Y108.953 E85.63765
M204 S3000
M205 X10 Y10
G0 X115.289 Y108.953
M204 S1800
M205 X8 Y8
G1 X100.711 Y94.375 E86.11764
M204 S3000
M205 X10 Y10
G0 X99.919 Y94.375
M204 S1800
M205 X8 Y8
G1 X114.497 Y108.953 E86.59764
M204 S3000
M205 X10 Y10
G0 X113.705 Y108.953
M204 S1800
M205 X8 Y8
G1 X99.127 Y94.375 E87.07763
M204 S3000
M205 X10 Y10
G0 X98.335 Y94.375
M204 S1800
M205 X8 Y8
G1 X112.913 Y108.953 E87.55762
M204 S3000
M205 X10 Y10
G0 X112.121 Y108.953
M204 S1800
M205 X8 Y8
G1 X97.543 Y94.375 E88.03762
M204 S3000
M205 X10 Y10
G0 X96.751 Y94.375
M204 S1800
M205 X8 Y8
G1 X111.329 Y108.953 E88.51761
M204 S3000
M205 X10 Y10
G0 X110.537 Y108.953
M204 S1800
M205 X8 Y8
G1 X95.959 Y94.375 E88.9976
M204 S3000
M205 X10 Y10
G0 X95.167 Y94.375
M204 S1800
M205 X8 Y8
G1 X109.745 Y108.953 E89.4776
M204 S3000
M205 X10 Y10
G0 X108.953 Y108.953
M204 S1800
M205 X8 Y8
G1 X94.375 Y94.375 E89.95759
M204 S3000
M205 X10 Y10
G0 X93.583 Y94.375
M204 S1800
M205 X8 Y8
G1 X108.161 Y108.953 E90.43758
M204 S3000
M205 X10 Y10
G0 X107.369 Y108.953
M204 S1800
M205 X8 Y8
G1 X92.791 Y94.375 E90.91758
M204 S3000
M205 X10 Y10
G0 X91.999 Y94.375
M204 S1800
M205 X8 Y8
G1 X106.577 Y108.953 E91.39757
M204 S3000
M205 X10 Y10
G0 X105.786 Y108.953
M204 S1800
M205 X8 Y8
G1 X91.207 Y94.375 E91.87758
M204 S3000
M205 X10 Y10
G0 X90.415 Y94.375
M204 S1800
M205 X8 Y8
G1 X104.994 Y108.953 E92.35759
M204 S3000
M205 X10 Y10
G0 X104.202 Y108.953
M204 S1800
M205 X8 Y8
G1 X89.623 Y94.375 E92.8376
M204 S3000
M205 X10 Y10
G0 X88.831 Y94.375
M204 S1800
M205 X8 Y8
G1 X103.41 Y108.953 E93.31761
M204 S3000
M205 X10 Y10
G0 X102.618 Y108.953
M204 S1800
M205 X8 Y8
G1 X88.039 Y94.375 E93.79762
M204 S3000
M205 X10 Y10
G0 X87.247 Y94.375
M204 S1800
M205 X8 Y8
G1 X101.826 Y108.953 E94.27763
M204 S3000
M205 X10 Y10
G0 X101.034 Y108.953
M204 S1800
M205 X8 Y8
G1 X86.455 Y94.375 E94.75764
M204 S3000
M205 X10 Y10
G0 X85.663 Y94.375
M204 S1800
M205 X8 Y8
G1 X100.242 Y108.953 E95.23764
M204 S3000
