;FLAVOR:Marlin
;TIME:633
;Filament used: 0.0973744m
;Layer height: 0.1
;MINX:96.561
;MINY:101.618
;MINZ:0.1
;MAXX:123.436
;MAXY:118.376
;MAXZ:7
;Generated with Cura_SteamEngine master
M82 ;absolute extrusion mode
;Sliced at: Sun 26-02-2023 00:25:27
;Basic settings: Layer height: 0.1 Walls: 0.8 Fill: 100
G21 ;metric values
G90 ;absolute positioning
M82 ;set extruder to absolute mode
M107 ;start with the fan off
M117 Start heating ...
M104 S200
M117 Homing X/Y ...
G28 X0 Y0 ;move X/Y to min endstops
M117 Homing Z ...
G28 Z0 ;move Z to min endstops
G1 Z15.0 F50 ;move the platform down 15mm
M117 Heating ...
M109 S200
M117 Start cleaning ...
G92 E0 ;zero the extruded length
G1 F200 E10 ;extrude 10mm of feed stock
G92 E0 ;zero the extruded length again
M117 Intro line ...
G1 Z2.0 F3000 ; Move Z Axis up little to prevent scratching of Heat Bed
G1 X0.1 Y20 Z0.1 F5000.0 ; Move to start position
G1 X0.1 Y200.0 Z0.1 F1500.0 E15 ; Draw the first line
G1 X0.4 Y200.0 Z0.1 F5000.0 ; Move to side a little
G1 X0.4 Y20 Z0.3 F1500.0 E30 ; Draw the second line
G92 E0 ; Reset Extruder
G1 E-1 F500 ; Retract filiment by 1 mm
G1 Z2.0 F3000 ; Move Z Axis up little to prevent scratching of Heat Bed
G1 X5 Y20 Z0.3 F50 ; Move over to prevent blob squish
G1 F50
G92 E0 ; Reset Extruder
M117 Printing...

G92 E0
G92 E0
G1 F1800 E-7
;LAYER_COUNT:70
;LAYER:0
M107
G1 F300 Z0.3
G0 F1500 X99.059 Y104.026 Z0.3
;TYPE:SKIRT
G1 F300 Z0.1
G1 F1800 E0
G1 F900 X99.491 Y103.628 E0.00977
G1 X100.114 Y103.145 E0.02288
G1 X100.591 Y102.832 E0.03237
G1 X101.293 Y102.451 E0.04565
G1 X101.969 Y102.161 E0.05788
G1 X102.608 Y101.946 E0.06909
G1 X103.11 Y101.814 E0.07773
G1 X103.969 Y101.672 E0.0922
G1 X104.49 Y101.626 E0.1009
G1 X104.884 Y101.618 E0.10746
G1 X105.68 Y101.644 E0.1207
G1 X105.867 Y101.662 E0.12382
G1 X108.608 Y101.895 E0.16957
G1 X111.301 Y102.048 E0.21443
G1 X115.296 Y102.135 E0.28088
G1 X116.208 Y102.137 E0.29605
G1 X116.867 Y102.184 E0.30704
G1 X117.293 Y102.242 E0.31419
G1 X117.921 Y102.377 E0.32487
G1 X118.522 Y102.56 E0.33532
G1 X119.069 Y102.779 E0.34511
G1 X119.639 Y103.063 E0.3557
G1 X120.177 Y103.394 E0.36621
G1 X120.735 Y103.807 E0.37775
G1 X121.163 Y104.185 E0.38725
G1 X121.592 Y104.632 E0.39755
G1 X122.002 Y105.14 E0.40841
G1 X122.346 Y105.651 E0.41865
G1 X122.639 Y106.173 E0.42861
G1 X122.906 Y106.759 E0.43932
G1 X123.117 Y107.354 E0.44982
G1 X123.276 Y107.961 E0.46025
G1 X123.373 Y108.497 E0.46931
G1 X123.435 Y109.192 E0.48091
G1 X123.436 Y109.821 E0.49137
G1 X123.383 Y110.46 E0.50204
G1 X123.289 Y111.024 E0.51155
G1 X123.118 Y111.688 E0.52295
G1 X122.905 Y112.29 E0.53357
G1 X122.668 Y112.816 E0.54316
G1 X122.356 Y113.379 E0.55387
G1 X121.978 Y113.938 E0.56509
G1 X121.627 Y114.374 E0.5744
G1 X121.163 Y114.859 E0.58556
G1 X120.704 Y115.263 E0.59573
G1 X120.196 Y115.64 E0.60625
G1 X119.661 Y115.97 E0.6167
G1 X119.057 Y116.271 E0.62793
G1 X118.497 Y116.494 E0.63795
G1 X117.928 Y116.667 E0.64784
G1 X117.315 Y116.8 E0.65827
G1 X116.672 Y116.883 E0.66905
G1 X116.002 Y116.942 E0.68024
G1 X113.298 Y117.213 E0.72543
G1 X110.618 Y117.559 E0.77037
G1 X107.261 Y118.101 E0.82692
G1 X106.324 Y118.267 E0.84274
G1 X105.909 Y118.329 E0.84972
G1 X105.356 Y118.376 E0.85895
G1 X104.53 Y118.374 E0.87269
G1 X104.008 Y118.335 E0.88139
G1 X103.176 Y118.197 E0.89542
G1 X102.502 Y118.021 E0.907
G1 X101.843 Y117.79 E0.91862
G1 X101.373 Y117.588 E0.92712
G1 X100.611 Y117.18 E0.9415
G1 X100.136 Y116.872 E0.95091
G1 X99.489 Y116.37 E0.96453
G1 X99.064 Y115.981 E0.97411
G1 X98.524 Y115.396 E0.98735
G1 X98.183 Y114.966 E0.99648
G1 X97.706 Y114.236 E1.01098
G1 X97.435 Y113.736 E1.02044
G1 X97.112 Y112.999 E1.03382
G1 X96.922 Y112.452 E1.04345
G1 X96.731 Y111.699 E1.05637
G1 X96.636 Y111.161 E1.06545
G1 X96.563 Y110.3 E1.07982
G1 X96.561 Y109.708 E1.08967
G1 X96.628 Y108.912 E1.10295
G1 X96.719 Y108.35 E1.11242
G1 X96.917 Y107.572 E1.12577
G1 X97.093 Y107.048 E1.13496
G1 X97.423 Y106.287 E1.14876
G1 X97.685 Y105.796 E1.15801
G1 X98.151 Y105.082 E1.17219
G1 X98.466 Y104.672 E1.18079
G1 X99.059 Y104.026 E1.19537
G0 F1500 X99.349 Y104.301
G1 F900 X99.742 Y103.94 E1.20425
G1 X100.355 Y103.464 E1.21716
G1 X100.788 Y103.179 E1.22578
G1 X101.478 Y102.806 E1.23882
G1 X102.113 Y102.534 E1.25031
G1 X102.732 Y102.326 E1.26117
G1 X103.325 Y102.18 E1.27132
G1 X104.028 Y102.068 E1.28316
G1 X104.708 Y102.02 E1.2945
G1 X104.879 Y102.018 E1.29734
G1 X105.642 Y102.042 E1.31004
G1 X105.824 Y102.059 E1.31308
G1 X108.587 Y102.294 E1.35919
G1 X111.297 Y102.448 E1.40433
G1 X115.287 Y102.535 E1.4707
G1 X116.207 Y102.537 E1.486
G1 X116.822 Y102.582 E1.49626
G1 X117.238 Y102.638 E1.50324
G1 X117.809 Y102.76 E1.51295
G1 X118.399 Y102.941 E1.52321
G1 X118.897 Y103.139 E1.53212
G1 X119.454 Y103.418 E1.54248
G1 X119.944 Y103.719 E1.55205
G1 X120.49 Y104.123 E1.56334
G1 X120.879 Y104.467 E1.57198
G1 X121.3 Y104.905 E1.58208
G1 X121.673 Y105.367 E1.59196
G1 X122.012 Y105.87 E1.60204
G1 X122.278 Y106.344 E1.61108
G1 X122.54 Y106.919 E1.62159
G1 X122.732 Y107.461 E1.63115
G1 X122.887 Y108.056 E1.64138
G1 X122.996 Y108.714 E1.65247
G1 X123.036 Y109.221 E1.66093
G1 X123.037 Y109.793 E1.67044
G1 X122.985 Y110.42 E1.6809
G1 X122.9 Y110.933 E1.68955
G1 X122.733 Y111.582 E1.70069
G1 X122.539 Y112.129 E1.71035
G1 X122.305 Y112.648 E1.71981
G1 X122.021 Y113.16 E1.72955
G1 X121.651 Y113.707 E1.74053
G1 X121.332 Y114.104 E1.749
G1 X120.879 Y114.578 E1.75991
G1 X120.462 Y114.944 E1.76913
G1 X119.962 Y115.315 E1.77949
G1 X119.476 Y115.615 E1.78898
G1 X118.884 Y115.911 E1.79999
G1 X118.375 Y116.113 E1.8091
G1 X117.816 Y116.283 E1.81882
G1 X117.258 Y116.404 E1.82831
G1 X116.627 Y116.485 E1.83889
G1 X115.995 Y116.541 E1.84944
G1 X113.244 Y116.816 E1.89542
G1 X110.564 Y117.162 E1.94036
G1 X107.183 Y117.708 E1.99731
G1 X106.265 Y117.871 E2.01282
G1 X105.85 Y117.933 E2.0198
G1 X105.347 Y117.976 E2.02819
G1 X104.536 Y117.974 E2.04168
G1 X103.87 Y117.912 E2.0528
G1 X103.248 Y117.803 E2.0633
G1 X102.629 Y117.642 E2.07394
G1 X101.979 Y117.414 E2.08539
G1 X101.348 Y117.129 E2.09691
G1 X100.806 Y116.83 E2.1072
G1 X100.374 Y116.551 E2.11576
G1 X99.739 Y116.057 E2.12913
G1 X99.353 Y115.705 E2.13782
G1 X98.821 Y115.129 E2.15086
G1 X98.371 Y114.535 E2.16325
G1 X98.044 Y114.023 E2.17336
G1 X97.798 Y113.568 E2.18196
G1 X97.48 Y112.843 E2.19512
G1 X97.308 Y112.346 E2.20387
G1 X97.12 Y111.605 E2.21658
G1 X97.008 Y110.884 E2.22872
G1 X96.962 Y110.272 E2.23892
G1 X96.96 Y109.734 E2.24787
G1 X97.026 Y108.95 E2.26096
G1 X97.109 Y108.44 E2.26955
G1 X97.303 Y107.676 E2.28266
G1 X97.463 Y107.199 E2.29102
G1 X97.788 Y106.453 E2.30456
G1 X98.026 Y106.006 E2.31298
G1 X98.482 Y105.307 E2.32686
G1 X98.915 Y104.764 E2.33841
G1 X99.349 Y104.301 E2.34896
G0 F1500 X99.639 Y104.577
G1 F900 X100.191 Y104.091 E2.36119
G1 X100.596 Y103.784 E2.36964
G1 X101.22 Y103.394 E2.38188
G1 X101.663 Y103.161 E2.3902
G1 X102.258 Y102.907 E2.40096
G1 X102.856 Y102.707 E2.41145
G1 X103.394 Y102.574 E2.42067
G1 X104.087 Y102.463 E2.43234
G1 X104.719 Y102.42 E2.44287
G1 X104.873 Y102.418 E2.44543
G1 X105.605 Y102.44 E2.45761
G1 X105.826 Y102.461 E2.4613
G1 X108.564 Y102.694 E2.507
G1 X111.267 Y102.847 E2.55202
G1 X115.277 Y102.935 E2.61873
G1 X116.207 Y102.937 E2.63419
G1 X116.778 Y102.979 E2.64371
G1 X117.183 Y103.034 E2.65051
G1 X117.696 Y103.144 E2.65924
G1 X118.276 Y103.322 E2.66933
G1 X118.931 Y103.599 E2.68115
G1 X119.27 Y103.773 E2.68749
G1 X119.711 Y104.044 E2.6961
G1 X120.245 Y104.44 E2.70715
G1 X120.741 Y104.896 E2.71836
G1 X121.008 Y105.179 E2.72483
G1 X121.344 Y105.594 E2.73371
G1 X121.677 Y106.088 E2.74362
G1 X122.019 Y106.731 E2.75573
G1 X122.173 Y107.08 E2.76207
G1 X122.346 Y107.567 E2.77067
G1 X122.499 Y108.152 E2.78072
G1 X122.598 Y108.76 E2.79097
G1 X122.638 Y109.25 E2.79914
G1 X122.638 Y109.765 E2.80771
G1 X122.587 Y110.38 E2.81797
G1 X122.463 Y111.043 E2.82919
G1 X122.347 Y111.476 E2.83664
G1 X122.172 Y111.968 E2.84532
G1 X121.942 Y112.48 E2.85466
G1 X121.686 Y112.941 E2.86343
G1 X121.324 Y113.477 E2.87418
G1 X120.898 Y113.986 E2.88522
G1 X120.595 Y114.296 E2.89243
G1 X120.219 Y114.626 E2.90075
G1 X119.728 Y114.991 E2.91092
G1 X119.291 Y115.261 E2.91947
G1 X118.711 Y115.55 E2.93024
G1 X118.072 Y115.79 E2.9416
G1 X117.703 Y115.899 E2.94799
G1 X117.201 Y116.009 E2.95654
G1 X116.581 Y116.088 E2.96693
G1 X115.92 Y116.146 E2.97797
G1 X113.189 Y116.42 E3.02361
G1 X110.515 Y116.765 E3.06845
G1 X107.162 Y117.306 E3.12493
G1 X106.308 Y117.459 E3.13936
G1 X105.791 Y117.537 E3.14806
G1 X105.111 Y117.581 E3.15939
G1 X104.543 Y117.575 E3.16883
G1 X103.924 Y117.516 E3.17918
G1 X103.32 Y117.41 E3.18937
G1 X102.756 Y117.263 E3.19907
G1 X102.116 Y117.038 E3.21035
G1 X101.527 Y116.771 E3.2211
G1 X101.002 Y116.481 E3.23108
G1 X100.395 Y116.068 E3.24329
G1 X99.989 Y115.745 E3.25191
G1 X99.455 Y115.233 E3.26422
G1 X99.119 Y114.862 E3.27254
G1 X98.699 Y114.307 E3.28412
G1 X98.383 Y113.811 E3.2939
G1 X98.05 Y113.16 E3.30606
G1 X97.849 Y112.688 E3.31459
G1 X97.63 Y112.008 E3.32647
G1 X97.509 Y111.512 E3.33496
G1 X97.405 Y110.84 E3.34627
G1 X97.361 Y110.244 E3.35621
G1 X97.378 Y109.484 E3.36885
G1 X97.499 Y108.53 E3.38484
G1 X97.689 Y107.779 E3.39772
G1 X97.936 Y107.1 E3.40974
G1 X98.152 Y106.618 E3.41852
G1 X98.5 Y106 E3.43032
G1 X98.813 Y105.531 E3.43969
G1 X99.218 Y105.025 E3.45047
G1 X99.639 Y104.577 E3.4607
G0 F1500 X99.929 Y104.852
G1 F900 X100.442 Y104.403 E3.47203
G1 X101.184 Y103.875 E3.48718
G1 X101.848 Y103.515 E3.49974
G1 X102.402 Y103.28 E3.50975
G1 X102.979 Y103.087 E3.51986
G1 X103.679 Y102.93 E3.53179
G1 X104.525 Y102.825 E3.54597
G1 X104.868 Y102.818 E3.55168
G1 X105.567 Y102.838 E3.56331
G1 X105.788 Y102.86 E3.567
G1 X108.508 Y103.091 E3.6124
G1 X111.264 Y103.247 E3.6583
G1 X115.267 Y103.335 E3.72489
G1 X116.206 Y103.337 E3.7405
G1 X116.733 Y103.377 E3.74929
G1 X117.584 Y103.528 E3.76367
G1 X118.153 Y103.703 E3.77357
G1 X118.759 Y103.96 E3.78451
G1 X119.477 Y104.369 E3.79825
G1 X120 Y104.756 E3.80907
G1 X120.457 Y105.178 E3.81942
G1 X121.015 Y105.822 E3.83359
G1 X121.342 Y106.307 E3.84332
G1 X121.657 Y106.902 E3.85451
G1 X121.961 Y107.674 E3.86831
G1 X122.111 Y108.247 E3.87816
G1 X122.201 Y108.807 E3.88759
G1 X122.239 Y109.737 E3.90307
G1 X122.189 Y110.34 E3.91313
G1 X122.074 Y110.952 E3.92349
G1 X121.806 Y111.807 E3.93839
G1 X121.579 Y112.312 E3.9476
G1 X121.183 Y112.979 E3.9605
G1 X120.741 Y113.565 E3.97271
G1 X120.311 Y114.015 E3.98306
G1 X119.75 Y114.481 E3.99518
G1 X119.106 Y114.906 E4.00802
G1 X118.538 Y115.189 E4.01857
G1 X117.95 Y115.409 E4.02901
G1 X117.144 Y115.613 E4.04284
G1 X116.536 Y115.691 E4.05303
G1 X115.913 Y115.745 E4.06343
G1 X113.169 Y116.02 E4.10929
G1 X110.43 Y116.373 E4.15522
G1 X107.094 Y116.912 E4.21142
G1 X106.147 Y117.08 E4.22741
G1 X105.329 Y117.176 E4.24111
G1 X104.549 Y117.175 E4.25408
G1 X103.978 Y117.12 E4.26362
G1 X103.392 Y117.016 E4.27352
G1 X102.883 Y116.883 E4.28226
G1 X102.252 Y116.662 E4.29338
G1 X101.706 Y116.413 E4.30336
G1 X101.197 Y116.132 E4.31303
G1 X100.633 Y115.746 E4.3244
G1 X100.239 Y115.433 E4.33276
G1 X99.743 Y114.956 E4.34421
G1 X99.169 Y114.282 E4.35893
G1 X98.722 Y113.598 E4.37252
G1 X98.413 Y112.993 E4.38382
G1 X98.217 Y112.532 E4.39215
G1 X98.015 Y111.902 E4.40315
G1 X97.829 Y111.027 E4.41803
G1 X97.76 Y110.216 E4.43156
G1 X97.777 Y109.51 E4.44331
G1 X97.889 Y108.619 E4.45824
G1 X98.076 Y107.883 E4.47087
G1 X98.306 Y107.251 E4.48205
G1 X98.516 Y106.784 E4.49057
G1 X98.84 Y106.21 E4.50153
G1 X99.145 Y105.755 E4.51064
G1 X99.52 Y105.287 E4.52061
G1 X99.929 Y104.852 E4.53054
G1 F1800 E-2.46946
G1 F300 Z0.3
;MESH:planisphere.stl
G0 F1500 X105.223 Y113.386 Z0.3
;TYPE:WALL-INNER
G1 F300 Z0.1
G1 F1800 E4.53054
G1 F900 X104.662 Y113.386 E4.53987
G1 X104.105 Y113.294 E4.54926
G1 X103.58 Y113.113 E4.5585
G1 X103.088 Y112.847 E4.5678
G1 X102.639 Y112.498 E4.57725
G1 X102.262 Y112.088 E4.58652
G1 X101.952 Y111.614 E4.59594
G1 X101.729 Y111.108 E4.60513
G1 X101.59 Y110.558 E4.61457
G1 X101.544 Y110 E4.62388
G1 X101.59 Y109.442 E4.63319
G1 X101.729 Y108.892 E4.64262
G1 X101.952 Y108.386 E4.65182
G1 X102.262 Y107.912 E4.66124
G1 X102.639 Y107.502 E4.6705
G1 X103.088 Y107.153 E4.67996
G1 X103.58 Y106.887 E4.68926
G1 X104.105 Y106.706 E4.69849
G1 X104.662 Y106.614 E4.70788
G1 X105.223 Y106.614 E4.71721
G1 X105.779 Y106.706 E4.72658
G1 X106.305 Y106.887 E4.73583
G1 X106.797 Y107.153 E4.74513
G1 X107.25 Y107.505 E4.75468
G1 X107.626 Y107.914 E4.76391
G1 X107.93 Y108.38 E4.77317
G1 X108.156 Y108.893 E4.78249
G1 X108.295 Y109.443 E4.79192
G1 X108.34 Y110 E4.80122
G1 X108.295 Y110.557 E4.81051
G1 X108.156 Y111.107 E4.81994
G1 X107.93 Y111.62 E4.82927
G1 X107.626 Y112.086 E4.83852
G1 X107.25 Y112.495 E4.84776
G1 X106.797 Y112.847 E4.8573
G1 X106.305 Y113.113 E4.8666
G1 X105.779 Y113.294 E4.87585
G1 X105.223 Y113.386 E4.88522
G0 F1500 X105.258 Y113.786
;TYPE:WALL-OUTER
G1 F900 X104.627 Y113.786 E4.89572
G1 X104.01 Y113.684 E4.90612
G1 X103.417 Y113.48 E4.91655
G1 X102.866 Y113.182 E4.92696
G1 X102.366 Y112.793 E4.9375
G1 X101.946 Y112.336 E4.94782
G1 X101.6 Y111.807 E4.95833
G1 X101.349 Y111.236 E4.9687
G1 X101.194 Y110.623 E4.97922
G1 X101.142 Y110 E4.98962
G1 X101.194 Y109.377 E5.00001
G1 X101.349 Y108.764 E5.01053
G1 X101.6 Y108.193 E5.0209
G1 X101.946 Y107.664 E5.03141
G1 X102.366 Y107.207 E5.04173
G1 X102.866 Y106.818 E5.05227
G1 X103.417 Y106.52 E5.06269
G1 X104.01 Y106.316 E5.07312
G1 X104.627 Y106.214 E5.08352
G1 X105.258 Y106.214 E5.09401
G1 X105.874 Y106.316 E5.10439
G1 X106.468 Y106.52 E5.11484
G1 X107.019 Y106.818 E5.12526
G1 X107.519 Y107.207 E5.13579
G1 X107.942 Y107.667 E5.14618
G1 X108.283 Y108.19 E5.15657
G1 X108.536 Y108.764 E5.167
G1 X108.691 Y109.378 E5.17753
G1 X108.742 Y110 E5.18791
G1 X108.691 Y110.622 E5.19829
G1 X108.536 Y111.236 E5.20882
G1 X108.283 Y111.81 E5.21925
G1 X107.942 Y112.333 E5.22963
G1 X107.519 Y112.793 E5.24002
G1 X107.019 Y113.182 E5.25056
G1 X106.468 Y113.48 E5.26098
G1 X105.874 Y113.684 E5.27142
G1 X105.258 Y113.786 E5.28181
G0 F1500 X105.058 Y113.786
G0 X105.058 Y113.346
G0 X105.195 Y112.996
;TYPE:SKIN
G1 F900 X104.69 Y112.996 E5.2902
G1 X104.206 Y112.916 E5.29836
G1 X103.734 Y112.754 E5.30666
G1 X103.306 Y112.522 E5.31476
G1 X102.902 Y112.208 E5.32327
G1 X102.568 Y111.845 E5.33147
G1 X102.297 Y111.431 E5.3397
G1 X102.099 Y110.98 E5.34789
G1 X101.975 Y110.489 E5.35631
G1 X101.934 Y110 E5.36447
G1 X101.975 Y109.511 E5.37263
G1 X102.099 Y109.02 E5.38105
G1 X102.297 Y108.569 E5.38924
G1 X102.568 Y108.155 E5.39747
G1 X102.902 Y107.792 E5.40568
G1 X103.306 Y107.478 E5.41419
G1 X103.734 Y107.246 E5.42228
G1 X104.206 Y107.084 E5.43058
G1 X104.69 Y107.004 E5.43874
G1 X105.195 Y107.004 E5.44714
G1 X105.678 Y107.084 E5.45528
G1 X106.151 Y107.246 E5.46359
G1 X106.579 Y107.478 E5.47169
G1 X106.987 Y107.795 E5.48028
G1 X107.316 Y108.153 E5.48837
G1 X107.587 Y108.567 E5.4966
G1 X107.786 Y109.02 E5.50482
G1 X107.91 Y109.511 E5.51325
G1 X107.95 Y110 E5.52141
G1 X107.91 Y110.489 E5.52956
G1 X107.786 Y110.98 E5.53799
G1 X107.587 Y111.433 E5.54621
G1 X107.316 Y111.847 E5.55444
G1 X106.987 Y112.205 E5.56253
G1 X106.579 Y112.522 E5.57112
G1 X106.151 Y112.754 E5.57922
G1 X105.678 Y112.916 E5.58753
G1 X105.195 Y112.996 E5.59567
G0 F1500 X104.255 Y112.741
G1 F900 X102.212 Y110.698 E5.64372
G0 F1500 X102.116 Y110.036
G1 F900 X104.895 Y112.815 E5.70908
G0 F1500 X105.421 Y112.775
G1 F900 X102.158 Y109.512 E5.78582
G0 F1500 X102.275 Y109.063
G1 F900 X105.87 Y112.658 E5.87037
G0 F1500 X106.264 Y112.486
G1 F900 X102.448 Y108.67 E5.96012
G0 F1500 X102.669 Y108.326
G1 F900 X106.611 Y112.268 E6.05283
G0 F1500 X106.92 Y112.012
G1 F900 X102.931 Y108.022 E6.14665
G0 F1500 X103.234 Y107.76
G1 F900 X107.188 Y111.713 E6.23963
G0 F1500 X107.412 Y111.372
G1 F900 X103.576 Y107.536 E6.32985
G0 F1500 X103.963 Y107.357
G1 F900 X107.589 Y110.983 E6.41513
G0 F1500 X107.711 Y110.539
G1 F900 X104.405 Y107.233 E6.49288
G0 F1500 X104.92 Y107.183
G1 F900 X107.768 Y110.03 E6.55985
G0 F1500 X107.695 Y109.392
G1 F900 X105.547 Y107.244 E6.61037
G1 X105.477 Y107.174
G0 F1500 X105.543 Y106.78
G0 X106.836 Y107.324
G0 X106.554 Y107.685
G1 F900 X107.252 Y108.383 E6.62678
G1 X107.322 Y108.453
G0 F1500 X107.615 Y108.263
