;FLAVOR:Marlin
;TIME:1084
;Filament used: 0.685323m
;Layer height: 0.2
;MINX:86
;MINY:86
;MINZ:0.2
;MAXX:134
;MAXY:134
;MAXZ:1
;Generated with Cura_SteamEngine master
M82 ;absolute extrusion mode
;Sliced at: Sun 30-04-2023 12:48:04
;Basic settings: Layer height: 0.2 Walls: 0.8 Fill: 20
G21 ;metric values
G90 ;absolute positioning
M82 ;set extruder to absolute mode
M107 ;start with the fan off
M117 Start heating ...
M104 S200
M117 Homing X/Y ...
G28 X0 Y0 ;move X/Y to min endstops
M117 Homing Z ...
G28 Z0 ;move Z to min endstops
G1 Z15.0 F100 ;move the platform down 15mm
M117 Heating ...
M109 S200
M117 Start cleaning ...
G92 E0 ;zero the extruded length
G1 F200 E10 ;extrude 10mm of feed stock
G92 E0 ;zero the extruded length again
M117 Intro line ...
G1 Z2.0 F3000 ; Move Z Axis up little to prevent scratching of Heat Bed
G1 X0.1 Y20 Z0.2 F5000.0 ; Move to start position
G1 X0.1 Y200.0 Z0.2 F1500.0 E15 ; Draw the first line
G1 X0.4 Y200.0 Z0.2 F5000.0 ; Move to side a little
G1 X0.4 Y20 Z0.3 F1500.0 E30 ; Draw the second line
G92 E0 ; Reset Extruder
G1 E-1 F500 ; Retract filiment by 1 mm
G1 Z2.0 F3000 ; Move Z Axis up little to prevent scratching of Heat Bed
G1 X5 Y20 Z0.3 F100 ; Move over to prevent blob squish
G1 F100
G92 E0 ; Reset Extruder
M117 Printing...

G92 E0
G92 E0
G1 F1800 E-7
;LAYER_COUNT:5
;LAYER:0
M107
G1 F300 Z0.4
G0 F3000 X87.004 Y87.369 Z0.4
;TYPE:SKIRT
G1 F300 Z0.2
G1 F1800 E0
G1 F1200 X87.406 Y86.972 E0.01879
G1 X87.86 Y86.635 E0.0376
G1 X88.357 Y86.366 E0.05639
G1 X88.887 Y86.169 E0.0752
G1 X89.44 Y86.05 E0.09401
G1 X90.218 Y86.002 E0.11994
G1 X90.33 Y86 E0.12366
G1 X129.35 Y86 E1.42148
G1 X130.048 Y86.01 E1.44469
G1 X130.612 Y86.058 E1.46352
G1 X131.162 Y86.185 E1.48229
G1 X131.69 Y86.389 E1.50112
G1 X132.184 Y86.664 E1.51993
G1 X132.633 Y87.007 E1.53872
G1 X133.03 Y87.409 E1.55751
G1 X133.367 Y87.864 E1.57634
G1 X133.635 Y88.361 E1.59512
G1 X133.831 Y88.891 E1.61392
G1 X133.951 Y89.444 E1.63274
G1 X133.998 Y90.218 E1.65853
G1 X134 Y90.33 E1.66225
G1 X134 Y129.314 E2.95887
G1 X133.991 Y130.041 E2.98305
G1 X133.944 Y130.604 E3.00184
G1 X133.818 Y131.155 E3.02064
G1 X133.616 Y131.683 E3.03944
G1 X133.341 Y132.177 E3.05825
G1 X132.999 Y132.627 E3.07705
G1 X132.597 Y133.025 E3.09586
G1 X132.144 Y133.362 E3.11464
G1 X131.647 Y133.632 E3.13345
G1 X131.117 Y133.829 E3.15226
G1 X130.565 Y133.95 E3.17105
G1 X129.782 Y133.998 E3.19715
G1 X129.67 Y134 E3.20087
G1 X90.655 Y134 E4.49852
G1 X89.957 Y133.991 E4.52173
G1 X89.394 Y133.943 E4.54053
G1 X88.843 Y133.817 E4.55933
G1 X88.315 Y133.615 E4.57813
G1 X87.821 Y133.34 E4.59693
G1 X87.371 Y132.998 E4.61573
G1 X86.973 Y132.596 E4.63455
G1 X86.637 Y132.142 E4.65333
G1 X86.367 Y131.645 E4.67214
G1 X86.17 Y131.115 E4.69095
G1 X86.05 Y130.563 E4.70974
G1 X86.001 Y129.766 E4.7363
G1 X86 Y90.62 E6.0383
G1 X86.009 Y89.955 E6.06042
G1 X86.057 Y89.392 E6.07921
G1 X86.183 Y88.841 E6.09801
G1 X86.386 Y88.313 E6.11683
G1 X86.662 Y87.819 E6.13565
G1 X87.004 Y87.369 E6.15445
G0 F3000 X87.397 Y87.531
G1 F1200 X87.794 Y87.171 E6.17227
G1 X88.241 Y86.873 E6.19014
G1 X88.726 Y86.645 E6.20796
G1 X89.24 Y86.492 E6.2258
G1 X89.908 Y86.41 E6.24819
G1 X90.33 Y86.4 E6.26223
G1 X129.345 Y86.4 E7.55987
G1 X130.043 Y86.41 E7.58309
G1 X130.577 Y86.458 E7.60092
G1 X131.098 Y86.584 E7.61875
G1 X131.595 Y86.787 E7.6366
G1 X132.056 Y87.061 E7.65444
G1 X132.471 Y87.4 E7.67226
G1 X132.831 Y87.798 E7.69011
G1 X133.128 Y88.244 E7.70794
G1 X133.356 Y88.73 E7.72579
G1 X133.508 Y89.244 E7.74362
G1 X133.59 Y89.909 E7.7659
G1 X133.6 Y90.33 E7.77991
G1 X133.6 Y129.309 E9.07636
G1 X133.591 Y130.036 E9.10054
G1 X133.544 Y130.57 E9.11837
G1 X133.419 Y131.091 E9.13619
G1 X133.217 Y131.588 E9.15403
G1 X132.944 Y132.05 E9.17188
G1 X132.606 Y132.466 E9.18971
G1 X132.209 Y132.827 E9.20755
G1 X131.763 Y133.125 E9.2254
G1 X131.278 Y133.353 E9.24322
G1 X130.764 Y133.507 E9.26107
G1 X130.092 Y133.59 E9.28359
G1 X129.67 Y133.6 E9.29763
G1 X90.661 Y133.6 E10.59507
G1 X89.963 Y133.591 E10.61829
G1 X89.428 Y133.544 E10.63615
G1 X88.907 Y133.418 E10.65398
G1 X88.41 Y133.216 E10.67182
G1 X87.949 Y132.943 E10.68964
G1 X87.533 Y132.604 E10.70749
G1 X87.172 Y132.208 E10.72531
G1 X86.874 Y131.762 E10.74315
G1 X86.646 Y131.276 E10.76101
G1 X86.493 Y130.762 E10.77885
G1 X86.41 Y130.088 E10.80143
G1 X86.4 Y129.658 E10.81574
G1 X86.4 Y90.625 E12.11398
G1 X86.409 Y89.96 E12.1361
G1 X86.457 Y89.426 E12.15393
G1 X86.583 Y88.905 E12.17176
G1 X86.785 Y88.408 E12.18961
G1 X87.058 Y87.947 E12.20743
G1 X87.397 Y87.531 E12.22527
G0 F3000 X87.454 Y88.082
G1 F1200 X87.789 Y87.704 E12.24207
G1 X88.18 Y87.383 E12.2589
G1 X88.617 Y87.128 E12.27573
G1 X89.088 Y86.944 E12.29255
G1 X89.582 Y86.838 E12.30935
G1 X90.24 Y86.801 E12.33127
G1 X129.339 Y86.8 E13.63171
G1 X130.037 Y86.81 E13.65493
G1 X130.54 Y86.857 E13.67173
G1 X131.03 Y86.983 E13.68856
G1 X131.494 Y87.185 E13.70539
G1 X131.92 Y87.457 E13.7222
G1 X132.298 Y87.792 E13.739
G1 X132.618 Y88.183 E13.7558
G1 X132.873 Y88.62 E13.77263
G1 X133.056 Y89.091 E13.78944
G1 X133.163 Y89.585 E13.80625
G1 X133.199 Y90.24 E13.82807
G1 X133.2 Y129.304 E15.12734
G1 X133.191 Y130.031 E15.15152
G1 X133.145 Y130.534 E15.16832
G1 X133.02 Y131.024 E15.18514
G1 X132.819 Y131.488 E15.20196
G1 X132.548 Y131.915 E15.21878
G1 X132.213 Y132.294 E15.23561
G1 X131.823 Y132.615 E15.25241
G1 X131.387 Y132.871 E15.26922
G1 X130.916 Y133.054 E15.28603
G1 X130.422 Y133.162 E15.30285
G1 X129.76 Y133.199 E15.3249
G1 X90.666 Y133.2 E16.62517
G1 X89.968 Y133.191 E16.64839
G1 X89.464 Y133.144 E16.66522
G1 X88.974 Y133.019 E16.68204
G1 X88.51 Y132.818 E16.69886
G1 X88.084 Y132.547 E16.71566
G1 X87.705 Y132.212 E16.73248
G1 X87.384 Y131.821 E16.74931
G1 X87.129 Y131.385 E16.76611
G1 X86.945 Y130.914 E16.78292
G1 X86.838 Y130.42 E16.79974
G1 X86.801 Y129.744 E16.82225
G1 X86.8 Y90.631 E18.12316
G1 X86.809 Y89.966 E18.14528
G1 X86.856 Y89.462 E18.16211
G1 X86.982 Y88.973 E18.17891
G1 X87.183 Y88.509 E18.19573
G1 X87.454 Y88.082 E18.21255
G1 F1800 E11.21255
G1 F300 Z0.4
;MESH:Cap.40X40.3mf
G0 F3000 X129.4 Y129.4 Z0.4
;TYPE:WALL-INNER
G1 F300 Z0.2
G1 F1800 E18.21255
G1 F1200 X90.6 Y129.4 E19.50304
G1 X90.6 Y90.6 E20.79353
G1 X129.4 Y90.6 E22.08403
G1 X129.4 Y129.4 E23.37452
G0 F3000 X129.8 Y129.8
;TYPE:WALL-OUTER
G1 F1200 X90.2 Y129.8 E24.69162
G1 X90.2 Y90.2 E26.00872
G1 X129.8 Y90.2 E27.32582
G1 X129.8 Y129.8 E28.64293
G0 F3000 X129.6 Y129.8
G0 X129.36 Y129.36
G0 X129.01 Y129.01
;TYPE:SKIN
G1 F1200 X90.99 Y129.01 E29.90748
G1 X90.99 Y90.99 E31.17203
G1 X129.01 Y90.99 E32.43658
G1 X129.01 Y129.01 E33.70113
G1 F1800 E26.70113
G0 F3000 X129.29 Y129.01
G0 X129.29 Y91.494
G1 F1800 E33.70113
G0 F3000 X128.829 Y91.494
G1 F1200 X128.505 Y91.17 E33.71637
G0 F3000 X127.939 Y91.17
G1 F1200 X128.829 Y92.06 E33.75823
G0 F3000 X128.829 Y92.626
G1 F1200 X127.373 Y91.17 E33.82672
G0 F3000 X126.808 Y91.17
G1 F1200 X128.829 Y93.191 E33.92178
G0 F3000 X128.829 Y93.757
G1 F1200 X126.242 Y91.17 E34.04346
G0 F3000 X125.676 Y91.17
G1 F1200 X128.829 Y94.323 E34.19177
G0 F3000 X128.829 Y94.888
G1 F1200 X125.111 Y91.17 E34.36665
G0 F3000 X124.545 Y91.17
G1 F1200 X128.829 Y95.454 E34.56816
G0 F3000 X128.829 Y96.02
G1 F1200 X123.979 Y91.17 E34.79629
G0 F3000 X123.414 Y91.17
G1 F1200 X128.829 Y96.585 E35.05099
G0 F3000 X128.829 Y97.151
G1 F1200 X122.848 Y91.17 E35.33232
G0 F3000 X122.282 Y91.17
G1 F1200 X128.829 Y97.717 E35.64027
G0 F3000 X128.829 Y98.282
G1 F1200 X121.717 Y91.17 E35.9748
G0 F3000 X121.151 Y91.17
G1 F1200 X128.829 Y98.848 E36.33595
G0 F3000 X128.829 Y99.414
G1 F1200 X120.585 Y91.17 E36.72372
G0 F3000 X120.02 Y91.17
G1 F1200 X128.829 Y99.979 E37.13807
G0 F3000 X128.829 Y100.545
G1 F1200 X119.454 Y91.17 E37.57904
G0 F3000 X118.888 Y91.17
G1 F1200 X128.829 Y101.111 E38.04663
G0 F3000 X128.829 Y101.677
G1 F1200 X118.323 Y91.17 E38.54083
G0 F3000 X117.757 Y91.17
G1 F1200 X128.829 Y102.242 E39.06162
G0 F3000 X128.829 Y102.808
G1 F1200 X117.191 Y91.17 E39.60904
G0 F3000 X116.625 Y91.17
G1 F1200 X128.829 Y103.374 E40.18307
G0 F3000 X128.829 Y103.939
G1 F1200 X116.06 Y91.17 E40.78369
G0 F3000 X115.494 Y91.17
G1 F1200 X128.829 Y104.505 E41.41093
G0 F3000 X128.829 Y105.071
G1 F1200 X114.928 Y91.17 E42.06479
G0 F3000 X114.363 Y91.17
G1 F1200 X128.829 Y105.636 E42.74522
G0 F3000 X128.829 Y106.202
G1 F1200 X113.797 Y91.17 E43.45228
G0 F3000 X113.231 Y91.17
G1 F1200 X128.829 Y106.768 E44.18596
G0 F3000 X128.829 Y107.333
G1 F1200 X112.666 Y91.17 E44.94622
G0 F3000 X112.1 Y91.17
G1 F1200 X128.829 Y107.899 E45.7331
G0 F3000 X128.829 Y108.465
G1 F1200 X111.534 Y91.17 E46.54661
G0 F3000 X110.969 Y91.17
G1 F1200 X128.829 Y109.03 E47.38669
G0 F3000 X128.829 Y109.596
G1 F1200 X110.403 Y91.17 E48.25339
G0 F3000 X109.837 Y91.17
G1 F1200 X128.829 Y110.162 E49.14672
G0 F3000 X128.829 Y110.727
G1 F1200 X109.272 Y91.17 E50.06662
G0 F3000 X108.706 Y91.17
G1 F1200 X128.829 Y111.293 E51.01314
G0 F3000 X128.829 Y111.859
G1 F1200 X108.14 Y91.17 E51.98629
G0 F3000 X107.574 Y91.17
G1 F1200 X128.829 Y112.425 E52.98606
G0 F3000 X128.829 Y112.99
G1 F1200 X107.009 Y91.17 E54.0124
G0 F3000 X106.443 Y91.17
G1 F1200 X128.829 Y113.556 E55.06537
G0 F3000 X128.829 Y114.122
G1 F1200 X105.877 Y91.17 E56.14496
G0 F3000 X105.312 Y91.17
G1 F1200 X128.829 Y114.687 E57.25113
G0 F3000 X128.829 Y115.253
G1 F1200 X104.746 Y91.17 E58.38392
G0 F3000 X104.18 Y91.17
G1 F1200 X128.829 Y115.819 E59.54334
G0 F3000 X128.829 Y116.384
G1 F1200 X103.615 Y91.17 E60.72933
G0 F3000 X103.049 Y91.17
G1 F1200 X128.829 Y116.95 E61.94194
G0 F3000 X128.829 Y117.516
G1 F1200 X102.483 Y91.17 E63.18117
G0 F3000 X101.918 Y91.17
G1 F1200 X128.829 Y118.081 E64.44698
G0 F3000 X128.829 Y118.647
G1 F1200 X101.352 Y91.17 E65.73942
G0 F3000 X100.786 Y91.17
G1 F1200 X128.829 Y119.213 E67.05847
G0 F3000 X128.829 Y119.778
G1 F1200 X100.221 Y91.17 E68.40411
G0 F3000 X99.655 Y91.17
G1 F1200 X128.829 Y120.344 E69.77636
G0 F3000 X128.829 Y120.91
G1 F1200 X99.089 Y91.17 E71.17524
G0 F3000 X98.524 Y91.17
G1 F1200 X128.829 Y121.475 E72.60069
G0 F3000 X128.829 Y122.041
G1 F1200 X97.958 Y91.17 E74.05277
G0 F3000 X97.392 Y91.17
G1 F1200 X128.829 Y122.607 E75.53147
G0 F3000 X128.829 Y123.173
G1 F1200 X96.826 Y91.17 E77.03679
G0 F3000 X96.261 Y91.17
G1 F1200 X128.829 Y123.738 E78.56869
G0 F3000 X128.829 Y124.304
G1 F1200 X95.695 Y91.17 E80.12722
G0 F3000 X95.129 Y91.17
G1 F1200 X128.829 Y124.87 E81.71236
G0 F3000 X128.829 Y125.435
G1 F1200 X94.564 Y91.17 E83.32408
G0 F3000 X93.998 Y91.17
G1 F1200 X128.829 Y126.001 E84.96242
G0 F3000 X128.829 Y126.567
G1 F1200 X93.432 Y91.17 E86.62739
G0 F3000 X92.867 Y91.17
G1 F1200 X128.829 Y127.132 E88.31893
G0 F3000 X128.829 Y127.698
G1 F1200 X92.301 Y91.17 E90.0371
G0 F3000 X91.735 Y91.17
G1 F1200 X128.829 Y128.264 E91.78189
G0 F3000 X128.829 Y128.829
G1 F1200 X91.169 Y91.169 E93.5533
G0 F3000 X91.169 Y91.735
G1 F1200 X128.263 Y128.829 E95.29808
G0 F3000 X127.697 Y128.829
G1 F1200 X91.169 Y92.3 E97.01627
G0 F3000 X91.169 Y92.866
G1 F1200 X127.132 Y128.829 E98.70786
G0 F3000 X126.566 Y128.829
G1 F1200 X91.169 Y93.432 E100.37283
G0 F3000 X91.169 Y93.997
G1 F1200 X126 Y128.829 E102.0112
G0 F3000 X125.435 Y128.829
G1 F1200 X91.169 Y94.563 E103.62296
G0 F3000 X91.169 Y95.129
G1 F1200 X124.869 Y128.829 E105.20811
G0 F3000 X124.303 Y128.829
G1 F1200 X91.169 Y95.694 E106.76665
G0 F3000 X91.169 Y96.26
G1 F1200 X123.738 Y128.829 E108.2986
G0 F3000 X123.172 Y128.829
G1 F1200 X91.169 Y96.826 E109.80392
G0 F3000 X91.169 Y97.391
G1 F1200 X122.606 Y128.829 E111.28265
G0 F3000 X122.04 Y128.829
G1 F1200 X91.169 Y97.957 E112.73475
G0 F3000 X91.169 Y98.523
G1 F1200 X121.475 Y128.829 E114.16025
G0 F3000 X120.909 Y128.829
G1 F1200 X91.169 Y99.088 E115.55915
G0 F3000 X91.169 Y99.654
G1 F1200 X120.343 Y128.829 E116.93143
G0 F3000 X119.778 Y128.829
G1 F1200 X91.169 Y100.22 E118.27711
G0 F3000 X91.169 Y100.786
G1 F1200 X119.212 Y128.829 E119.59617
G0 F3000 X118.646 Y128.829
G1 F1200 X91.169 Y101.351 E120.88862
G0 F3000 X91.169 Y101.917
G1 F1200 X118.081 Y128.829 E122.15448
G0 F3000 X117.515 Y128.829
G1 F1200 X91.169 Y102.483 E123.39372
G0 F3000 X91.169 Y103.048
G1 F1200 X116.949 Y128.829 E124.60635
G0 F3000 X116.384 Y128.829
G1 F1200 X91.169 Y103.614 E125.79239
G0 F3000 X91.169 Y104.18
G1 F1200 X115.818 Y128.829 E126.9518
G0 F3000 X115.252 Y128.829
G1 F1200 X91.169 Y104.745 E128.08462
G0 F3000 X91.169 Y105.311
G1 F1200 X114.687 Y128.829 E129.19083
G0 F3000 X114.121 Y128.829
G1 F1200 X91.169 Y105.877 E130.27042
G0 F3000 X91.169 Y106.442
G1 F1200 X113.555 Y128.829 E131.32341
G0 F3000 X112.99 Y128.829
G1 F1200 X91.169 Y107.008 E132.34981
G0 F3000 X91.169 Y107.574
G1 F1200 X112.424 Y128.829 E133.34958
G0 F3000 X111.858 Y128.829
G1 F1200 X91.169 Y108.139 E134.32275
G0 F3000 X91.169 Y108.705
G1 F1200 X111.292 Y128.829 E135.2693
G0 F3000 X110.727 Y128.829
G1 F1200 X91.169 Y109.271 E136.18924
G0 F3000 X91.169 Y109.837
G1 F1200 X110.161 Y128.829 E137.08257
G0 F3000 X109.595 Y128.829
G1 F1200 X91.169 Y110.402 E137.9493
G0 F3000 X91.169 Y110.968
G1 F1200 X109.03 Y128.829 E138.78942
G0 F3000 X108.464 Y128.829
G1 F1200 X91.169 Y111.534 E139.60293
G0 F3000 X91.169 Y112.099
G1 F1200 X107.898 Y128.829 E140.38983
G0 F3000 X107.333 Y128.829
G1 F1200 X91.169 Y112.665 E141.15014
G0 F3000 X91.169 Y113.231
G1 F1200 X106.767 Y128.829 E141.88382
G0 F3000 X106.201 Y128.829
G1 F1200 X91.169 Y113.796 E142.5909
G0 F3000 X91.169 Y114.362
G1 F1200 X105.636 Y128.829 E143.27138
G0 F3000 X105.07 Y128.829
G1 F1200 X91.169 Y114.928 E143.92524
G0 F3000 X91.169 Y115.493
G1 F1200 X104.504 Y128.829 E144.5525
G0 F3000 X103.939 Y128.829
G1 F1200 X91.169 Y116.059 E145.15317
G0 F3000 X91.169 Y116.625
G1 F1200 X103.373 Y128.829 E145.72721
G0 F3000 X102.807 Y128.829
G1 F1200 X91.169 Y117.19 E146.27464
G0 F3000 X91.169 Y117.756
G1 F1200 X102.241 Y128.829 E146.79546
G0 F3000 X101.676 Y128.829
G1 F1200 X91.169 Y118.322 E147.28968
G0 F3000 X91.169 Y118.887
G1 F1200 X101.11 Y128.829 E147.7573
G0 F3000 X100.544 Y128.829
G1 F1200 X91.169 Y119.453 E148.19829
G0 F3000 X91.169 Y120.019
G1 F1200 X99.979 Y128.829 E148.61269
G0 F3000 X99.413 Y128.829
G1 F1200 X91.169 Y120.585 E149.00046
G0 F3000 X91.169 Y121.15
G1 F1200 X98.847 Y128.829 E149.36163
G0 F3000 X98.282 Y128.829
G1 F1200 X91.169 Y121.716 E149.69621
G0 F3000 X91.169 Y122.282
G1 F1200 X97.716 Y128.829 E150.00416
G0 F3000 X97.15 Y128.829
G1 F1200 X91.169 Y122.847 E150.28551
G0 F3000 X91.169 Y123.413
G1 F1200 X96.585 Y128.829 E150.54026
G0 F3000 X96.019 Y128.829
G1 F1200 X91.169 Y123.979 E150.76839
G0 F3000 X91.169 Y124.544
G1 F1200 X95.453 Y128.829 E150.96992
G0 F3000 X94.888 Y128.829
G1 F1200 X91.169 Y125.11 E151.14485
G0 F3000 X91.169 Y125.676
G1 F1200 X94.322 Y128.829 E151.29316
G0 F3000 X93.756 Y128.829
G1 F1200 X91.169 Y126.241 E151.41486
G0 F3000 X91.169 Y126.807
G1 F1200 X93.191 Y128.829 E151.50997
G0 F3000 X92.625 Y128.829
G1 F1200 X91.169 Y127.373 E151.57846
G0 F3000 X91.169 Y127.938
G1 F1200 X92.059 Y128.829 E151.62034
G0 F3000 X91.493 Y128.829
G1 F1200 X91.169 Y128.504 E151.63561
M104 S200
G0 F3000 X90.8 Y128.504
G1 F1800 E144.63561
;MESH:NONMESH
G0 F300 X90.8 Y128.504 Z0.4
G0 F3000 X90.71 Y128.504
G0 X129.4 Y129.4
;TIME_ELAPSED:249.562661
;LAYER:1
M106 S255
;TYPE:WALL-INNER
;MESH:Cap.40X40.3mf
G1 F1800 E151.63561
G1 X90.6 Y129.4 E152.9261
G1 X90.6 Y90.6 E154.21659
G1 X129.4 Y90.6 E155.50709
G1 X129.4 Y129.4 E156.79758
G0 F4500 X129.8 Y129.8
;TYPE:WALL-OUTER
G1 F1200 X90.2 Y129.8 E158.11468
G1 X90.2 Y90.2 E159.43178
G1 X129.8 Y90.2 E160.74889
G1 X129.8 Y129.8 E162.06599
G0 F4500 X129.6 Y129.8
G0 X129.36 Y129.36
G0 X129.01 Y129.01
;TYPE:SKIN
G1 F1200 X90.99 Y129.01 E163.33054
G1 X90.99 Y90.99 E164.59509
G1 X129.01 Y90.99 E165.85964
G1 X129.01 Y129.01 E167.12419
G0 F4500 X128.829 Y128.557
G1 F1200 X128.556 Y128.829 E167.13701
G0 F4500 X127.991 Y128.829
G1 F1200 X128.829 Y127.991 E167.17642
G0 F4500 X128.829 Y127.426
G1 F1200 X127.425 Y128.829 E167.24244
G0 F4500 X126.859 Y128.829
G1 F1200 X128.829 Y126.86 E167.33508
G0 F4500 X128.829 Y126.294
G1 F1200 X126.294 Y128.829 E167.45432
G0 F4500 X125.728 Y128.829
G1 F1200 X128.829 Y125.729 E167.60015
G0 F4500 X128.829 Y125.163
