;FLAVOR:Marlin
;TIME:757
;Filament used: 0.200709m
;Layer height: 0.2
;MINX:100.954
;MINY:100.954
;MINZ:0.2
;MAXX:119.046
;MAXY:119.046
;MAXZ:14
;Generated with Cura_SteamEngine master
M82 ;absolute extrusion mode
;Sliced at: Sat 06-05-2023 16:31:10
;Basic settings: Layer height: 0.2 Walls: 0.8 Fill: 20
G21 ;metric values
G90 ;absolute positioning
M82 ;set extruder to absolute mode
M107 ;start with the fan off
M117 Start heating ...
M104 S200
M117 Homing X/Y ...
G28 X0 Y0 ;move X/Y to min endstops
M117 Homing Z ...
G28 Z0 ;move Z to min endstops
G1 Z15.0 F100 ;move the platform down 15mm
M117 Heating ...
M109 S200
M117 Start cleaning ...
G92 E0 ;zero the extruded length
G1 F200 E10 ;extrude 10mm of feed stock
G92 E0 ;zero the extruded length again
M117 Intro line ...
G1 Z2.0 F3000 ; Move Z Axis up little to prevent scratching of Heat Bed
G1 X0.1 Y20 Z0.2 F5000.0 ; Move to start position
G1 X0.1 Y200.0 Z0.2 F1500.0 E15 ; Draw the first line
G1 X0.4 Y200.0 Z0.2 F5000.0 ; Move to side a little
G1 X0.4 Y20 Z0.3 F1500.0 E30 ; Draw the second line
G92 E0 ; Reset Extruder
G1 E-1 F500 ; Retract filiment by 1 mm
G1 Z2.0 F3000 ; Move Z Axis up little to prevent scratching of Heat Bed
G1 X5 Y20 Z0.3 F100 ; Move over to prevent blob squish
G1 F100
G92 E0 ; Reset Extruder
M117 Printing...

G92 E0
G92 E0
G1 F1800 E-7
;LAYER_COUNT:70
;LAYER:0
M107
G1 F300 Z0.4
G0 F3000 X103.657 Y103.511 Z0.4
;TYPE:SKIRT
G1 F300 Z0.2
G1 F1800 E0
G1 F1200 X104.056 Y103.152 E0.01785
G1 X104.654 Y102.676 E0.04327
G1 X105.111 Y102.356 E0.06183
G1 X105.589 Y102.078 E0.08022
G1 X106.154 Y101.792 E0.10128
G1 X106.737 Y101.534 E0.12249
G1 X106.873 Y101.482 E0.12733
G1 X107.426 Y101.305 E0.14664
G1 X108.031 Y101.151 E0.16741
G1 X108.315 Y101.087 E0.17709
G1 X109.17 Y100.968 E0.2058
G1 X109.46 Y100.958 E0.21545
G1 X110.154 Y100.954 E0.23853
G1 X110.532 Y100.958 E0.25111
G1 X111.175 Y101.005 E0.27255
G1 X111.595 Y101.08 E0.28674
G1 X112.258 Y101.226 E0.30932
G1 X112.863 Y101.398 E0.33024
G1 X113.105 Y101.483 E0.33877
G1 X113.581 Y101.677 E0.35587
G1 X114.18 Y101.958 E0.37787
G1 X114.263 Y101.999 E0.38095
G1 X114.714 Y102.25 E0.39812
G1 X115.289 Y102.632 E0.42108
G1 X115.998 Y103.198 E0.45125
G1 X116.478 Y103.646 E0.47309
G1 X116.837 Y104.043 E0.49089
G1 X117.322 Y104.651 E0.51676
G1 X117.621 Y105.076 E0.53405
G1 X117.921 Y105.588 E0.55378
G1 X118.194 Y106.126 E0.57385
G1 X118.479 Y106.768 E0.59721
G1 X118.53 Y106.904 E0.60204
G1 X118.695 Y107.426 E0.62025
G1 X118.848 Y108.025 E0.64081
G1 X118.913 Y108.312 E0.6506
G1 X119.016 Y108.949 E0.67206
G1 X119.041 Y109.419 E0.68772
G1 X119.046 Y110.131 E0.7114
G1 X119.042 Y110.529 E0.72464
G1 X118.995 Y111.172 E0.74608
G1 X118.921 Y111.593 E0.7603
G1 X118.776 Y112.253 E0.78277
G1 X118.604 Y112.859 E0.80372
G1 X118.518 Y113.104 E0.81236
G1 X118.324 Y113.578 E0.8294
G1 X118.046 Y114.172 E0.85121
G1 X118 Y114.265 E0.85466
G1 X117.756 Y114.704 E0.87136
G1 X117.373 Y115.282 E0.89443
G1 X116.788 Y116.013 E0.92557
G1 X116.345 Y116.487 E0.94715
G1 X115.942 Y116.85 E0.96519
G1 X115.345 Y117.324 E0.99054
G1 X114.917 Y117.625 E1.00794
G1 X114.417 Y117.919 E1.02723
G1 X113.846 Y118.208 E1.04852
G1 X113.263 Y118.466 E1.06972
G1 X113.127 Y118.518 E1.07457
G1 X112.574 Y118.695 E1.09388
G1 X111.969 Y118.849 E1.11464
G1 X111.685 Y118.913 E1.12433
G1 X111.049 Y119.015 E1.14575
G1 X110.591 Y119.04 E1.16101
G1 X109.846 Y119.046 E1.18578
G1 X109.468 Y119.042 E1.19836
G1 X108.825 Y118.995 E1.2198
G1 X108.407 Y118.921 E1.23392
G1 X107.747 Y118.776 E1.2564
G1 X107.147 Y118.606 E1.27714
G1 X106.901 Y118.52 E1.2858
G1 X106.414 Y118.321 E1.3033
G1 X105.82 Y118.042 E1.32513
G1 X105.737 Y118.001 E1.32821
G1 X105.286 Y117.75 E1.34538
G1 X104.707 Y117.365 E1.3685
G1 X103.987 Y116.788 E1.39919
G1 X103.514 Y116.345 E1.42074
G1 X103.141 Y115.932 E1.43925
G1 X102.679 Y115.349 E1.464
G1 X102.362 Y114.898 E1.48233
G1 X102.078 Y114.411 E1.50108
G1 X101.793 Y113.847 E1.5221
G1 X101.535 Y113.266 E1.54324
G1 X101.484 Y113.133 E1.54798
G1 X101.303 Y112.566 E1.56778
G1 X101.156 Y111.987 E1.58764
G1 X101.092 Y111.709 E1.59713
G1 X100.986 Y111.073 E1.61858
G1 X100.959 Y110.581 E1.63497
G1 X100.954 Y109.821 E1.66024
G1 X100.958 Y109.465 E1.67209
G1 X101.006 Y108.822 E1.69353
G1 X101.079 Y108.407 E1.70755
G1 X101.224 Y107.747 E1.73002
G1 X101.396 Y107.141 E1.75097
G1 X101.482 Y106.896 E1.75961
G1 X101.677 Y106.419 E1.77675
G1 X101.958 Y105.82 E1.79876
G1 X101.999 Y105.737 E1.80183
G1 X102.247 Y105.292 E1.81878
G1 X102.637 Y104.703 E1.84227
G1 X103.213 Y103.985 E1.87289
G1 X103.657 Y103.511 E1.89449
G0 F3000 X103.931 Y103.802
G1 F1200 X104.31 Y103.461 E1.91145
G1 X104.899 Y102.992 E1.93649
G1 X105.33 Y102.69 E1.95399
G1 X105.771 Y102.434 E1.97095
G1 X106.324 Y102.154 E1.99157
G1 X106.88 Y101.908 E2.01179
G1 X107.016 Y101.856 E2.01664
G1 X107.526 Y101.692 E2.03445
G1 X108.119 Y101.541 E2.05481
G1 X108.403 Y101.477 E2.06449
G1 X109.192 Y101.367 E2.09098
G1 X109.462 Y101.358 E2.09997
G1 X110.15 Y101.354 E2.12285
G1 X110.528 Y101.358 E2.13543
G1 X111.145 Y101.405 E2.15601
G1 X111.509 Y101.47 E2.16831
G1 X112.172 Y101.616 E2.19089
G1 X112.731 Y101.775 E2.21022
G1 X113.412 Y102.039 E2.23451
G1 X114.003 Y102.316 E2.25622
G1 X114.502 Y102.589 E2.27513
G1 X115.049 Y102.952 E2.29697
G1 X115.744 Y103.506 E2.32653
G1 X116.187 Y103.92 E2.3467
G1 X116.528 Y104.297 E2.36361
G1 X117.006 Y104.897 E2.38912
G1 X117.288 Y105.297 E2.4054
G1 X117.565 Y105.77 E2.42363
G1 X117.833 Y106.297 E2.44329
G1 X118.104 Y106.909 E2.46555
G1 X118.155 Y107.045 E2.47039
G1 X118.308 Y107.526 E2.48717
G1 X118.457 Y108.114 E2.50735
G1 X118.522 Y108.401 E2.51714
G1 X118.62 Y109.012 E2.53772
G1 X118.641 Y109.422 E2.55137
G1 X118.646 Y110.127 E2.57482
G1 X118.642 Y110.525 E2.58806
G1 X118.596 Y111.143 E2.60867
G1 X118.53 Y111.507 E2.62098
G1 X118.385 Y112.167 E2.64345
G1 X118.226 Y112.727 E2.66281
G1 X117.962 Y113.409 E2.68714
G1 X117.736 Y113.894 E2.70493
G1 X117.416 Y114.493 E2.72752
G1 X117.053 Y115.042 E2.74941
G1 X116.48 Y115.759 E2.77994
G1 X116.07 Y116.196 E2.79987
G1 X115.688 Y116.541 E2.81699
G1 X115.1 Y117.008 E2.84196
G1 X114.696 Y117.292 E2.85839
G1 X114.234 Y117.563 E2.8762
G1 X113.676 Y117.846 E2.89701
G1 X113.12 Y118.092 E2.91723
G1 X112.984 Y118.144 E2.92208
G1 X112.474 Y118.308 E2.93989
G1 X111.881 Y118.459 E2.96025
G1 X111.597 Y118.523 E2.96993
G1 X110.985 Y118.619 E2.99053
G1 X110.587 Y118.64 E3.00379
G1 X109.85 Y118.646 E3.0283
G1 X109.472 Y118.642 E3.04088
G1 X108.855 Y118.595 E3.06146
G1 X108.493 Y118.53 E3.07369
G1 X107.833 Y118.385 E3.09617
G1 X107.279 Y118.228 E3.11532
G1 X106.584 Y117.959 E3.1401
G1 X105.997 Y117.684 E3.16166
G1 X105.498 Y117.411 E3.18058
G1 X104.947 Y117.045 E3.20258
G1 X104.241 Y116.48 E3.23266
G1 X103.805 Y116.071 E3.25254
G1 X103.451 Y115.678 E3.27013
G1 X102.994 Y115.104 E3.29454
G1 X102.696 Y114.678 E3.31183
G1 X102.434 Y114.229 E3.32912
G1 X102.155 Y113.677 E3.34969
G1 X101.908 Y113.123 E3.36987
G1 X101.857 Y112.99 E3.3746
G1 X101.69 Y112.467 E3.39286
G1 X101.545 Y111.897 E3.41243
G1 X101.481 Y111.619 E3.42191
G1 X101.382 Y111.008 E3.4425
G1 X101.359 Y110.578 E3.45682
G1 X101.354 Y109.825 E3.48187
G1 X101.358 Y109.469 E3.49371
G1 X101.405 Y108.851 E3.51432
G1 X101.47 Y108.493 E3.52643
G1 X101.615 Y107.833 E3.5489
G1 X101.774 Y107.273 E3.56826
G1 X102.039 Y106.588 E3.59269
G1 X102.316 Y105.997 E3.6144
G1 X102.586 Y105.503 E3.63312
G1 X102.957 Y104.944 E3.65544
G1 X103.522 Y104.239 E3.68549
G1 X103.931 Y103.802 E3.7054
G0 F3000 X104.206 Y104.094
G1 F1200 X104.75 Y103.617 E3.72946
G1 X105.145 Y103.307 E3.74616
G1 X105.954 Y102.79 E3.77809
G1 X106.494 Y102.516 E3.79823
G1 X107.023 Y102.281 E3.81749
G1 X107.627 Y102.08 E3.83866
G1 X108.207 Y101.932 E3.85857
G1 X108.491 Y101.868 E3.86825
G1 X109.214 Y101.767 E3.89253
G1 X109.465 Y101.758 E3.90088
G1 X110.146 Y101.754 E3.92353
G1 X110.524 Y101.758 E3.93611
G1 X111.115 Y101.804 E3.95582
G1 X111.423 Y101.861 E3.96624
G1 X112.086 Y102.007 E3.98882
G1 X112.598 Y102.153 E4.00653
G1 X113.243 Y102.402 E4.02953
G1 X113.826 Y102.675 E4.05094
G1 X114.29 Y102.929 E4.06853
G1 X114.809 Y103.272 E4.08922
G1 X115.49 Y103.815 E4.11819
G1 X115.896 Y104.195 E4.13669
G1 X116.377 Y104.742 E4.16091
G1 X116.69 Y105.142 E4.17781
G1 X116.955 Y105.519 E4.19313
G1 X117.21 Y105.953 E4.20988
G1 X117.472 Y106.469 E4.22912
G1 X117.73 Y107.049 E4.25024
G1 X117.92 Y107.627 E4.27047
G1 X118.067 Y108.202 E4.29021
G1 X118.132 Y108.489 E4.3
G1 X118.224 Y109.075 E4.31973
G1 X118.241 Y109.425 E4.33138
G1 X118.246 Y110.123 E4.3546
G1 X118.242 Y110.521 E4.36784
G1 X118.196 Y111.112 E4.38755
G1 X118.14 Y111.421 E4.398
G1 X117.995 Y112.081 E4.42047
G1 X117.849 Y112.594 E4.43821
G1 X117.599 Y113.24 E4.46125
G1 X117.329 Y113.818 E4.48247
G1 X117.077 Y114.282 E4.50003
G1 X116.733 Y114.801 E4.52074
G1 X116.172 Y115.504 E4.55066
G1 X115.796 Y115.905 E4.56894
G1 X115.249 Y116.384 E4.59312
G1 X114.854 Y116.692 E4.60978
G1 X114.051 Y117.207 E4.64151
G1 X113.506 Y117.484 E4.66185
G1 X112.977 Y117.719 E4.6811
G1 X112.373 Y117.92 E4.70227
G1 X111.793 Y118.068 E4.72218
G1 X111.509 Y118.132 E4.73186
G1 X110.923 Y118.223 E4.75159
G1 X110.583 Y118.24 E4.76291
G1 X109.854 Y118.246 E4.78716
G1 X109.476 Y118.242 E4.79973
G1 X108.885 Y118.196 E4.81945
G1 X108.579 Y118.14 E4.82979
G1 X107.919 Y117.995 E4.85227
G1 X107.411 Y117.851 E4.86983
G1 X106.753 Y117.597 E4.89329
G1 X106.174 Y117.325 E4.91457
G1 X105.71 Y117.071 E4.93216
G1 X105.188 Y116.726 E4.95297
G1 X104.496 Y116.172 E4.98245
G1 X104.096 Y115.797 E5.00069
G1 X103.761 Y115.425 E5.01734
G1 X103.31 Y114.858 E5.04144
G1 X102.79 Y114.046 E5.07351
G1 X102.517 Y113.507 E5.0936
G1 X102.282 Y112.979 E5.11283
G1 X102.231 Y112.846 E5.11756
G1 X102.078 Y112.367 E5.13429
G1 X101.935 Y111.807 E5.15351
G1 X101.871 Y111.529 E5.163
G1 X101.777 Y110.944 E5.18271
G1 X101.759 Y110.575 E5.19499
G1 X101.754 Y109.83 E5.21977
G1 X101.758 Y109.474 E5.23161
G1 X101.805 Y108.882 E5.25137
G1 X101.86 Y108.579 E5.26161
G1 X102.005 Y107.919 E5.28408
G1 X102.151 Y107.406 E5.30182
G1 X102.402 Y106.757 E5.32497
G1 X102.675 Y106.174 E5.34638
G1 X102.926 Y105.715 E5.36378
G1 X103.276 Y105.185 E5.3849
G1 X103.83 Y104.494 E5.41436
G1 X104.206 Y104.094 E5.43262
G0 F3000 X104.617 Y104.256
G1 F1200 X105.004 Y103.926 E5.44954
G1 X105.656 Y103.434 E5.4767
G1 X106.136 Y103.146 E5.49532
G1 X106.664 Y102.878 E5.51501
G1 X107.165 Y102.655 E5.53325
G1 X107.727 Y102.467 E5.55296
G1 X108.295 Y102.322 E5.57246
G1 X108.579 Y102.258 E5.58215
G1 X109.236 Y102.166 E5.60421
G1 X109.468 Y102.158 E5.61193
G1 X110.141 Y102.154 E5.63432
G1 X110.519 Y102.158 E5.64689
G1 X111.337 Y102.252 E5.67427
G1 X112 Y102.398 E5.69685
G1 X112.708 Y102.615 E5.72148
G1 X113.074 Y102.764 E5.73463
G1 X113.649 Y103.034 E5.75576
G1 X114.284 Y103.396 E5.78007
G1 X114.721 Y103.707 E5.79791
G1 X115.236 Y104.124 E5.81995
G1 X115.605 Y104.469 E5.83675
G1 X116.069 Y104.997 E5.86013
G1 X116.542 Y105.621 E5.88617
G1 X116.854 Y106.135 E5.90617
G1 X117.11 Y106.64 E5.925
G1 X117.355 Y107.19 E5.94503
G1 X117.533 Y107.727 E5.96384
G1 X117.677 Y108.29 E5.98317
G1 X117.742 Y108.577 E5.99296
G1 X117.828 Y109.136 E6.01177
G1 X117.841 Y109.429 E6.02152
G1 X117.846 Y110.119 E6.04447
G1 X117.842 Y110.517 E6.05771
G1 X117.749 Y111.335 E6.08509
G1 X117.604 Y111.995 E6.10757
G1 X117.385 Y112.707 E6.13234
G1 X117.237 Y113.071 E6.14541
G1 X117.011 Y113.556 E6.16321
G1 X116.737 Y114.071 E6.18261
G1 X116.414 Y114.561 E6.20213
G1 X115.863 Y115.249 E6.23145
G1 X115.384 Y115.744 E6.25436
G1 X114.995 Y116.075 E6.27135
G1 X114.369 Y116.549 E6.29746
G1 X113.868 Y116.851 E6.31692
G1 X113.336 Y117.122 E6.33678
G1 X112.835 Y117.345 E6.35502
G1 X112.273 Y117.533 E6.37473
G1 X111.705 Y117.678 E6.39423
G1 X111.421 Y117.742 E6.40391
G1 X110.862 Y117.827 E6.42271
G1 X110.579 Y117.84 E6.43214
G1 X109.859 Y117.846 E6.45609
G1 X109.481 Y117.842 E6.46866
G1 X108.665 Y117.749 E6.49597
G1 X108.005 Y117.604 E6.51845
G1 X107.297 Y117.387 E6.54308
G1 X106.923 Y117.234 E6.55652
G1 X106.351 Y116.966 E6.57753
G1 X105.716 Y116.604 E6.60184
G1 X105.271 Y116.287 E6.62001
G1 X104.751 Y115.863 E6.64233
G1 X104.256 Y115.383 E6.66526
G1 X103.913 Y114.98 E6.68286
G1 X103.439 Y114.352 E6.70903
G1 X103.146 Y113.864 E6.72796
G1 X102.879 Y113.337 E6.74761
G1 X102.655 Y112.836 E6.76587
G1 X102.465 Y112.267 E6.78582
G1 X102.325 Y111.717 E6.80469
G1 X102.261 Y111.439 E6.81418
G1 X102.173 Y110.881 E6.83297
G1 X102.159 Y110.572 E6.84326
G1 X102.154 Y109.834 E6.86781
G1 X102.158 Y109.478 E6.87965
G1 X102.251 Y108.665 E6.90686
G1 X102.396 Y108.005 E6.92934
G1 X102.615 Y107.293 E6.95412
G1 X102.764 Y106.926 E6.96729
G1 X103.034 Y106.351 E6.98842
G1 X103.392 Y105.722 E7.01249
G1 X103.715 Y105.267 E7.03105
G1 X104.138 Y104.749 E7.05329
G1 X104.617 Y104.256 E7.07615
G0 F3000 X104.891 Y104.547
G1 F1200 X105.334 Y104.174 E7.09542
G1 X105.875 Y103.768 E7.11791
G1 X106.318 Y103.502 E7.1351
G1 X106.834 Y103.24 E7.15435
G1 X107.308 Y103.028 E7.17162
G1 X107.827 Y102.854 E7.18982
G1 X108.383 Y102.712 E7.20891
G1 X108.667 Y102.648 E7.21859
G1 X109.258 Y102.566 E7.23844
G1 X109.47 Y102.558 E7.24549
G1 X110.137 Y102.554 E7.26768
G1 X110.515 Y102.558 E7.28025
G1 X111.251 Y102.642 E7.30489
G1 X111.914 Y102.788 E7.32747
G1 X112.575 Y102.992 E7.35048
G1 X112.904 Y103.127 E7.36231
G1 X113.471 Y103.392 E7.38312
G1 X114.072 Y103.735 E7.40614
G1 X114.481 Y104.026 E7.42283
G1 X114.981 Y104.433 E7.44428
G1 X115.447 Y104.885 E7.46587
G1 X115.829 Y105.337 E7.48555
G1 X116.209 Y105.843 E7.5066
G1 X116.498 Y106.318 E7.52509
G1 X116.749 Y106.812 E7.54352
G1 X116.981 Y107.33 E7.5624
G1 X117.146 Y107.827 E7.57982
G1 X117.287 Y108.379 E7.59877
G1 X117.352 Y108.666 E7.60855
G1 X117.441 Y109.432 E7.6342
G1 X117.446 Y110.115 E7.65692
G1 X117.442 Y110.513 E7.67016
G1 X117.358 Y111.249 E7.6948
G1 X117.213 Y111.909 E7.71727
G1 X117.008 Y112.574 E7.74042
G1 X116.874 Y112.903 E7.75223
G1 X116.612 Y113.463 E7.77279
G1 X116.274 Y114.058 E7.79555
G1 X115.97 Y114.486 E7.81302
G1 X115.555 Y114.994 E7.83483
G1 X115.109 Y115.452 E7.8561
G1 X114.663 Y115.828 E7.8755
G1 X114.148 Y116.215 E7.89692
G1 X113.686 Y116.495 E7.91489
G1 X113.166 Y116.76 E7.9343
G1 X112.692 Y116.972 E7.95157
G1 X112.173 Y117.146 E7.96978
G1 X111.617 Y117.288 E7.98887
G1 X111.333 Y117.352 E7.99855
G1 X110.576 Y117.44 E8.0239
G1 X109.863 Y117.446 E8.04761
G1 X109.485 Y117.442 E8.06019
G1 X108.751 Y117.358 E8.08476
G1 X108.091 Y117.213 E8.10723
G1 X107.429 Y117.009 E8.13027
G1 X107.092 Y116.872 E8.14237
G1 X106.529 Y116.608 E8.16305
G1 X105.928 Y116.265 E8.18607
G1 X105.511 Y115.968 E8.2031
G1 X105.006 Y115.555 E8.2248
G1 X104.547 Y115.109 E8.24608
G1 X104.223 Y114.727 E8.26274
G1 X103.773 Y114.133 E8.28753
G1 X103.502 Y113.682 E8.30503
G1 X103.241 Y113.167 E8.32423
G1 X103.029 Y112.693 E8.3415
G1 X102.852 Y112.168 E8.35993
G1 X102.715 Y111.628 E8.37846
G1 X102.651 Y111.35 E8.38795
G1 X102.559 Y110.569 E8.4141
G1 X102.554 Y109.839 E8.43838
G1 X102.558 Y109.483 E8.45022
G1 X102.642 Y108.751 E8.47473
G1 X102.787 Y108.091 E8.4972
G1 X102.992 Y107.426 E8.52035
G1 X103.127 Y107.096 E8.53221
G1 X103.392 Y106.529 E8.55303
G1 X103.732 Y105.933 E8.57585
G1 X104.035 Y105.508 E8.59321
G1 X104.447 Y105.004 E8.61486
G1 X104.891 Y104.547 E8.63605
G0 F3000 X105.028 Y104.967
G1 F1200 X105.512 Y104.544 E8.65743
G1 X106.094 Y104.103 E8.68172
G1 X106.905 Y103.651 E8.7126
G1 X107.451 Y103.402 E8.73256
G1 X107.928 Y103.241 E8.7493
G1 X108.471 Y103.102 E8.76794
G1 X108.755 Y103.038 E8.77763
G1 X109.28 Y102.965 E8.79526
G1 X109.473 Y102.958 E8.80168
G1 X110.133 Y102.954 E8.82363
G1 X110.511 Y102.958 E8.8362
G1 X111.165 Y103.033 E8.8581
G1 X111.828 Y103.179 E8.88068
G1 X112.442 Y103.37 E8.90207
G1 X112.735 Y103.489 E8.91258
G1 X113.294 Y103.751 E8.93312
G1 X113.86 Y104.075 E8.95481
G1 X114.35 Y104.432 E8.97497
G1 X115.023 Y105.018 E9.00465
G1 X115.452 Y105.507 E9.02629
G1 X115.877 Y106.065 E9.04962
G1 X116.142 Y106.5 E9.06656
G1 X116.388 Y106.984 E9.08462
G1 X116.606 Y107.47 E9.10233
G1 X116.874 Y108.372 E9.13363
G1 X116.962 Y108.754 E9.14667
G1 X117.041 Y109.435 E9.16947
G1 X117.046 Y110.111 E9.19196
G1 X117.042 Y110.509 E9.20519
