;FLAVOR:Marlin
;TIME:4755
;Filament used: 3.05464m
;Layer height: 0.2
;MINX:65.75
;MINY:72
;MINZ:0.2
;MAXX:154.25
;MAXY:148
;MAXZ:6.2
;Generated with Cura_SteamEngine master
M82 ;absolute extrusion mode
;Sliced at: Sun 30-04-2023 15:56:00
;Basic settings: Layer height: 0.2 Walls: 0.8 Fill: 20
G21 ;metric values
G90 ;absolute positioning
M82 ;set extruder to absolute mode
M107 ;start with the fan off
M117 Start heating ...
M104 S200
M117 Homing X/Y ...
G28 X0 Y0 ;move X/Y to min endstops
M117 Homing Z ...
G28 Z0 ;move Z to min endstops
G1 Z15.0 F100 ;move the platform down 15mm
M117 Heating ...
M109 S200
M117 Start cleaning ...
G92 E0 ;zero the extruded length
G1 F200 E10 ;extrude 10mm of feed stock
G92 E0 ;zero the extruded length again
M117 Intro line ...
G1 Z2.0 F3000 ; Move Z Axis up little to prevent scratching of Heat Bed
G1 X0.1 Y20 Z0.2 F5000.0 ; Move to start position
G1 X0.1 Y200.0 Z0.2 F1500.0 E15 ; Draw the first line
G1 X0.4 Y200.0 Z0.2 F5000.0 ; Move to side a little
G1 X0.4 Y20 Z0.3 F1500.0 E30 ; Draw the second line
G92 E0 ; Reset Extruder
G1 E-1 F500 ; Retract filiment by 1 mm
G1 Z2.0 F3000 ; Move Z Axis up little to prevent scratching of Heat Bed
G1 X5 Y20 Z0.3 F100 ; Move over to prevent blob squish
G1 F100
G92 E0 ; Reset Extruder
M117 Printing...

G92 E0
G92 E0
G1 F1800 E-7
;LAYER_COUNT:30
;LAYER:0
M107
G1 F300 Z0.4
G0 F3000 X67.156 Y72.972 Z0.4
;TYPE:SKIRT
G1 F300 Z0.2
G1 F1800 E0
G1 F1200 X67.61 Y72.635 E0.01881
G1 X68.107 Y72.366 E0.0376
G1 X68.637 Y72.169 E0.05641
G1 X69.19 Y72.05 E0.07522
G1 X69.968 Y72.002 E0.10115
G1 X70.08 Y72 E0.10487
G1 X90.1 Y72 E0.77074
G1 X90.798 Y72.01 E0.79396
G1 X91.023 Y72.02 E0.80145
G1 X91.733 Y72.07 E0.82512
G1 X93.204 Y72.195 E0.87423
G1 X95.938 Y72.35 E0.9653
G1 X98.614 Y72.427 E1.05435
G1 X101.357 Y72.427 E1.14558
G1 X104.026 Y72.352 E1.23438
G1 X106.784 Y72.196 E1.32626
G1 X108.287 Y72.078 E1.37641
G1 X108.916 Y72.024 E1.3974
G1 X109.468 Y72.002 E1.41578
G1 X109.58 Y72 E1.4195
G1 X149.6 Y72 E2.75057
G1 X150.298 Y72.01 E2.77379
G1 X150.862 Y72.058 E2.79262
G1 X151.412 Y72.185 E2.81139
G1 X151.94 Y72.389 E2.83022
G1 X152.434 Y72.664 E2.84902
G1 X152.883 Y73.007 E2.86782
G1 X153.28 Y73.409 E2.88661
G1 X153.617 Y73.864 E2.90544
G1 X153.885 Y74.361 E2.92422
G1 X154.081 Y74.891 E2.94302
G1 X154.201 Y75.444 E2.96184
G1 X154.248 Y76.218 E2.98763
G1 X154.25 Y76.33 E2.99135
G1 X154.25 Y83.6 E3.23315
G1 X154.24 Y84.305 E3.25661
G1 X154.199 Y85.309 E3.29003
G1 X154.131 Y86.517 E3.33027
G1 X154.056 Y89.185 E3.41904
G1 X154.058 Y91.929 E3.51031
G1 X154.135 Y94.63 E3.60018
G1 X154.205 Y96.034 E3.64693
G1 X154.238 Y96.629 E3.66675
G1 X154.25 Y97.08 E3.68176
G1 X154.25 Y122.6 E4.53056
G1 X154.24 Y123.305 E4.55401
G1 X154.199 Y124.309 E4.58743
G1 X154.131 Y125.517 E4.62767
G1 X154.056 Y128.185 E4.71645
G1 X154.058 Y130.929 E4.80771
G1 X154.135 Y133.63 E4.89758
G1 X154.205 Y135.034 E4.94434
G1 X154.238 Y135.629 E4.96416
G1 X154.25 Y136.08 E4.97916
G1 X154.25 Y143.314 E5.21977
G1 X154.241 Y144.041 E5.24395
G1 X154.194 Y144.604 E5.26274
G1 X154.068 Y145.155 E5.28154
G1 X153.866 Y145.683 E5.30034
G1 X153.591 Y146.177 E5.31915
G1 X153.249 Y146.627 E5.33795
G1 X152.847 Y147.025 E5.35676
G1 X152.394 Y147.362 E5.37554
G1 X151.897 Y147.632 E5.39435
G1 X151.367 Y147.829 E5.41316
G1 X150.815 Y147.95 E5.43195
G1 X150.032 Y147.998 E5.45805
G1 X149.92 Y148 E5.46177
G1 X109.9 Y148 E6.79284
G1 X109.203 Y147.99 E6.81603
G1 X108.979 Y147.98 E6.82348
G1 X108.267 Y147.93 E6.84722
G1 X106.796 Y147.805 E6.89633
G1 X104.062 Y147.65 E6.98741
G1 X101.386 Y147.573 E7.07645
G1 X98.643 Y147.573 E7.16768
G1 X95.974 Y147.648 E7.25649
G1 X93.216 Y147.804 E7.34836
G1 X91.713 Y147.922 E7.39851
G1 X91.084 Y147.976 E7.41951
G1 X90.532 Y147.998 E7.43788
G1 X90.42 Y148 E7.4416
G1 X70.4 Y148 E8.10747
G1 X69.702 Y147.99 E8.13069
G1 X69.138 Y147.942 E8.14952
G1 X68.588 Y147.815 E8.16829
G1 X68.06 Y147.611 E8.18712
G1 X67.566 Y147.336 E8.20592
G1 X67.117 Y146.993 E8.22472
G1 X66.72 Y146.591 E8.24351
G1 X66.383 Y146.136 E8.26234
G1 X66.115 Y145.639 E8.28112
G1 X65.919 Y145.109 E8.29991
G1 X65.799 Y144.556 E8.31874
G1 X65.751 Y143.761 E8.34523
G1 X65.75 Y76.62 E10.57834
G1 X65.759 Y75.955 E10.60046
G1 X65.807 Y75.392 E10.61926
G1 X65.933 Y74.841 E10.63806
G1 X66.136 Y74.313 E10.65687
G1 X66.412 Y73.819 E10.67569
G1 X66.754 Y73.369 E10.69449
G1 X67.156 Y72.972 E10.71328
G0 F3000 X67.544 Y73.171
G1 F1200 X67.991 Y72.873 E10.73115
G1 X68.476 Y72.645 E10.74898
G1 X68.99 Y72.492 E10.76681
G1 X69.658 Y72.41 E10.7892
G1 X70.08 Y72.4 E10.80324
G1 X90.095 Y72.4 E11.46894
G1 X90.793 Y72.41 E11.49216
G1 X90.994 Y72.419 E11.49885
G1 X91.699 Y72.469 E11.52236
G1 X93.181 Y72.595 E11.57183
G1 X95.87 Y72.748 E11.66141
G1 X98.637 Y72.827 E11.75348
G1 X101.332 Y72.827 E11.84311
G1 X104.094 Y72.75 E11.93501
G1 X106.792 Y72.597 E12.02489
G1 X108.29 Y72.479 E12.07487
G1 X108.95 Y72.422 E12.0969
G1 X109.479 Y72.401 E12.11451
G1 X149.595 Y72.4 E13.44877
G1 X150.293 Y72.41 E13.47199
G1 X150.827 Y72.458 E13.48983
G1 X151.348 Y72.584 E13.50765
G1 X151.845 Y72.787 E13.52551
G1 X152.306 Y73.061 E13.54335
G1 X152.721 Y73.4 E13.56117
G1 X153.081 Y73.798 E13.57902
G1 X153.378 Y74.244 E13.59684
G1 X153.606 Y74.73 E13.6147
G1 X153.758 Y75.244 E13.63252
G1 X153.84 Y75.909 E13.65481
G1 X153.85 Y76.33 E13.66881
G1 X153.85 Y83.594 E13.91042
G1 X153.837 Y84.399 E13.93719
G1 X153.799 Y85.287 E13.96676
G1 X153.733 Y86.449 E14.00547
G1 X153.656 Y89.21 E14.09733
G1 X153.658 Y91.905 E14.18697
G1 X153.737 Y94.661 E14.27867
G1 X153.808 Y96.085 E14.32609
G1 X153.838 Y96.641 E14.34461
G1 X153.85 Y97.08 E14.35922
G1 X153.85 Y122.594 E15.20782
G1 X153.837 Y123.399 E15.2346
G1 X153.799 Y124.287 E15.26416
G1 X153.733 Y125.449 E15.30287
G1 X153.656 Y128.21 E15.39474
G1 X153.658 Y130.905 E15.48437
G1 X153.737 Y133.661 E15.57608
G1 X153.808 Y135.085 E15.6235
G1 X153.838 Y135.641 E15.64202
G1 X153.85 Y136.08 E15.65662
G1 X153.85 Y143.309 E15.89706
G1 X153.841 Y144.036 E15.92124
G1 X153.794 Y144.57 E15.93907
G1 X153.669 Y145.091 E15.95689
G1 X153.467 Y145.588 E15.97474
G1 X153.194 Y146.05 E15.99258
G1 X152.856 Y146.466 E16.01041
G1 X152.459 Y146.827 E16.02826
G1 X152.013 Y147.125 E16.0461
G1 X151.528 Y147.353 E16.06392
G1 X151.014 Y147.507 E16.08177
G1 X150.342 Y147.59 E16.10429
G1 X149.92 Y147.6 E16.11833
G1 X109.905 Y147.6 E17.44924
G1 X109.208 Y147.59 E17.47242
G1 X109.007 Y147.581 E17.47911
G1 X108.301 Y147.531 E17.50265
G1 X106.819 Y147.405 E17.55212
G1 X104.13 Y147.252 E17.6417
G1 X101.363 Y147.173 E17.73377
G1 X98.668 Y147.173 E17.82341
G1 X95.906 Y147.25 E17.91531
G1 X93.208 Y147.403 E18.00519
G1 X91.71 Y147.521 E18.05517
G1 X91.05 Y147.578 E18.0772
G1 X90.521 Y147.599 E18.09481
G1 X70.405 Y147.6 E18.76387
G1 X69.707 Y147.59 E18.78709
G1 X69.173 Y147.542 E18.80492
G1 X68.652 Y147.416 E18.82275
G1 X68.155 Y147.213 E18.8406
G1 X67.694 Y146.939 E18.85844
G1 X67.279 Y146.6 E18.87626
G1 X66.919 Y146.202 E18.89411
G1 X66.622 Y145.756 E18.91193
G1 X66.394 Y145.27 E18.92979
G1 X66.242 Y144.756 E18.94762
G1 X66.16 Y144.086 E18.97007
G1 X66.15 Y143.654 E18.98444
G1 X66.15 Y76.625 E21.21383
G1 X66.159 Y75.96 E21.23595
G1 X66.207 Y75.426 E21.25379
G1 X66.333 Y74.905 E21.27161
G1 X66.535 Y74.408 E21.28946
G1 X66.808 Y73.947 E21.30728
G1 X67.147 Y73.531 E21.32513
G1 X67.544 Y73.171 E21.34295
G0 F3000 X67.539 Y73.704
G1 F1200 X67.93 Y73.383 E21.35978
G1 X68.367 Y73.128 E21.3766
G1 X68.838 Y72.944 E21.39342
G1 X69.332 Y72.838 E21.41023
G1 X69.99 Y72.801 E21.43215
G1 X90.089 Y72.8 E22.10064
G1 X90.787 Y72.81 E22.12386
G1 X90.966 Y72.818 E22.12982
G1 X91.665 Y72.868 E22.15313
G1 X93.126 Y72.993 E22.2019
G1 X95.87 Y73.148 E22.29331
G1 X98.626 Y73.227 E22.38501
G1 X101.344 Y73.227 E22.47541
G1 X104.093 Y73.15 E22.56688
G1 X106.844 Y72.994 E22.65853
G1 X108.34 Y72.877 E22.70844
G1 X108.985 Y72.821 E22.72997
G1 X109.49 Y72.801 E22.74678
G1 X149.589 Y72.8 E24.08048
G1 X150.287 Y72.81 E24.1037
G1 X150.79 Y72.857 E24.1205
G1 X151.28 Y72.983 E24.13733
G1 X151.744 Y73.185 E24.15416
G1 X152.17 Y73.457 E24.17097
G1 X152.548 Y73.792 E24.18777
G1 X152.868 Y74.183 E24.20457
G1 X153.123 Y74.62 E24.2214
G1 X153.306 Y75.091 E24.23821
G1 X153.413 Y75.585 E24.25502
G1 X153.449 Y76.24 E24.27684
G1 X153.45 Y83.588 E24.52123
G1 X153.44 Y84.293 E24.54468
G1 X153.4 Y85.264 E24.57701
G1 X153.333 Y86.45 E24.61651
G1 X153.256 Y89.198 E24.70795
G1 X153.258 Y91.916 E24.79835
G1 X153.338 Y94.693 E24.89075
G1 X153.407 Y96.08 E24.93694
G1 X153.439 Y96.653 E24.95603
G1 X153.45 Y97.08 E24.97024
G1 X153.45 Y122.588 E25.81864
G1 X153.44 Y123.293 E25.84209
G1 X153.4 Y124.264 E25.87441
G1 X153.333 Y125.45 E25.91392
G1 X153.256 Y128.198 E26.00535
G1 X153.258 Y130.916 E26.09575
G1 X153.338 Y133.693 E26.18816
G1 X153.407 Y135.08 E26.23434
G1 X153.439 Y135.653 E26.25343
G1 X153.45 Y136.08 E26.26764
G1 X153.45 Y143.304 E26.50791
G1 X153.441 Y144.031 E26.53209
G1 X153.395 Y144.534 E26.54889
G1 X153.27 Y145.024 E26.56571
G1 X153.069 Y145.488 E26.58253
G1 X152.798 Y145.915 E26.59935
G1 X152.463 Y146.294 E26.61618
G1 X152.073 Y146.615 E26.63298
G1 X151.637 Y146.871 E26.64979
G1 X151.166 Y147.054 E26.6666
G1 X150.672 Y147.162 E26.68342
G1 X150.01 Y147.199 E26.70547
G1 X109.911 Y147.2 E28.03917
G1 X109.214 Y147.19 E28.06235
G1 X109.035 Y147.182 E28.06831
G1 X108.335 Y147.132 E28.09165
G1 X106.874 Y147.007 E28.14042
G1 X104.13 Y146.852 E28.23183
G1 X101.374 Y146.773 E28.32354
G1 X98.656 Y146.773 E28.41394
G1 X95.907 Y146.85 E28.50541
G1 X93.156 Y147.006 E28.59705
G1 X91.66 Y147.123 E28.64696
G1 X91.015 Y147.179 E28.66849
G1 X90.51 Y147.199 E28.6853
G1 X70.411 Y147.2 E29.3538
G1 X69.713 Y147.19 E29.37702
G1 X69.21 Y147.143 E29.39382
G1 X68.72 Y147.017 E29.41065
G1 X68.256 Y146.815 E29.42748
G1 X67.83 Y146.543 E29.44429
G1 X67.452 Y146.208 E29.46109
G1 X67.132 Y145.817 E29.47789
G1 X66.877 Y145.38 E29.49472
G1 X66.694 Y144.909 E29.51153
G1 X66.587 Y144.415 E29.52834
G1 X66.551 Y143.74 E29.55082
G1 X66.55 Y76.631 E31.78288
G1 X66.559 Y75.966 E31.805
G1 X66.606 Y75.462 E31.82183
G1 X66.732 Y74.973 E31.83863
G1 X66.933 Y74.509 E31.85545
G1 X67.204 Y74.082 E31.87227
G1 X67.539 Y73.704 E31.88907
G1 F1800 E24.88907
G1 F300 Z0.4
;MESH:Pipe.Cover.3mf
G0 F3000 X89.694 Y136.269 Z0.4
;TYPE:WALL-INNER
G1 F300 Z0.2
G1 F1800 E31.88907
G1 F1200 X90.15 Y136.269 E31.90423
G1 X90.15 Y143.4 E32.14141
G1 X70.35 Y143.4 E32.79996
G1 X70.35 Y76.6 E35.02174
G1 X90.15 Y76.6 E35.68029
G1 X90.15 Y83.73 E35.91743
G1 X89.689 Y83.73 E35.93277
G1 X88.983 Y83.881 E35.95678
G1 X88.343 Y84.086 E35.97913
G1 X87.722 Y84.355 E36.00164
G1 X87.13 Y84.684 E36.02417
G1 X86.571 Y85.07 E36.04676
G1 X86.056 Y85.512 E36.06933
G1 X85.587 Y85.999 E36.09182
G1 X85.168 Y86.53 E36.11432
G1 X84.802 Y87.101 E36.13688
G1 X84.496 Y87.704 E36.15937
G1 X84.249 Y88.337 E36.18197
G1 X84.068 Y88.99 E36.20451
G1 X83.952 Y89.657 E36.22702
G1 X83.902 Y90.332 E36.24954
G1 X83.918 Y91.01 E36.27209
G1 X84.002 Y91.682 E36.29462
G1 X84.151 Y92.344 E36.31719
G1 X84.367 Y92.987 E36.33975
G1 X84.644 Y93.606 E36.3623
G1 X84.981 Y94.193 E36.38481
G1 X85.373 Y94.745 E36.40733
G1 X85.82 Y95.256 E36.42991
G1 X86.313 Y95.718 E36.45239
G1 X86.85 Y96.132 E36.47494
G1 X87.426 Y96.49 E36.49749
G1 X88.034 Y96.79 E36.52004
G1 X88.675 Y97.03 E36.54281
G1 X89.318 Y97.199 E36.56492
G1 X89.694 Y97.269 E36.57764
G1 X90.15 Y97.269 E36.59281
G1 X90.15 Y122.73 E37.43965
G1 X89.689 Y122.73 E37.45498
G1 X88.983 Y122.881 E37.47899
G1 X88.343 Y123.086 E37.50134
G1 X87.722 Y123.355 E37.52385
G1 X87.13 Y123.684 E37.54638
G1 X86.572 Y124.07 E37.56895
G1 X86.056 Y124.511 E37.59152
G1 X85.587 Y124.999 E37.61403
G1 X85.168 Y125.53 E37.63653
G1 X84.802 Y126.101 E37.65909
G1 X84.496 Y126.704 E37.68158
G1 X84.249 Y127.337 E37.70418
G1 X84.068 Y127.99 E37.72672
G1 X83.952 Y128.657 E37.74923
G1 X83.902 Y129.332 E37.77175
G1 X83.918 Y130.01 E37.7943
G1 X84.002 Y130.682 E37.81683
G1 X84.151 Y131.344 E37.8394
G1 X84.367 Y131.987 E37.86196
G1 X84.644 Y132.605 E37.88448
G1 X84.98 Y133.193 E37.90701
G1 X85.373 Y133.745 E37.92954
G1 X85.82 Y134.256 E37.95213
G1 X86.313 Y134.718 E37.9746
G1 X86.85 Y135.132 E37.99715
G1 X87.426 Y135.49 E38.01971
G1 X88.034 Y135.79 E38.04226
G1 X88.675 Y136.03 E38.06502
G1 X89.318 Y136.199 E38.08713
G1 X89.694 Y136.269 E38.09985
G0 F3000 X89.731 Y135.869
;TYPE:WALL-OUTER
G1 F1200 X90.55 Y135.869 E38.12709
G1 X90.55 Y143.8 E38.39088
G1 X69.95 Y143.8 E39.07604
G1 X69.95 Y76.2 E41.32442
G1 X90.55 Y76.2 E42.00958
G1 X90.55 Y84.13 E42.27334
G1 X89.731 Y84.13 E42.30058
G1 X89.086 Y84.268 E42.32251
G1 X88.484 Y84.461 E42.34354
G1 X87.899 Y84.714 E42.36474
G1 X87.341 Y85.024 E42.38597
G1 X86.816 Y85.387 E42.4072
G1 X86.331 Y85.803 E42.42845
G1 X85.889 Y86.262 E42.44965
G1 X85.494 Y86.762 E42.47084
G1 X85.15 Y87.3 E42.49208
G1 X84.861 Y87.868 E42.51327
G1 X84.629 Y88.463 E42.53452
G1 X84.459 Y89.078 E42.55574
G1 X84.349 Y89.706 E42.57694
G1 X84.302 Y90.342 E42.59815
G1 X84.317 Y90.98 E42.61938
G1 X84.396 Y91.613 E42.6406
G1 X84.537 Y92.236 E42.66184
G1 X84.74 Y92.841 E42.68307
G1 X85.001 Y93.424 E42.70431
G1 X85.318 Y93.977 E42.72551
G1 X85.687 Y94.497 E42.74672
G1 X86.108 Y94.978 E42.76798
G1 X86.572 Y95.413 E42.78913
G1 X87.078 Y95.803 E42.81038
G1 X87.62 Y96.14 E42.83161
G1 X88.193 Y96.422 E42.85285
G1 X88.796 Y96.648 E42.87427
G1 X89.406 Y96.808 E42.89525
G1 X89.731 Y96.869 E42.90624
G1 X90.55 Y96.869 E42.93348
G1 X90.55 Y123.13 E43.80693
G1 X89.731 Y123.13 E43.83417
G1 X89.086 Y123.268 E43.85611
G1 X88.484 Y123.461 E43.87713
G1 X87.899 Y123.714 E43.89833
G1 X87.341 Y124.024 E43.91956
G1 X86.816 Y124.387 E43.94079
G1 X86.331 Y124.802 E43.96202
G1 X85.889 Y125.262 E43.98324
G1 X85.494 Y125.762 E44.00443
G1 X85.15 Y126.3 E44.02567
G1 X84.861 Y126.868 E44.04687
G1 X84.629 Y127.463 E44.06811
G1 X84.459 Y128.078 E44.08933
G1 X84.349 Y128.706 E44.11054
G1 X84.302 Y129.342 E44.13175
G1 X84.317 Y129.98 E44.15297
G1 X84.396 Y130.613 E44.17419
G1 X84.537 Y131.236 E44.19544
G1 X84.74 Y131.841 E44.21666
G1 X85.001 Y132.424 E44.23791
G1 X85.317 Y132.977 E44.25909
G1 X85.687 Y133.497 E44.28032
G1 X86.108 Y133.978 E44.30158
G1 X86.572 Y134.413 E44.32273
G1 X87.078 Y134.803 E44.34398
G1 X87.62 Y135.14 E44.36521
G1 X88.193 Y135.422 E44.38645
G1 X88.796 Y135.648 E44.40787
G1 X89.406 Y135.808 E44.42884
G1 X89.731 Y135.869 E44.43984
G0 F3000 X89.931 Y135.869
G0 X89.931 Y136.309
G0 X89.76 Y136.659
;TYPE:SKIN
G1 F1200 X89.76 Y143.01 E44.65108
G1 X70.74 Y143.01 E45.28368
G1 X70.74 Y76.99 E47.47952
G1 X89.76 Y76.99 E48.11212
G1 X89.76 Y83.34 E48.32333
G1 X89.648 Y83.34 E48.32705
G1 X88.882 Y83.504 E48.35311
G1 X88.206 Y83.721 E48.37672
G1 X87.549 Y84.004 E48.40051
G1 X86.924 Y84.352 E48.42431
G1 X86.333 Y84.76 E48.44819
G1 X85.788 Y85.228 E48.47208
G1 X85.293 Y85.742 E48.49582
G1 X84.85 Y86.304 E48.51962
G1 X84.463 Y86.907 E48.54345
G1 X84.139 Y87.544 E48.56722
G1 X83.878 Y88.214 E48.59114
G1 X83.687 Y88.904 E48.61495
G1 X83.564 Y89.609 E48.63875
G1 X83.512 Y90.322 E48.66253
G1 X83.528 Y91.039 E48.68638
G1 X83.618 Y91.749 E48.71019
G1 X83.775 Y92.449 E48.73405
G1 X84.003 Y93.129 E48.7579
G1 X84.296 Y93.783 E48.78174
G1 X84.652 Y94.404 E48.80554
G1 X85.067 Y94.987 E48.82935
G1 X85.539 Y95.527 E48.8532
G1 X86.06 Y96.016 E48.87697
G1 X86.628 Y96.453 E48.9008
G1 X87.237 Y96.831 E48.92464
G1 X87.878 Y97.149 E48.94844
G1 X88.556 Y97.402 E48.97251
G1 X89.232 Y97.58 E48.99576
G1 X89.76 Y97.659 E49.01352
G1 X89.76 Y122.34 E49.83441
G1 X89.648 Y122.34 E49.83814
G1 X88.882 Y122.504 E49.86419
G1 X88.206 Y122.721 E49.8878
G1 X87.549 Y123.004 E49.9116
G1 X86.924 Y123.352 E49.93539
G1 X86.334 Y123.76 E49.95925
G1 X85.788 Y124.227 E49.98315
G1 X85.293 Y124.742 E50.0069
G1 X84.85 Y125.304 E50.0307
G1 X84.463 Y125.907 E50.05454
G1 X84.139 Y126.544 E50.07831
G1 X83.878 Y127.214 E50.10222
G1 X83.687 Y127.904 E50.12603
G1 X83.564 Y128.609 E50.14984
G1 X83.512 Y129.322 E50.17361
G1 X83.528 Y130.039 E50.19747
G1 X83.618 Y130.749 E50.22127
G1 X83.775 Y131.449 E50.24513
G1 X84.004 Y132.129 E50.269
G1 X84.295 Y132.782 E50.29277
G1 X84.651 Y133.404 E50.31661
G1 X85.067 Y133.987 E50.34043
G1 X85.539 Y134.527 E50.36429
