;FLAVOR:Marlin
;TIME:1343
;Filament used: 0.207849m
;Layer height: 0.1
;MINX:101.787
;MINY:101.789
;MINZ:0.1
;MAXX:118.213
;MAXY:118.21
;MAXZ:20
;Generated with Cura_SteamEngine master
M82 ;absolute extrusion mode
;Sliced at: Sun 07-05-2023 00:54:02
;Basic settings: Layer height: 0.1 Walls: 0.8 Fill: 20
G21 ;metric values
G90 ;absolute positioning
M82 ;set extruder to absolute mode
M107 ;start with the fan off
M117 Start heating ...
M104 S200
M117 Homing X/Y ...
G28 X0 Y0 ;move X/Y to min endstops
M117 Homing Z ...
G28 Z0 ;move Z to min endstops
G1 Z15.0 F50 ;move the platform down 15mm
M117 Heating ...
M109 S200
M117 Start cleaning ...
G92 E0 ;zero the extruded length
G1 F200 E10 ;extrude 10mm of feed stock
G92 E0 ;zero the extruded length again
M117 Intro line ...
G1 Z2.0 F3000 ; Move Z Axis up little to prevent scratching of Heat Bed
G1 X0.1 Y20 Z0.1 F5000.0 ; Move to start position
G1 X0.1 Y200.0 Z0.1 F1500.0 E15 ; Draw the first line
G1 X0.4 Y200.0 Z0.1 F5000.0 ; Move to side a little
G1 X0.4 Y20 Z0.3 F1500.0 E30 ; Draw the second line
G92 E0 ; Reset Extruder
G1 E-1 F500 ; Retract filiment by 1 mm
G1 Z2.0 F3000 ; Move Z Axis up little to prevent scratching of Heat Bed
G1 X5 Y20 Z0.3 F50 ; Move over to prevent blob squish
G1 F50
G92 E0 ; Reset Extruder
M117 Printing...

G92 E0
G92 E0
G1 F1800 E-7
;LAYER_COUNT:200
;LAYER:0
M107
G1 F300 Z0.3
G0 F1500 X104.171 Y104.219 Z0.3
;TYPE:SKIRT
G1 F300 Z0.1
G1 F1800 E0
G1 F900 X104.553 Y103.862 E0.0087
G1 X104.91 Y103.561 E0.01646
G1 X105.428 Y103.177 E0.02718
G1 X105.984 Y102.857 E0.03785
G1 X106.508 Y102.599 E0.04757
G1 X106.986 Y102.392 E0.05623
G1 X107.598 Y102.168 E0.06707
G1 X107.949 Y102.061 E0.07317
G1 X108.467 Y101.935 E0.08203
G1 X109.097 Y101.837 E0.09264
G1 X109.743 Y101.792 E0.10341
G1 X109.986 Y101.789 E0.10745
G1 X110.506 Y101.804 E0.1161
G1 X111.132 Y101.864 E0.12656
G1 X112.006 Y102.05 E0.14142
G1 X112.736 Y102.289 E0.15419
G1 X113.207 Y102.474 E0.16261
G1 X113.753 Y102.722 E0.17258
G1 X114.14 Y102.925 E0.17985
G1 X114.824 Y103.367 E0.19339
G1 X115.174 Y103.634 E0.20071
G1 X115.636 Y104.031 E0.21084
G1 X116.115 Y104.519 E0.22221
G1 X116.549 Y105.045 E0.23355
G1 X117.021 Y105.763 E0.24784
G1 X117.366 Y106.439 E0.26046
G1 X117.607 Y106.991 E0.27048
G1 X117.801 Y107.509 E0.27968
G1 X117.999 Y108.212 E0.29182
G1 X118.064 Y108.513 E0.29695
G1 X118.154 Y109.082 E0.30653
G1 X118.213 Y109.884 E0.3199
G1 X118.202 Y110.413 E0.3287
G1 X118.181 Y110.716 E0.33375
G1 X118.118 Y111.235 E0.34244
G1 X118.088 Y111.41 E0.3454
G1 X117.941 Y112.034 E0.35606
G1 X117.71 Y112.737 E0.36836
G1 X117.514 Y113.234 E0.37725
G1 X117.304 Y113.698 E0.38572
G1 X117.116 Y114.066 E0.39259
G1 X116.641 Y114.815 E0.40734
G1 X116.387 Y115.149 E0.41432
G1 X115.961 Y115.642 E0.42515
G1 X115.362 Y116.222 E0.43902
G1 X114.954 Y116.549 E0.44771
G1 X114.236 Y117.022 E0.46201
G1 X113.548 Y117.373 E0.47486
G1 X113.026 Y117.601 E0.48433
G1 X112.5 Y117.798 E0.49367
G1 X111.979 Y117.956 E0.50272
G1 X111.291 Y118.112 E0.51446
G1 X110.681 Y118.185 E0.52467
G1 X110.17 Y118.21 E0.53318
G1 X109.455 Y118.196 E0.54507
G1 X108.849 Y118.133 E0.55521
G1 X107.995 Y117.951 E0.56973
G1 X107.265 Y117.713 E0.5825
G1 X106.789 Y117.526 E0.591
G1 X106.243 Y117.278 E0.60097
G1 X105.84 Y117.067 E0.60854
G1 X105.363 Y116.776 E0.61783
G1 X104.852 Y116.401 E0.62837
G1 X104.329 Y115.941 E0.63995
G1 X104.106 Y115.72 E0.64518
G1 X103.74 Y115.318 E0.65422
G1 X103.534 Y115.066 E0.65963
G1 X103.208 Y114.621 E0.6688
G1 X102.928 Y114.152 E0.67789
G1 X102.608 Y113.514 E0.68976
G1 X102.407 Y113.052 E0.69814
G1 X102.193 Y112.483 E0.70825
G1 X102.026 Y111.93 E0.71785
G1 X101.879 Y111.248 E0.72945
G1 X101.815 Y110.706 E0.73853
G1 X101.787 Y109.979 E0.75063
G1 X101.804 Y109.462 E0.75923
G1 X101.857 Y108.908 E0.76849
G1 X102.044 Y108.005 E0.78382
G1 X102.279 Y107.29 E0.79634
G1 X102.503 Y106.722 E0.80649
G1 X102.739 Y106.207 E0.81591
G1 X102.898 Y105.905 E0.82159
G1 X103.359 Y105.182 E0.83585
G1 X103.609 Y104.853 E0.84272
G1 X104.015 Y104.38 E0.85309
G1 X104.171 Y104.219 E0.85682
G0 F1500 X104.302 Y104.659
G1 F900 X104.811 Y104.168 E0.86858
G1 X105.168 Y103.867 E0.87634
G1 X105.666 Y103.499 E0.88664
G1 X106.175 Y103.208 E0.89639
G1 X106.667 Y102.966 E0.90551
G1 X107.145 Y102.759 E0.91417
G1 X107.723 Y102.548 E0.9244
G1 X108.542 Y102.328 E0.93851
G1 X109.136 Y102.235 E0.9485
G1 X109.748 Y102.192 E0.95871
G1 X109.991 Y102.189 E0.96275
G1 X110.873 Y102.235 E0.97744
G1 X111.083 Y102.261 E0.98096
G1 X111.89 Y102.433 E0.99468
G1 X112.59 Y102.661 E1.00692
G1 X113.061 Y102.846 E1.01534
G1 X113.578 Y103.081 E1.02478
G1 X113.95 Y103.277 E1.03177
G1 X114.581 Y103.685 E1.04427
G1 X114.931 Y103.952 E1.05159
G1 X115.358 Y104.318 E1.06094
G1 X115.821 Y104.791 E1.07195
G1 X116.234 Y105.291 E1.08273
G1 X116.67 Y105.954 E1.09593
G1 X116.999 Y106.599 E1.10797
G1 X117.24 Y107.151 E1.11799
G1 X117.419 Y107.629 E1.12648
G1 X117.608 Y108.297 E1.13802
G1 X117.673 Y108.598 E1.14314
G1 X117.756 Y109.123 E1.15198
G1 X117.813 Y109.887 E1.16472
G1 X117.782 Y110.688 E1.17805
G1 X117.694 Y111.342 E1.18903
G1 X117.558 Y111.919 E1.19889
G1 X117.338 Y112.59 E1.21063
G1 X117.142 Y113.087 E1.21951
G1 X116.786 Y113.832 E1.23324
G1 X116.761 Y113.881 E1.23416
G1 X116.323 Y114.573 E1.24778
G1 X116.069 Y114.907 E1.25476
G1 X115.675 Y115.362 E1.26477
G1 X115.103 Y115.917 E1.27802
G1 X114.708 Y116.234 E1.28644
G1 X114.044 Y116.67 E1.29965
G1 X113.388 Y117.007 E1.31192
G1 X112.866 Y117.235 E1.32139
G1 X112.375 Y117.418 E1.3301
G1 X111.865 Y117.573 E1.33897
G1 X111.229 Y117.717 E1.34981
G1 X110.642 Y117.787 E1.35964
G1 X109.832 Y117.81 E1.37312
G1 X109.121 Y117.764 E1.38497
G1 X108.899 Y117.736 E1.38869
G1 X108.111 Y117.569 E1.40209
G1 X107.411 Y117.341 E1.41433
G1 X106.935 Y117.154 E1.42283
G1 X106.418 Y116.919 E1.43228
G1 X106.03 Y116.715 E1.43957
G1 X105.59 Y116.446 E1.44814
G1 X105.106 Y116.092 E1.45812
G1 X104.61 Y115.657 E1.46909
G1 X104.387 Y115.436 E1.47431
G1 X104.05 Y115.065 E1.48264
G1 X103.844 Y114.813 E1.48806
G1 X103.543 Y114.402 E1.49653
G1 X103.282 Y113.965 E1.50499
G1 X102.975 Y113.354 E1.51637
G1 X102.774 Y112.892 E1.52474
G1 X102.57 Y112.351 E1.53436
G1 X102.41 Y111.82 E1.54358
G1 X102.275 Y111.191 E1.55428
G1 X102.213 Y110.667 E1.56306
G1 X102.187 Y109.975 E1.57457
G1 X102.229 Y109.17 E1.58798
G1 X102.254 Y108.955 E1.59158
G1 X102.427 Y108.12 E1.60576
G1 X102.651 Y107.437 E1.61771
G1 X102.875 Y106.869 E1.62786
G1 X103.093 Y106.394 E1.63656
G1 X103.252 Y106.092 E1.64223
G1 X103.677 Y105.424 E1.6554
G1 X103.927 Y105.095 E1.66227
G1 X104.302 Y104.659 E1.67183
G0 F1500 X104.589 Y104.937
G1 F900 X105.069 Y104.474 E1.68293
G1 X105.426 Y104.173 E1.69069
G1 X105.904 Y103.822 E1.70055
G1 X106.365 Y103.56 E1.70937
G1 X106.825 Y103.333 E1.7179
G1 X107.303 Y103.126 E1.72656
G1 X107.848 Y102.928 E1.73621
G1 X108.617 Y102.72 E1.74945
G1 X109.175 Y102.633 E1.75885
G1 X109.753 Y102.592 E1.76848
G1 X109.996 Y102.589 E1.77252
G1 X110.824 Y102.632 E1.78631
G1 X111.034 Y102.658 E1.78983
G1 X111.773 Y102.815 E1.8024
G1 X112.444 Y103.034 E1.81413
G1 X112.915 Y103.219 E1.82255
G1 X113.403 Y103.441 E1.83146
G1 X113.76 Y103.629 E1.83817
G1 X114.339 Y104.003 E1.84964
G1 X114.689 Y104.27 E1.85696
G1 X115.08 Y104.606 E1.86553
G1 X115.528 Y105.063 E1.87617
G1 X115.919 Y105.538 E1.88641
G1 X116.319 Y106.146 E1.89851
G1 X116.632 Y106.759 E1.90995
G1 X116.873 Y107.311 E1.91997
G1 X117.113 Y107.988 E1.93192
G1 X117.282 Y108.682 E1.94379
G1 X117.39 Y109.476 E1.95712
G1 X117.414 Y110.019 E1.96616
G1 X117.382 Y110.66 E1.97683
G1 X117.3 Y111.274 E1.98713
G1 X117.175 Y111.803 E1.99617
G1 X116.966 Y112.443 E2.00737
G1 X116.77 Y112.94 E2.01626
G1 X116.43 Y113.649 E2.02933
G1 X116.406 Y113.697 E2.03022
G1 X116.004 Y114.33 E2.04269
G1 X115.75 Y114.664 E2.04967
G1 X115.39 Y115.082 E2.05885
G1 X114.844 Y115.612 E2.0715
G1 X114.461 Y115.919 E2.07966
G1 X113.853 Y116.319 E2.09177
G1 X113.228 Y116.64 E2.10345
G1 X112.706 Y116.868 E2.11292
G1 X112.138 Y117.074 E2.12297
G1 X111.75 Y117.19 E2.12971
G1 X111.168 Y117.322 E2.13963
G1 X110.602 Y117.389 E2.14911
G1 X109.832 Y117.41 E2.16192
G1 X109.171 Y117.367 E2.17294
G1 X108.949 Y117.339 E2.17666
G1 X108.226 Y117.186 E2.18895
G1 X107.557 Y116.968 E2.20065
G1 X107.081 Y116.781 E2.20915
G1 X106.593 Y116.559 E2.21807
G1 X105.816 Y116.116 E2.23294
G1 X105.361 Y115.784 E2.24231
G1 X104.892 Y115.373 E2.25268
G1 X104.359 Y114.812 E2.26555
G1 X103.877 Y114.183 E2.27873
G1 X103.485 Y113.494 E2.29191
G1 X103.341 Y113.194 E2.29744
G1 X103.14 Y112.732 E2.30582
G1 X102.948 Y112.219 E2.31493
G1 X102.795 Y111.71 E2.32377
G1 X102.671 Y111.133 E2.33358
G1 X102.611 Y110.628 E2.34204
G1 X102.587 Y109.971 E2.35298
G1 X102.626 Y109.216 E2.36555
G1 X102.651 Y109.001 E2.36915
G1 X102.81 Y108.236 E2.38214
G1 X103.023 Y107.584 E2.39355
G1 X103.247 Y107.016 E2.4037
G1 X103.606 Y106.278 E2.41735
G1 X103.996 Y105.666 E2.42942
G1 X104.246 Y105.337 E2.43629
G1 X104.589 Y104.937 E2.44505
G0 F1500 X104.876 Y105.216
G1 F900 X105.327 Y104.78 E2.45548
G1 X105.684 Y104.479 E2.46325
G1 X106.355 Y104.021 E2.47676
G1 X106.984 Y103.7 E2.4885
G1 X107.462 Y103.493 E2.49717
G1 X107.973 Y103.308 E2.5062
G1 X108.692 Y103.113 E2.51859
G1 X109.214 Y103.031 E2.52738
G1 X109.758 Y102.992 E2.53645
G1 X110.001 Y102.989 E2.54049
G1 X110.774 Y103.029 E2.55336
G1 X110.984 Y103.055 E2.55688
G1 X111.657 Y103.198 E2.56833
G1 X112.297 Y103.406 E2.57952
G1 X112.768 Y103.591 E2.58793
G1 X113.229 Y103.801 E2.59636
G1 X113.57 Y103.981 E2.60277
G1 X114.096 Y104.321 E2.61318
G1 X114.801 Y104.893 E2.62828
G1 X115.235 Y105.335 E2.63858
G1 X115.604 Y105.784 E2.64825
G1 X115.967 Y106.337 E2.65925
G1 X116.266 Y106.92 E2.67015
G1 X116.507 Y107.472 E2.68016
G1 X116.731 Y108.108 E2.69138
G1 X116.891 Y108.767 E2.70265
G1 X116.992 Y109.517 E2.71524
G1 X117.014 Y110.022 E2.72364
G1 X116.983 Y110.633 E2.73382
G1 X116.905 Y111.207 E2.74345
G1 X116.702 Y111.985 E2.75682
G1 X116.594 Y112.296 E2.7623
G1 X116.398 Y112.793 E2.77118
G1 X116.075 Y113.467 E2.78361
G1 X116.051 Y113.512 E2.78446
G1 X115.686 Y114.088 E2.7958
G1 X115.432 Y114.422 E2.80278
G1 X115.104 Y114.802 E2.81113
G1 X114.585 Y115.307 E2.82317
G1 X114.215 Y115.604 E2.83106
G1 X113.662 Y115.967 E2.84206
G1 X113.068 Y116.274 E2.85318
G1 X112.546 Y116.502 E2.86265
G1 X112.024 Y116.69 E2.87188
G1 X111.636 Y116.806 E2.87861
G1 X111.106 Y116.926 E2.88765
G1 X110.563 Y116.991 E2.89675
G1 X109.832 Y117.01 E2.90891
G1 X109.221 Y116.971 E2.91909
G1 X108.999 Y116.943 E2.92281
G1 X108.342 Y116.803 E2.93398
G1 X107.703 Y116.596 E2.94515
G1 X107.227 Y116.409 E2.95366
G1 X106.767 Y116.199 E2.96206
G1 X106.042 Y115.787 E2.97593
G1 X105.615 Y115.475 E2.98473
G1 X105.173 Y115.089 E2.99449
G1 X104.669 Y114.559 E3.00665
G1 X104.212 Y113.964 E3.01913
G1 X103.839 Y113.307 E3.03169
G1 X103.708 Y113.035 E3.03671
G1 X103.507 Y112.573 E3.04509
G1 X103.326 Y112.087 E3.05371
G1 X103.179 Y111.6 E3.06217
G1 X103.067 Y111.075 E3.0711
G1 X102.99 Y110.238 E3.08508
G1 X102.992 Y109.72 E3.09369
G1 X103.049 Y109.047 E3.10493
G1 X103.193 Y108.352 E3.11673
G1 X103.395 Y107.731 E3.12759
G1 X103.619 Y107.163 E3.13774
G1 X103.96 Y106.465 E3.15066
G1 X104.314 Y105.908 E3.16164
G1 X104.876 Y105.216 E3.17646
G0 F1500 X105.164 Y105.494
G1 F900 X105.584 Y105.086 E3.1862
G1 X105.941 Y104.785 E3.19397
G1 X106.546 Y104.372 E3.20615
G1 X107.143 Y104.067 E3.2173
G1 X107.621 Y103.86 E3.22596
G1 X108.098 Y103.688 E3.23439
G1 X108.766 Y103.506 E3.2459
G1 X109.457 Y103.409 E3.25751
G1 X110.006 Y103.389 E3.26664
G1 X110.725 Y103.426 E3.27862
G1 X110.935 Y103.452 E3.28214
G1 X111.54 Y103.581 E3.29242
G1 X112.151 Y103.778 E3.3031
G1 X112.622 Y103.963 E3.31152
G1 X113.191 Y104.231 E3.32197
G1 X113.38 Y104.333 E3.32555
G1 X113.853 Y104.639 E3.33491
G1 X114.523 Y105.181 E3.34925
G1 X114.942 Y105.607 E3.35918
G1 X115.289 Y106.031 E3.36829
G1 X115.616 Y106.528 E3.37819
G1 X115.899 Y107.08 E3.3885
G1 X116.14 Y107.632 E3.39852
G1 X116.35 Y108.228 E3.40903
G1 X116.5 Y108.851 E3.41969
G1 X116.594 Y109.558 E3.43155
G1 X116.605 Y110.302 E3.44392
G1 X116.541 Y110.964 E3.45498
G1 X116.409 Y111.572 E3.46533
G1 X116.222 Y112.15 E3.47543
G1 X116.026 Y112.647 E3.48432
G1 X115.719 Y113.284 E3.49608
G1 X115.696 Y113.328 E3.4969
G1 X115.368 Y113.846 E3.5071
G1 X114.818 Y114.521 E3.52158
G1 X114.326 Y115.002 E3.53302
G1 X113.968 Y115.289 E3.54065
G1 X113.471 Y115.616 E3.55054
G1 X112.908 Y115.907 E3.56108
G1 X112.386 Y116.135 E3.57056
G1 X111.909 Y116.307 E3.57899
G1 X111.044 Y116.531 E3.59385
G1 X110.524 Y116.593 E3.60256
G1 X109.832 Y116.61 E3.61407
G1 X109.272 Y116.574 E3.6234
G1 X109.05 Y116.546 E3.62712
G1 X108.458 Y116.42 E3.63719
G1 X107.85 Y116.224 E3.64781
G1 X107.374 Y116.037 E3.65632
G1 X106.81 Y115.772 E3.66668
G1 X106.268 Y115.457 E3.6771
G1 X105.699 Y115.026 E3.68897
G1 X105.232 Y114.584 E3.69967
G1 X104.773 Y114.053 E3.71134
G1 X104.343 Y113.404 E3.72429
G1 X104.075 Y112.875 E3.73415
G1 X103.874 Y112.413 E3.74253
G1 X103.641 Y111.759 E3.75407
G1 X103.463 Y111.018 E3.76675
G1 X103.39 Y110.234 E3.77984
G1 X103.402 Y109.542 E3.79135
G1 X103.446 Y109.093 E3.79885
G1 X103.576 Y108.467 E3.80949
G1 X103.767 Y107.877 E3.8198
G1 X103.991 Y107.309 E3.82995
G1 X104.314 Y106.651 E3.84214
G1 X104.633 Y106.15 E3.85202
G1 X105.164 Y105.494 E3.86606
G0 F1500 X105.451 Y105.772
G1 F900 X105.842 Y105.392 E3.87512
G1 X106.199 Y105.091 E3.88289
G1 X106.737 Y104.724 E3.89372
G1 X107.302 Y104.435 E3.90427
G1 X107.78 Y104.228 E3.91293
G1 X108.308 Y104.041 E3.92225
G1 X108.841 Y103.899 E3.93142
G1 X109.496 Y103.807 E3.94242
G1 X110.01 Y103.789 E3.95098
G1 X110.676 Y103.823 E3.96207
G1 X110.886 Y103.849 E3.96558
G1 X111.424 Y103.963 E3.97473
G1 X112.005 Y104.151 E3.98489
G1 X112.476 Y104.336 E3.9933
G1 X113.001 Y104.583 E4.00295
G1 X113.19 Y104.685 E4.00652
G1 X113.611 Y104.957 E4.01486
G1 X114.245 Y105.468 E4.0284
G1 X114.649 Y105.879 E4.03798
G1 X114.974 Y106.277 E4.04653
G1 X115.265 Y106.719 E4.05533
G1 X115.533 Y107.24 E4.06507
G1 X115.774 Y107.792 E4.07509
G1 X115.968 Y108.348 E4.08488
G1 X116.109 Y108.936 E4.09494
G1 X116.196 Y109.599 E4.10606
G1 X116.206 Y110.274 E4.11728
G1 X116.147 Y110.897 E4.12769
G1 X116.026 Y111.456 E4.1372
G1 X115.85 Y112.003 E4.14676
G1 X115.654 Y112.5 E4.15564
G1 X115.363 Y113.102 E4.16676
G1 X115.341 Y113.143 E4.16754
G1 X115.049 Y113.604 E4.17661
G1 X114.533 Y114.241 E4.19024
G1 X114.067 Y114.697 E4.20109
G1 X113.722 Y114.974 E4.20844
G1 X113.28 Y115.265 E4.21724
G1 X112.748 Y115.54 E4.2272
G1 X112.226 Y115.768 E4.23668
G1 X111.407 Y116.04 E4.25103
G1 X110.906 Y116.148 E4.25955
G1 X110.17 Y116.21 E4.27183
G1 X109.6 Y116.202 E4.28131
G1 X109.1 Y116.149 E4.28968
G1 X108.574 Y116.037 E4.29862
G1 X107.996 Y115.851 E4.30872
G1 X107.52 Y115.664 E4.31722
G1 X106.999 Y115.419 E4.3268
G1 X106.494 Y115.127 E4.3365
G1 X105.953 Y114.717 E4.34779
G1 X105.513 Y114.3 E4.35787
G1 X105.082 Y113.8 E4.36885
G1 X104.696 Y113.217 E4.38047
G1 X104.442 Y112.716 E4.38981
G1 X104.241 Y112.254 E4.39819
G1 X104.026 Y111.649 E4.40887
G1 X103.858 Y110.96 E4.42066
G1 X103.79 Y110.229 E4.43287
G1 X103.801 Y109.563 E4.44395
G1 X103.843 Y109.139 E4.45104
G1 X103.959 Y108.583 E4.46048
G1 X104.139 Y108.024 E4.47025
G1 X104.363 Y107.456 E4.4804
G1 X104.667 Y106.837 E4.49187
G1 X104.951 Y106.392 E4.50065
G1 X105.451 Y105.772 E4.5139
G1 F1800 E-2.4861
G1 F300 Z0.3
;MESH:Java-connector.3mf
G0 F1500 X110.184 Y112.193 Z0.3
;TYPE:WALL-OUTER
G1 F300 Z0.1
G1 F1800 E4.5139
G1 F900 X110.744 Y112.069 E4.52343
G1 X111.121 Y111.892 E4.53036
G1 X111.418 Y111.681 E4.53642
G1 X111.68 Y111.419 E4.54258
G1 X111.989 Y110.936 E4.55212
G1 X112.13 Y110.545 E4.55903
G1 X112.191 Y110.184 E4.56512
G1 X112.191 Y109.814 E4.57127
G1 X112.068 Y109.254 E4.5808
G1 X111.892 Y108.879 E4.58769
G1 X111.68 Y108.581 E4.59378
G1 X111.418 Y108.319 E4.59994
G1 X110.934 Y108.009 E4.6095
G1 X110.543 Y107.869 E4.6164
G1 X110.184 Y107.807 E4.62246
G1 X109.813 Y107.807 E4.62863
G1 X109.252 Y107.931 E4.63819
G1 X108.878 Y108.106 E4.64505
G1 X108.579 Y108.319 E4.65116
G1 X108.317 Y108.58 E4.65731
G1 X108.007 Y109.064 E4.66687
G1 X107.867 Y109.453 E4.67374
G1 X107.805 Y109.815 E4.67985
