;FLAVOR:Marlin
;TIME:1462
;Filament used: 0.29943m
;Layer height: 0.1
;MINX:100.498
;MINY:100.491
;MINZ:0.1
;MAXX:119.507
;MAXY:119.5
;MAXZ:24
;Generated with Cura_SteamEngine master
M82 ;absolute extrusion mode
;Sliced at: Sun 07-05-2023 03:32:03
;Basic settings: Layer height: 0.1 Walls: 0.8 Fill: 20
G21 ;metric values
G90 ;absolute positioning
M82 ;set extruder to absolute mode
M107 ;start with the fan off
M117 Start heating ...
M104 S200
M117 Homing X/Y ...
G28 X0 Y0 ;move X/Y to min endstops
M117 Homing Z ...
G28 Z0 ;move Z to min endstops
G1 Z15.0 F50 ;move the platform down 15mm
M117 Heating ...
M109 S200
M117 Start cleaning ...
G92 E0 ;zero the extruded length
G1 F200 E10 ;extrude 10mm of feed stock
G92 E0 ;zero the extruded length again
M117 Intro line ...
G1 Z2.0 F3000 ; Move Z Axis up little to prevent scratching of Heat Bed
G1 X0.1 Y20 Z0.1 F5000.0 ; Move to start position
G1 X0.1 Y200.0 Z0.1 F1500.0 E15 ; Draw the first line
G1 X0.4 Y200.0 Z0.1 F5000.0 ; Move to side a little
G1 X0.4 Y20 Z0.3 F1500.0 E30 ; Draw the second line
G92 E0 ; Reset Extruder
G1 E-1 F500 ; Retract filiment by 1 mm
G1 Z2.0 F3000 ; Move Z Axis up little to prevent scratching of Heat Bed
G1 X5 Y20 Z0.3 F50 ; Move over to prevent blob squish
G1 F50
G92 E0 ; Reset Extruder
M117 Printing...

G92 E0
G92 E0
G1 F1800 E-7
;LAYER_COUNT:240
;LAYER:0
M107
G1 F300 Z0.3
G0 F1500 X103.339 Y103.217 Z0.3
;TYPE:SKIRT
G1 F300 Z0.1
G1 F1800 E0
G1 F900 X103.745 Y102.851 E0.00909
G1 X104.123 Y102.528 E0.01736
G1 X104.673 Y102.122 E0.02873
G1 X105.086 Y101.871 E0.03676
G1 X105.815 Y101.472 E0.05059
G1 X106.462 Y101.178 E0.0624
G1 X107.012 Y100.979 E0.07213
G1 X107.27 Y100.894 E0.07665
G1 X107.757 Y100.762 E0.08504
G1 X108.278 Y100.651 E0.0939
G1 X108.906 Y100.555 E0.10446
G1 X109.548 Y100.498 E0.11518
G1 X110.074 Y100.491 E0.12393
G1 X110.596 Y100.517 E0.13262
G1 X111.186 Y100.567 E0.14247
G1 X112.014 Y100.711 E0.15644
G1 X112.627 Y100.874 E0.16699
G1 X113.041 Y100.995 E0.17417
G1 X113.778 Y101.283 E0.18732
G1 X114.414 Y101.594 E0.1991
G1 X114.833 Y101.814 E0.20697
G1 X115.502 Y102.246 E0.22021
G1 X115.99 Y102.626 E0.2305
G1 X116.484 Y103.042 E0.24124
G1 X116.557 Y103.109 E0.24289
G1 X116.934 Y103.496 E0.25187
G1 X117.252 Y103.867 E0.26
G1 X117.65 Y104.36 E0.27053
G1 X118.05 Y104.938 E0.28222
G1 X118.413 Y105.575 E0.29442
G1 X118.69 Y106.153 E0.30507
G1 X118.956 Y106.813 E0.31691
G1 X119.163 Y107.477 E0.32847
G1 X119.308 Y108.096 E0.33905
G1 X119.43 Y108.794 E0.35083
G1 X119.507 Y109.729 E0.36643
G1 X119.504 Y110.333 E0.37648
G1 X119.461 Y110.869 E0.38542
G1 X119.398 Y111.416 E0.39458
G1 X119.247 Y112.211 E0.40803
G1 X119.045 Y112.928 E0.42042
G1 X118.818 Y113.547 E0.43139
G1 X118.736 Y113.741 E0.43489
G1 X118.515 Y114.233 E0.44386
G1 X118.208 Y114.808 E0.4547
G1 X117.923 Y115.249 E0.46343
G1 X117.545 Y115.788 E0.47438
G1 X117.049 Y116.386 E0.4873
G1 X116.709 Y116.731 E0.49535
G1 X116.25 Y117.164 E0.50585
G1 X115.633 Y117.656 E0.51897
G1 X115.139 Y117.988 E0.52887
G1 X114.675 Y118.28 E0.53799
G1 X113.997 Y118.631 E0.55068
G1 X113.539 Y118.819 E0.55892
G1 X113.063 Y118.997 E0.56737
G1 X112.572 Y119.155 E0.57595
G1 X111.945 Y119.304 E0.58666
G1 X111.729 Y119.344 E0.59032
G1 X111.149 Y119.438 E0.60009
G1 X110.341 Y119.5 E0.61356
G1 X109.746 Y119.495 E0.62346
G1 X109.292 Y119.479 E0.63101
G1 X108.515 Y119.385 E0.64403
G1 X107.814 Y119.241 E0.65593
G1 X107.43 Y119.151 E0.66249
G1 X106.899 Y118.991 E0.67171
G1 X106.17 Y118.694 E0.6848
G1 X105.62 Y118.437 E0.6949
G1 X105.084 Y118.143 E0.70507
G1 X104.544 Y117.78 E0.71589
G1 X104.058 Y117.422 E0.72592
G1 X103.634 Y117.067 E0.73512
G1 X103.052 Y116.476 E0.74891
G1 X102.679 Y116.063 E0.75817
G1 X102.197 Y115.428 E0.77143
G1 X101.886 Y114.938 E0.78108
G1 X101.602 Y114.457 E0.79037
G1 X101.291 Y113.82 E0.80216
G1 X101.097 Y113.319 E0.81109
G1 X100.923 Y112.805 E0.82012
G1 X100.834 Y112.517 E0.82513
G1 X100.691 Y111.923 E0.83529
G1 X100.608 Y111.427 E0.84365
G1 X100.538 Y110.909 E0.85234
G1 X100.498 Y110.11 E0.86565
G1 X100.519 Y109.464 E0.8764
G1 X100.545 Y109.016 E0.88386
G1 X100.662 Y108.235 E0.89699
G1 X100.806 Y107.621 E0.90748
G1 X100.916 Y107.201 E0.9147
G1 X101.186 Y106.448 E0.928
G1 X101.462 Y105.843 E0.93906
G1 X101.635 Y105.488 E0.94563
G1 X102.055 Y104.794 E0.95912
G1 X102.534 Y104.136 E0.97266
G1 X102.804 Y103.79 E0.97995
G1 X103.339 Y103.217 E0.99299
G0 F1500 X103.608 Y103.513
G1 F900 X104.005 Y103.155 E1.00188
G1 X104.383 Y102.832 E1.01015
G1 X104.887 Y102.46 E1.02057
G1 X105.278 Y102.222 E1.02818
G1 X106.007 Y101.823 E1.042
G1 X106.6 Y101.554 E1.05283
G1 X107.137 Y101.359 E1.06233
G1 X107.842 Y101.153 E1.07454
G1 X108.351 Y101.044 E1.0832
G1 X108.943 Y100.953 E1.09316
G1 X109.571 Y100.897 E1.10365
G1 X110.057 Y100.891 E1.11173
G1 X110.563 Y100.916 E1.12015
G1 X111.153 Y100.966 E1.13
G1 X111.912 Y101.098 E1.14281
G1 X112.651 Y101.296 E1.15554
G1 X112.926 Y101.378 E1.16031
G1 X113.602 Y101.642 E1.17238
G1 X114.238 Y101.953 E1.18415
G1 X114.644 Y102.167 E1.19178
G1 X115.258 Y102.563 E1.20393
G1 X115.735 Y102.934 E1.21398
G1 X116.213 Y103.336 E1.22437
G1 X116.632 Y103.759 E1.23427
G1 X116.941 Y104.118 E1.24215
G1 X117.339 Y104.611 E1.25268
G1 X117.706 Y105.141 E1.26341
G1 X118.063 Y105.768 E1.2754
G1 X118.325 Y106.317 E1.28552
G1 X118.584 Y106.96 E1.29705
G1 X118.774 Y107.568 E1.30764
G1 X118.919 Y108.187 E1.31821
G1 X119.035 Y108.855 E1.32949
G1 X119.108 Y109.752 E1.34446
G1 X119.105 Y110.306 E1.35367
G1 X119.064 Y110.823 E1.36229
G1 X119.001 Y111.37 E1.37145
G1 X118.86 Y112.108 E1.38395
G1 X118.662 Y112.812 E1.39611
G1 X118.446 Y113.399 E1.40651
G1 X118.371 Y113.577 E1.40972
G1 X118.15 Y114.069 E1.41869
G1 X117.869 Y114.596 E1.42862
G1 X117.59 Y115.027 E1.43716
G1 X117.218 Y115.558 E1.44794
G1 X116.762 Y116.108 E1.45982
G1 X116.434 Y116.44 E1.46759
G1 X115.975 Y116.873 E1.47808
G1 X115.41 Y117.324 E1.4901
G1 X114.916 Y117.656 E1.5
G1 X114.464 Y117.941 E1.50889
G1 X113.843 Y118.262 E1.52051
G1 X113.399 Y118.444 E1.52849
G1 X112.923 Y118.622 E1.53694
G1 X112.097 Y118.864 E1.55126
G1 X111.665 Y118.949 E1.55858
G1 X111.085 Y119.043 E1.56835
G1 X110.344 Y119.1 E1.58071
G1 X109.749 Y119.095 E1.5906
G1 X109.308 Y119.08 E1.59794
G1 X108.596 Y118.993 E1.60987
G1 X107.895 Y118.849 E1.62177
G1 X107.523 Y118.762 E1.62813
G1 X107.037 Y118.615 E1.63657
G1 X106.33 Y118.327 E1.64927
G1 X105.791 Y118.075 E1.65916
G1 X105.29 Y117.8 E1.66866
G1 X104.773 Y117.451 E1.67904
G1 X104.296 Y117.101 E1.68888
G1 X103.907 Y116.776 E1.69731
G1 X103.342 Y116.201 E1.71071
G1 X102.976 Y115.796 E1.71979
G1 X102.535 Y115.214 E1.73193
G1 X102.224 Y114.724 E1.74159
G1 X101.948 Y114.256 E1.75062
G1 X101.663 Y113.672 E1.76143
G1 X101.476 Y113.189 E1.77004
G1 X101.305 Y112.687 E1.77886
G1 X101.216 Y112.399 E1.78387
G1 X101.085 Y111.854 E1.79319
G1 X101.005 Y111.373 E1.8013
G1 X100.935 Y110.855 E1.81
G1 X100.897 Y110.123 E1.82219
G1 X100.918 Y109.477 E1.83293
G1 X100.944 Y109.042 E1.84018
G1 X101.051 Y108.326 E1.85222
G1 X101.195 Y107.712 E1.86271
G1 X101.302 Y107.304 E1.86972
G1 X101.55 Y106.614 E1.88192
G1 X101.826 Y106.009 E1.89298
G1 X101.993 Y105.666 E1.89932
G1 X102.379 Y105.029 E1.91171
G1 X102.858 Y104.371 E1.92524
G1 X103.117 Y104.038 E1.93226
G1 X103.608 Y103.513 E1.94421
G0 F1500 X103.877 Y103.809
G1 F900 X104.264 Y103.459 E1.95289
G1 X104.642 Y103.136 E1.96116
G1 X105.101 Y102.798 E1.97064
G1 X105.471 Y102.573 E1.97784
G1 X106.2 Y102.174 E1.99166
G1 X106.739 Y101.929 E2.0015
G1 X107.262 Y101.739 E2.01076
G1 X107.926 Y101.543 E2.02227
G1 X108.423 Y101.438 E2.03072
G1 X108.981 Y101.351 E2.04011
G1 X109.594 Y101.297 E2.05034
G1 X110.529 Y101.314 E2.0659
G1 X111.119 Y101.364 E2.07574
G1 X111.809 Y101.484 E2.08739
G1 X112.422 Y101.647 E2.09794
G1 X112.812 Y101.762 E2.1047
G1 X113.426 Y102.002 E2.11566
G1 X114.062 Y102.313 E2.12744
G1 X114.456 Y102.52 E2.13484
G1 X115.014 Y102.88 E2.14588
G1 X115.481 Y103.243 E2.15572
G1 X115.943 Y103.631 E2.16575
G1 X116.33 Y104.021 E2.17489
G1 X116.629 Y104.369 E2.18252
G1 X117.027 Y104.862 E2.19306
G1 X117.361 Y105.344 E2.20281
G1 X117.713 Y105.961 E2.21462
G1 X117.961 Y106.481 E2.2242
G1 X118.212 Y107.106 E2.2354
G1 X118.385 Y107.66 E2.24505
G1 X118.53 Y108.279 E2.25563
G1 X118.64 Y108.916 E2.26638
G1 X118.709 Y109.775 E2.28071
G1 X118.705 Y110.278 E2.28907
G1 X118.667 Y110.778 E2.29741
G1 X118.604 Y111.325 E2.30657
G1 X118.474 Y112.005 E2.31808
G1 X118.278 Y112.697 E2.33004
G1 X118.074 Y113.251 E2.33986
G1 X118.006 Y113.413 E2.34278
G1 X117.785 Y113.905 E2.35175
G1 X117.529 Y114.384 E2.36078
G1 X117.257 Y114.805 E2.36912
G1 X116.891 Y115.327 E2.37972
G1 X116.475 Y115.829 E2.39056
G1 X116.16 Y116.149 E2.39803
G1 X115.701 Y116.582 E2.40852
G1 X115.187 Y116.992 E2.41946
G1 X114.693 Y117.324 E2.42936
G1 X114.252 Y117.601 E2.43802
G1 X113.688 Y117.893 E2.44858
G1 X113.259 Y118.07 E2.4563
G1 X112.783 Y118.248 E2.46475
G1 X112.015 Y118.472 E2.47805
G1 X111.601 Y118.554 E2.48507
G1 X111.021 Y118.648 E2.49484
G1 X110.347 Y118.7 E2.50608
G1 X109.752 Y118.695 E2.51598
G1 X109.324 Y118.68 E2.5231
G1 X108.676 Y118.601 E2.53396
G1 X107.975 Y118.457 E2.54586
G1 X107.175 Y118.24 E2.55964
G1 X106.489 Y117.96 E2.57197
G1 X105.961 Y117.713 E2.58166
G1 X105.496 Y117.457 E2.59049
G1 X105.001 Y117.123 E2.60042
G1 X104.535 Y116.78 E2.61004
G1 X104.1 Y116.408 E2.61956
G1 X103.632 Y115.925 E2.63074
G1 X103.274 Y115.529 E2.63962
G1 X102.873 Y114.999 E2.65067
G1 X102.562 Y114.509 E2.66032
G1 X102.293 Y114.054 E2.66911
G1 X102.034 Y113.523 E2.67894
G1 X101.727 Y112.69 E2.6937
G1 X101.598 Y112.281 E2.70084
G1 X101.479 Y111.786 E2.7093
G1 X101.401 Y111.32 E2.71716
G1 X101.331 Y110.802 E2.72585
G1 X101.297 Y110.136 E2.73694
G1 X101.318 Y109.49 E2.74769
G1 X101.344 Y109.069 E2.75471
G1 X101.441 Y108.418 E2.76565
G1 X101.585 Y107.804 E2.77614
G1 X101.689 Y107.408 E2.78295
G1 X101.914 Y106.78 E2.79404
G1 X102.19 Y106.175 E2.8051
G1 X102.352 Y105.843 E2.81124
G1 X102.702 Y105.265 E2.82248
G1 X103.181 Y104.607 E2.83602
G1 X103.431 Y104.286 E2.84278
G1 X103.877 Y103.809 E2.85364
G0 F1500 X104.146 Y104.105
G1 F900 X104.524 Y103.763 E2.86212
G1 X104.902 Y103.44 E2.87039
G1 X105.315 Y103.136 E2.87892
G1 X105.663 Y102.924 E2.88569
G1 X106.392 Y102.525 E2.89951
G1 X106.877 Y102.305 E2.90837
G1 X107.388 Y102.119 E2.91741
G1 X108.011 Y101.934 E2.92822
G1 X108.696 Y101.794 E2.93985
G1 X109.491 Y101.705 E2.95315
G1 X110.024 Y101.69 E2.96202
G1 X110.495 Y101.713 E2.96986
G1 X111.085 Y101.763 E2.97971
G1 X111.706 Y101.871 E2.99019
G1 X112.423 Y102.063 E3.00253
G1 X112.698 Y102.145 E3.00731
G1 X113.25 Y102.361 E3.01716
G1 X113.886 Y102.672 E3.02894
G1 X114.268 Y102.873 E3.03612
G1 X114.769 Y103.197 E3.04604
G1 X115.226 Y103.551 E3.05565
G1 X115.672 Y103.926 E3.06534
G1 X116.028 Y104.283 E3.07373
G1 X116.318 Y104.621 E3.08113
G1 X116.716 Y105.114 E3.09167
G1 X117.016 Y105.547 E3.10043
G1 X117.362 Y106.155 E3.11206
G1 X117.596 Y106.644 E3.12108
G1 X117.84 Y107.253 E3.13199
G1 X117.995 Y107.751 E3.14066
G1 X118.14 Y108.37 E3.15123
G1 X118.244 Y108.976 E3.16146
G1 X118.309 Y109.797 E3.17516
G1 X118.284 Y110.568 E3.18798
G1 X118.269 Y110.732 E3.19072
G1 X118.206 Y111.279 E3.19988
G1 X118.087 Y111.902 E3.21043
G1 X117.895 Y112.582 E3.22218
G1 X117.703 Y113.103 E3.23141
G1 X117.641 Y113.249 E3.23405
G1 X117.42 Y113.741 E3.24302
G1 X117.097 Y114.321 E3.25406
G1 X116.873 Y114.658 E3.26079
G1 X116.564 Y115.097 E3.26972
G1 X116.187 Y115.551 E3.27953
G1 X115.885 Y115.858 E3.28669
G1 X115.426 Y116.291 E3.29719
G1 X114.964 Y116.66 E3.30702
G1 X114.47 Y116.992 E3.31692
G1 X114.041 Y117.262 E3.32535
G1 X113.533 Y117.524 E3.33485
G1 X113.119 Y117.695 E3.3423
G1 X112.643 Y117.873 E3.35075
G1 X111.933 Y118.081 E3.36306
G1 X111.537 Y118.16 E3.36977
G1 X110.957 Y118.254 E3.37954
G1 X110.351 Y118.3 E3.38965
G1 X109.756 Y118.295 E3.39954
G1 X109.339 Y118.28 E3.40648
G1 X108.757 Y118.209 E3.41623
G1 X108.056 Y118.065 E3.42814
G1 X107.312 Y117.864 E3.44095
G1 X106.649 Y117.593 E3.45286
G1 X106.132 Y117.351 E3.46236
G1 X105.503 Y116.985 E3.47446
G1 X104.773 Y116.458 E3.48943
G1 X104.374 Y116.116 E3.49817
G1 X103.922 Y115.65 E3.50897
G1 X103.572 Y115.261 E3.51767
G1 X103.211 Y114.785 E3.5276
G1 X102.9 Y114.295 E3.53726
G1 X102.639 Y113.853 E3.54579
G1 X102.406 Y113.375 E3.55463
G1 X102.105 Y112.56 E3.56908
G1 X101.873 Y111.717 E3.58362
G1 X101.797 Y111.266 E3.59123
G1 X101.727 Y110.748 E3.59992
G1 X101.697 Y110.149 E3.6099
G1 X101.718 Y109.503 E3.62064
G1 X101.743 Y109.095 E3.62744
G1 X101.83 Y108.509 E3.63729
G1 X101.974 Y107.895 E3.64778
G1 X102.075 Y107.511 E3.65439
G1 X102.278 Y106.946 E3.66437
G1 X102.603 Y106.237 E3.67734
G1 X102.71 Y106.021 E3.68135
G1 X103.026 Y105.5 E3.69148
G1 X103.505 Y104.842 E3.70502
G1 X103.744 Y104.534 E3.7115
G1 X104.146 Y104.105 E3.72128
G0 F1500 X104.415 Y104.401
G1 F900 X105.162 Y103.744 E3.73782
G1 X105.679 Y103.379 E3.74835
G1 X105.855 Y103.275 E3.75175
G1 X106.584 Y102.876 E3.76557
G1 X107.409 Y102.535 E3.78041
G1 X108.095 Y102.325 E3.79234
G1 X108.769 Y102.187 E3.80378
G1 X109.528 Y102.104 E3.81648
G1 X110.461 Y102.111 E3.832
G1 X111.051 Y102.161 E3.84184
G1 X111.603 Y102.257 E3.85116
G1 X112.308 Y102.446 E3.8633
G1 X112.583 Y102.528 E3.86807
G1 X113.075 Y102.72 E3.87686
G1 X113.711 Y103.031 E3.88863
G1 X114.079 Y103.226 E3.89555
G1 X114.525 Y103.514 E3.90438
G1 X114.971 Y103.859 E3.91376
G1 X115.402 Y104.22 E3.92311
G1 X115.932 Y104.783 E3.93597
G1 X116.007 Y104.872 E3.9379
G1 X116.405 Y105.365 E3.94844
G1 X116.817 Y105.996 E3.96097
G1 X117.129 Y106.581 E3.972
G1 X117.467 Y107.399 E3.98672
G1 X117.606 Y107.842 E3.99444
G1 X117.751 Y108.461 E4.00501
G1 X117.849 Y109.037 E4.01473
G1 X117.91 Y109.82 E4.02779
G1 X117.885 Y110.541 E4.03979
G1 X117.872 Y110.686 E4.04221
G1 X117.809 Y111.233 E4.05137
G1 X117.701 Y111.799 E4.06095
G1 X117.512 Y112.467 E4.07249
G1 X117.331 Y112.956 E4.08116
G1 X117.276 Y113.085 E4.0835
G1 X117.055 Y113.577 E4.09247
G1 X116.758 Y114.109 E4.1026
G1 X116.546 Y114.428 E4.10897
G1 X116.237 Y114.867 E4.1179
G1 X115.9 Y115.273 E4.12667
G1 X115.611 Y115.567 E4.13353
G1 X115.152 Y116 E4.14402
G1 X114.741 Y116.328 E4.15276
G1 X114.247 Y116.66 E4.16266
G1 X113.83 Y116.922 E4.17085
G1 X113.378 Y117.155 E4.17931
G1 X112.979 Y117.32 E4.18649
G1 X112.503 Y117.498 E4.19494
G1 X111.851 Y117.689 E4.20624
G1 X111.473 Y117.765 E4.21265
G1 X110.893 Y117.859 E4.22242
G1 X110.354 Y117.9 E4.23141
G1 X109.66 Y117.893 E4.24295
G1 X109.355 Y117.881 E4.24803
G1 X108.837 Y117.818 E4.25671
G1 X108.136 Y117.674 E4.26861
G1 X107.45 Y117.489 E4.28042
G1 X106.809 Y117.227 E4.29194
G1 X106.302 Y116.989 E4.30125
G1 X105.731 Y116.657 E4.31224
G1 X105.011 Y116.137 E4.32701
G1 X104.517 Y115.695 E4.33803
G1 X104.151 Y115.308 E4.34689
G1 X103.869 Y114.994 E4.35391
G1 X103.548 Y114.571 E4.36274
G1 X103.237 Y114.081 E4.37239
G1 X102.777 Y113.227 E4.38852
G1 X102.483 Y112.429 E4.40267
G1 X102.267 Y111.649 E4.41613
G1 X102.194 Y111.213 E4.42348
G1 X102.124 Y110.695 E4.43217
G1 X102.097 Y110.162 E4.44104
G1 X102.123 Y109.41 E4.45356
G1 X102.142 Y109.121 E4.45837
G1 X102.22 Y108.6 E4.46714
G1 X102.387 Y107.891 E4.47925
G1 X102.461 Y107.614 E4.48402
G1 X102.642 Y107.112 E4.49289
G1 X102.918 Y106.507 E4.50395
G1 X103.069 Y106.199 E4.50965
G1 X103.349 Y105.736 E4.51865
G1 X103.828 Y105.078 E4.53219
G1 X104.058 Y104.783 E4.53841
G1 X104.415 Y104.401 E4.5471
G1 F1800 E-2.4529
G1 F300 Z0.3
G0 F1500 X106.694 Y106.912 Z0.3
;TYPE:SUPPORT
G1 F300 Z0.1
G1 F1800 E4.5471
G1 F900 X107.364 Y106.322 E4.56195
G1 X108.15 Y105.87 E4.57703
G1 X108.833 Y105.632 E4.58906
G1 X109.446 Y105.509 E4.59945
G1 X109.887 Y105.477 E4.60681
G1 X110.776 Y105.54 E4.62163
G1 X111.648 Y105.787 E4.6367
G1 X112.466 Y106.207 E4.65199
G1 X113.164 Y106.763 E4.66683
G1 X113.734 Y107.443 E4.68159
G1 X114.042 Y107.982 E4.69191
G1 X114.33 Y108.682 E4.7045
G1 X114.48 Y109.393 E4.71658
G1 X114.525 Y109.999 E4.72669
G1 X114.436 Y110.895 E4.74166
G1 X114.271 Y111.475 E4.75169
G1 X113.968 Y112.176 E4.76439
G1 X113.464 Y112.915 E4.77927
G1 X112.812 Y113.547 E4.79437
G1 X112.053 Y114.034 E4.80937
G1 X111.223 Y114.357 E4.82418
G1 X110.356 Y114.511 E4.83882
