;FLAVOR:Marlin
;TIME:1473
;Filament used: 0.302356m
;Layer height: 0.1
;MINX:100.211
;MINY:100.236
;MINZ:0.1
;MAXX:119.789
;MAXY:119.764
;MAXZ:24
;Generated with Cura_SteamEngine master
M82 ;absolute extrusion mode
;Sliced at: Sun 07-05-2023 00:55:08
;Basic settings: Layer height: 0.1 Walls: 0.8 Fill: 20
G21 ;metric values
G90 ;absolute positioning
M82 ;set extruder to absolute mode
M107 ;start with the fan off
M117 Start heating ...
M104 S200
M117 Homing X/Y ...
G28 X0 Y0 ;move X/Y to min endstops
M117 Homing Z ...
G28 Z0 ;move Z to min endstops
G1 Z15.0 F50 ;move the platform down 15mm
M117 Heating ...
M109 S200
M117 Start cleaning ...
G92 E0 ;zero the extruded length
G1 F200 E10 ;extrude 10mm of feed stock
G92 E0 ;zero the extruded length again
M117 Intro line ...
G1 Z2.0 F3000 ; Move Z Axis up little to prevent scratching of Heat Bed
G1 X0.1 Y20 Z0.1 F5000.0 ; Move to start position
G1 X0.1 Y200.0 Z0.1 F1500.0 E15 ; Draw the first line
G1 X0.4 Y200.0 Z0.1 F5000.0 ; Move to side a little
G1 X0.4 Y20 Z0.3 F1500.0 E30 ; Draw the second line
G92 E0 ; Reset Extruder
G1 E-1 F500 ; Retract filiment by 1 mm
G1 Z2.0 F3000 ; Move Z Axis up little to prevent scratching of Heat Bed
G1 X5 Y20 Z0.3 F50 ; Move over to prevent blob squish
G1 F50
G92 E0 ; Reset Extruder
M117 Printing...

G92 E0
G92 E0
G1 F1800 E-7
;LAYER_COUNT:240
;LAYER:0
M107
G1 F300 Z0.3
G0 F1500 X102.745 Y103.43 Z0.3
;TYPE:SKIRT
G1 F300 Z0.1
G1 F1800 E0
G1 F900 X103.232 Y102.956 E0.0113
G1 X103.494 Y102.722 E0.01714
G1 X104.039 Y102.253 E0.0291
G1 X104.534 Y101.88 E0.03941
G1 X105.178 Y101.506 E0.05179
G1 X105.334 Y101.423 E0.05473
G1 X106.049 Y101.058 E0.06808
G1 X106.617 Y100.812 E0.07838
G1 X107.246 Y100.625 E0.08929
G1 X107.634 Y100.528 E0.09594
G1 X108.304 Y100.372 E0.10738
G1 X108.915 Y100.271 E0.11768
G1 X109.559 Y100.239 E0.1284
G1 X109.966 Y100.236 E0.13517
G1 X110.667 Y100.246 E0.14683
G1 X111.576 Y100.347 E0.16204
G1 X112.066 Y100.452 E0.17037
G1 X112.329 Y100.518 E0.17488
G1 X112.925 Y100.674 E0.18513
G1 X113.513 Y100.87 E0.19543
G1 X113.852 Y101.023 E0.20162
G1 X114.636 Y101.414 E0.21619
G1 X115.121 Y101.673 E0.22533
G1 X115.646 Y102.002 E0.23564
G1 X116.11 Y102.373 E0.24552
G1 X116.453 Y102.674 E0.2531
G1 X116.963 Y103.138 E0.26457
G1 X117.393 Y103.583 E0.27486
G1 X117.775 Y104.081 E0.2853
G1 X118.036 Y104.456 E0.2929
G1 X118.411 Y105.018 E0.30413
G1 X118.721 Y105.554 E0.31443
G1 X118.982 Y106.161 E0.32542
G1 X119.095 Y106.448 E0.33055
G1 X119.353 Y107.153 E0.34303
G1 X119.528 Y107.748 E0.35335
G1 X119.642 Y108.419 E0.36467
G1 X119.693 Y108.832 E0.37159
G1 X119.762 Y109.476 E0.38236
G1 X119.789 Y110.01 E0.39125
G1 X119.743 Y110.739 E0.4034
G1 X119.704 Y111.078 E0.40907
G1 X119.6 Y111.843 E0.42191
G1 X119.477 Y112.45 E0.43221
G1 X119.265 Y113.099 E0.44356
G1 X119.127 Y113.467 E0.4501
G1 X118.885 Y114.077 E0.46101
G1 X118.707 Y114.472 E0.46822
G1 X118.443 Y114.934 E0.47707
G1 X118.086 Y115.473 E0.48782
G1 X117.64 Y116.099 E0.5006
G1 X117.03 Y116.798 E0.51603
G1 X116.579 Y117.215 E0.52624
G1 X115.964 Y117.745 E0.53975
G1 X115.47 Y118.118 E0.55004
G1 X114.923 Y118.439 E0.56059
G1 X114.595 Y118.614 E0.56677
G1 X113.99 Y118.921 E0.57805
G1 X113.421 Y119.165 E0.58835
G1 X113.062 Y119.277 E0.5946
G1 X112.205 Y119.507 E0.60936
G1 X111.676 Y119.632 E0.6184
G1 X111.064 Y119.731 E0.62871
G1 X110.457 Y119.761 E0.63881
G1 X110.034 Y119.764 E0.64585
G1 X109.333 Y119.754 E0.65751
G1 X108.424 Y119.653 E0.67272
G1 X107.934 Y119.548 E0.68105
G1 X107.671 Y119.482 E0.68556
G1 X107.075 Y119.326 E0.69581
G1 X106.487 Y119.13 E0.70611
G1 X106.148 Y118.977 E0.7123
G1 X105.36 Y118.584 E0.72694
G1 X104.877 Y118.326 E0.73605
G1 X104.353 Y117.997 E0.74634
G1 X103.832 Y117.577 E0.75747
G1 X103.537 Y117.317 E0.76401
G1 X103.07 Y116.89 E0.77453
G1 X102.641 Y116.444 E0.78482
G1 X102.417 Y116.158 E0.79086
G1 X101.887 Y115.424 E0.80592
G1 X101.592 Y114.988 E0.81467
G1 X101.157 Y114.177 E0.82998
G1 X100.919 Y113.588 E0.84054
G1 X100.886 Y113.502 E0.84207
G1 X100.643 Y112.833 E0.85391
G1 X100.47 Y112.238 E0.86422
G1 X100.356 Y111.56 E0.87565
G1 X100.308 Y111.176 E0.88208
G1 X100.237 Y110.512 E0.89319
G1 X100.211 Y109.894 E0.90348
G1 X100.266 Y109.181 E0.91537
G1 X100.311 Y108.808 E0.92162
G1 X100.401 Y108.152 E0.93263
G1 X100.524 Y107.545 E0.94293
G1 X100.728 Y106.922 E0.95383
G1 X100.847 Y106.602 E0.95951
G1 X101.12 Y105.913 E0.97183
G1 X101.384 Y105.353 E0.98213
G1 X101.714 Y104.823 E0.99251
G1 X101.946 Y104.483 E0.99936
G1 X102.354 Y103.91 E1.01105
G1 X102.745 Y103.43 E1.02135
G0 F1500 X103.247 Y103.491
G1 F900 X103.714 Y103.061 E1.03191
G1 X104.3 Y102.556 E1.04477
G1 X105.027 Y102.048 E1.05952
G1 X105.515 Y101.779 E1.06879
G1 X106.23 Y101.414 E1.08214
G1 X107.056 Y101.093 E1.09687
G1 X107.67 Y100.931 E1.10743
G1 X108.394 Y100.762 E1.1198
G1 X109.254 Y100.649 E1.13422
G1 X109.875 Y100.636 E1.14455
G1 X110.662 Y100.646 E1.15764
G1 X111.495 Y100.738 E1.17158
G1 X112.181 Y100.893 E1.18327
G1 X112.824 Y101.061 E1.19433
G1 X113.386 Y101.25 E1.20419
G1 X113.674 Y101.381 E1.20945
G1 X114.458 Y101.772 E1.22402
G1 X114.931 Y102.025 E1.23294
G1 X115.645 Y102.507 E1.24727
G1 X116.14 Y102.93 E1.25809
G1 X116.694 Y103.433 E1.27054
G1 X117.272 Y104.073 E1.28488
G1 X117.665 Y104.622 E1.29611
G1 X118.078 Y105.24 E1.30847
G1 X118.487 Y106.009 E1.32295
G1 X118.682 Y106.489 E1.33157
G1 X118.977 Y107.291 E1.34578
G1 X119.195 Y108.143 E1.3604
G1 X119.29 Y108.829 E1.37192
G1 X119.364 Y109.518 E1.38345
G1 X119.372 Y110.402 E1.39815
G1 X119.318 Y110.945 E1.40722
G1 X119.204 Y111.789 E1.42139
G1 X119.002 Y112.636 E1.43587
G1 X118.78 Y113.255 E1.4468
G1 X118.513 Y113.93 E1.45887
G1 X118.107 Y114.717 E1.4736
G1 X117.756 Y115.247 E1.48417
G1 X117.314 Y115.866 E1.49682
G1 X116.756 Y116.507 E1.51095
G1 X116.313 Y116.916 E1.52098
G1 X115.703 Y117.442 E1.53438
G1 X115 Y117.936 E1.54866
G1 X114.492 Y118.217 E1.55832
G1 X113.809 Y118.565 E1.57107
G1 X113.263 Y118.797 E1.58093
G1 X112.959 Y118.891 E1.58622
G1 X112.102 Y119.121 E1.60098
G1 X111.586 Y119.242 E1.60979
G1 X110.736 Y119.352 E1.62405
G1 X110.123 Y119.364 E1.63424
G1 X109.338 Y119.354 E1.6473
G1 X108.505 Y119.262 E1.66124
G1 X107.819 Y119.107 E1.67293
G1 X107.176 Y118.939 E1.68398
G1 X106.614 Y118.75 E1.69385
G1 X106.326 Y118.619 E1.69911
G1 X105.538 Y118.226 E1.71375
G1 X105.068 Y117.975 E1.72261
G1 X104.336 Y117.477 E1.73733
G1 X103.86 Y117.07 E1.74775
G1 X103.34 Y116.595 E1.75946
G1 X102.93 Y116.167 E1.76932
G1 X102.742 Y115.924 E1.77443
G1 X102.212 Y115.19 E1.78948
G1 X101.925 Y114.766 E1.798
G1 X101.526 Y114.023 E1.81202
G1 X101.292 Y113.444 E1.82241
G1 X101.019 Y112.696 E1.83565
G1 X100.804 Y111.851 E1.85015
G1 X100.712 Y111.184 E1.86135
G1 X100.635 Y110.47 E1.87329
G1 X100.629 Y109.592 E1.88789
G1 X100.679 Y109.082 E1.89641
G1 X100.707 Y108.862 E1.9001
G1 X100.797 Y108.206 E1.91111
G1 X100.998 Y107.365 E1.92549
G1 X101.181 Y106.847 E1.93463
G1 X101.218 Y106.749 E1.93637
G1 X101.491 Y106.06 E1.9487
G1 X101.886 Y105.294 E1.96303
G1 X102.23 Y104.774 E1.9734
G1 X102.68 Y104.142 E1.9863
G1 X103.247 Y103.491 E2.00066
G0 F1500 X103.521 Y103.783
G1 F900 X103.979 Y103.361 E2.01101
G1 X104.561 Y102.859 E2.0238
G1 X105.221 Y102.398 E2.03718
G1 X105.697 Y102.135 E2.04623
G1 X106.412 Y101.77 E2.05958
G1 X107.163 Y101.478 E2.07298
G1 X107.766 Y101.319 E2.08335
G1 X108.485 Y101.151 E2.09563
G1 X109.266 Y101.049 E2.10873
G1 X109.877 Y101.036 E2.11889
G1 X110.656 Y101.046 E2.13185
G1 X111.413 Y101.13 E2.14451
G1 X112.084 Y101.281 E2.15595
G1 X112.723 Y101.448 E2.16693
G1 X113.495 Y101.738 E2.18065
G1 X114.279 Y102.129 E2.19522
G1 X114.74 Y102.376 E2.20391
G1 X115.39 Y102.815 E2.21696
G1 X115.875 Y103.23 E2.22757
G1 X116.425 Y103.729 E2.23992
G1 X116.95 Y104.311 E2.25296
G1 X117.336 Y104.849 E2.26397
G1 X117.745 Y105.462 E2.27622
G1 X118.117 Y106.161 E2.28939
G1 X118.31 Y106.635 E2.2979
G1 X118.601 Y107.428 E2.31195
G1 X118.8 Y108.203 E2.32526
G1 X118.893 Y108.876 E2.33656
G1 X118.966 Y109.561 E2.34801
G1 X118.973 Y110.366 E2.3614
G1 X118.921 Y110.898 E2.37029
G1 X118.808 Y111.735 E2.38434
G1 X118.624 Y112.505 E2.3975
G1 X118.406 Y113.114 E2.40826
G1 X118.141 Y113.782 E2.42021
G1 X117.771 Y114.499 E2.43363
G1 X117.426 Y115.02 E2.44402
G1 X116.989 Y115.634 E2.45655
G1 X116.481 Y116.217 E2.46941
G1 X116.048 Y116.617 E2.47921
G1 X115.443 Y117.138 E2.49249
G1 X114.803 Y117.588 E2.5055
G1 X114.304 Y117.864 E2.51499
G1 X113.628 Y118.208 E2.5276
G1 X112.855 Y118.504 E2.54136
G1 X111.998 Y118.734 E2.55612
G1 X111.496 Y118.852 E2.5647
G1 X110.724 Y118.952 E2.57764
G1 X110.121 Y118.964 E2.58767
G1 X109.344 Y118.954 E2.6006
G1 X108.587 Y118.87 E2.61326
G1 X107.916 Y118.719 E2.6247
G1 X107.277 Y118.552 E2.63568
G1 X106.505 Y118.262 E2.6494
G1 X105.717 Y117.869 E2.66404
G1 X105.258 Y117.623 E2.6727
G1 X104.593 Y117.171 E2.68607
G1 X104.125 Y116.771 E2.69631
G1 X103.61 Y116.3 E2.70792
G1 X103.066 Y115.69 E2.72151
G1 X102.536 Y114.956 E2.73657
G1 X102.258 Y114.543 E2.74485
G1 X101.895 Y113.868 E2.75759
G1 X101.665 Y113.3 E2.76778
G1 X101.395 Y112.56 E2.78088
G1 X101.2 Y111.791 E2.79407
G1 X101.109 Y111.137 E2.80506
G1 X101.033 Y110.427 E2.81693
G1 X101.027 Y109.629 E2.8302
G1 X101.103 Y108.916 E2.84213
G1 X101.193 Y108.26 E2.85314
G1 X101.376 Y107.496 E2.8662
G1 X101.556 Y106.986 E2.8752
G1 X101.863 Y106.208 E2.88911
G1 X102.222 Y105.511 E2.90214
G1 X102.56 Y105.001 E2.91232
G1 X103.006 Y104.374 E2.92511
G1 X103.521 Y103.783 E2.93815
G0 F1500 X103.795 Y104.074
G1 F900 X104.277 Y103.631 E2.94904
G1 X104.822 Y103.162 E2.961
G1 X105.416 Y102.747 E2.97305
G1 X105.879 Y102.492 E2.98184
G1 X106.594 Y102.127 E2.99519
G1 X107.27 Y101.864 E3.00725
G1 X107.862 Y101.707 E3.01743
G1 X108.576 Y101.541 E3.02962
G1 X109.279 Y101.449 E3.04142
G1 X109.879 Y101.436 E3.0514
G1 X110.65 Y101.446 E3.06422
G1 X111.332 Y101.521 E3.07563
G1 X111.987 Y101.669 E3.0868
G1 X112.622 Y101.835 E3.09771
G1 X113.317 Y102.096 E3.11006
G1 X114.101 Y102.487 E3.12463
G1 X114.55 Y102.728 E3.1331
G1 X115.135 Y103.123 E3.14484
G1 X115.61 Y103.529 E3.15523
G1 X116.156 Y104.025 E3.1675
G1 X116.629 Y104.549 E3.17924
G1 X117.006 Y105.076 E3.19001
G1 X117.413 Y105.684 E3.20218
G1 X117.748 Y106.313 E3.21403
G1 X117.938 Y106.782 E3.22245
G1 X118.226 Y107.566 E3.23634
G1 X118.404 Y108.263 E3.2483
G1 X118.495 Y108.922 E3.25936
G1 X118.569 Y109.603 E3.27076
G1 X118.575 Y110.331 E3.28286
G1 X118.523 Y110.852 E3.29157
G1 X118.411 Y111.681 E3.30548
G1 X118.246 Y112.374 E3.31733
G1 X118.032 Y112.972 E3.32789
G1 X117.769 Y113.635 E3.33975
G1 X117.436 Y114.282 E3.35185
G1 X117.097 Y114.794 E3.36206
G1 X116.663 Y115.401 E3.37447
G1 X116.206 Y115.926 E3.38605
G1 X115.782 Y116.318 E3.39565
G1 X115.182 Y116.835 E3.40882
G1 X114.607 Y117.239 E3.42051
G1 X114.116 Y117.511 E3.42984
G1 X113.447 Y117.851 E3.44232
G1 X112.751 Y118.118 E3.45472
G1 X111.894 Y118.348 E3.46948
G1 X111.407 Y118.462 E3.4778
G1 X110.711 Y118.552 E3.48947
G1 X110.119 Y118.564 E3.49931
G1 X109.35 Y118.554 E3.5121
G1 X108.668 Y118.479 E3.52351
G1 X108.013 Y118.331 E3.53468
G1 X107.378 Y118.165 E3.5456
G1 X106.683 Y117.904 E3.55794
G1 X105.895 Y117.511 E3.57259
G1 X105.449 Y117.271 E3.58101
G1 X104.85 Y116.864 E3.59305
G1 X104.39 Y116.471 E3.60311
G1 X103.88 Y116.005 E3.6146
G1 X103.39 Y115.455 E3.62685
G1 X102.86 Y114.721 E3.64191
G1 X102.59 Y114.321 E3.64993
G1 X102.264 Y113.714 E3.66139
G1 X102.038 Y113.157 E3.67139
G1 X101.771 Y112.423 E3.68438
G1 X101.595 Y111.731 E3.69625
G1 X101.506 Y111.09 E3.70701
G1 X101.43 Y110.385 E3.71881
G1 X101.426 Y109.667 E3.73075
G1 X101.494 Y109.013 E3.74168
G1 X101.589 Y108.315 E3.7534
G1 X101.754 Y107.626 E3.76518
G1 X101.931 Y107.124 E3.77403
G1 X102.235 Y106.355 E3.78778
G1 X102.558 Y105.728 E3.79951
G1 X102.889 Y105.227 E3.8095
G1 X103.331 Y104.606 E3.82217
G1 X103.795 Y104.074 E3.83391
G0 F1500 X104.07 Y104.365
G1 F900 X104.508 Y103.961 E3.84382
G1 X105.083 Y103.465 E3.85645
G1 X105.611 Y103.096 E3.86716
G1 X106.061 Y102.848 E3.87571
G1 X106.776 Y102.483 E3.88906
G1 X107.377 Y102.249 E3.89978
G1 X107.957 Y102.096 E3.90976
G1 X108.666 Y101.93 E3.92187
G1 X109.291 Y101.849 E3.93235
G1 X109.881 Y101.836 E3.94216
G1 X110.645 Y101.846 E3.95487
G1 X111.25 Y101.913 E3.96499
G1 X111.89 Y102.058 E3.9759
G1 X112.52 Y102.222 E3.98673
G1 X113.138 Y102.454 E3.99771
G1 X113.922 Y102.845 E4.01228
G1 X114.36 Y103.08 E4.02054
G1 X114.88 Y103.431 E4.03098
G1 X115.345 Y103.829 E4.04116
G1 X115.886 Y104.321 E4.05332
G1 X116.307 Y104.787 E4.06376
G1 X116.677 Y105.303 E4.07432
G1 X117.08 Y105.906 E4.08638
G1 X117.378 Y106.465 E4.09692
G1 X117.592 Y106.998 E4.10647
G1 X117.85 Y107.703 E4.11895
G1 X118.009 Y108.323 E4.1296
G1 X118.098 Y108.969 E4.14044
G1 X118.171 Y109.646 E4.15176
G1 X118.176 Y110.295 E4.16256
G1 X118.126 Y110.805 E4.17108
G1 X118.015 Y111.627 E4.18487
G1 X117.868 Y112.243 E4.19541
G1 X117.658 Y112.83 E4.20577
G1 X117.397 Y113.487 E4.21753
G1 X117.1 Y114.065 E4.22834
G1 X116.767 Y114.567 E4.23835
G1 X116.338 Y115.169 E4.25065
G1 X115.931 Y115.635 E4.26094
G1 X115.517 Y116.019 E4.27033
G1 X114.921 Y116.532 E4.28341
G1 X114.41 Y116.891 E4.29379
G1 X113.928 Y117.158 E4.30295
G1 X113.266 Y117.495 E4.31531
G1 X112.647 Y117.732 E4.32633
G1 X111.79 Y117.962 E4.34109
G1 X111.317 Y118.073 E4.34917
G1 X110.699 Y118.152 E4.35953
G1 X110.117 Y118.164 E4.36921
G1 X109.355 Y118.154 E4.38188
G1 X108.75 Y118.087 E4.392
G1 X108.11 Y117.942 E4.40292
G1 X107.48 Y117.778 E4.41374
G1 X106.862 Y117.546 E4.42472
G1 X106.074 Y117.153 E4.43936
G1 X105.639 Y116.919 E4.44758
G1 X105.107 Y116.558 E4.45827
G1 X104.655 Y116.171 E4.46817
G1 X104.15 Y115.71 E4.47954
G1 X103.715 Y115.221 E4.49042
G1 X103.185 Y114.487 E4.50548
G1 X102.923 Y114.099 E4.51326
G1 X102.633 Y113.559 E4.52346
G1 X102.412 Y113.013 E4.53325
G1 X102.147 Y112.286 E4.54612
G1 X101.991 Y111.672 E4.55666
G1 X101.903 Y111.043 E4.56722
G1 X101.828 Y110.342 E4.57894
G1 X101.824 Y109.704 E4.58955
G1 X101.891 Y109.063 E4.60027
G1 X101.986 Y108.369 E4.61192
G1 X102.132 Y107.757 E4.62238
G1 X102.307 Y107.263 E4.6311
G1 X102.607 Y106.502 E4.6447
G1 X102.894 Y105.945 E4.65512
G1 X103.219 Y105.454 E4.66491
G1 X103.657 Y104.838 E4.67748
G1 X104.07 Y104.365 E4.68793
G1 F1800 E-2.31207
G1 F300 Z0.3
;MESH:Java-Pipe-24mm.3mf
G0 F1500 X110.523 Y114.645 Z0.3
;TYPE:WALL-OUTER
G1 F300 Z0.1
G1 F1800 E4.68793
G1 F900 X110.61 Y114.634 E4.68938
G1 X111.587 Y114.395 E4.70611
G1 X111.741 Y114.335 E4.70886
G1 X112.565 Y113.902 E4.72434
G1 X112.703 Y113.813 E4.72707
G1 X113.456 Y113.146 E4.7438
G1 X113.562 Y113.021 E4.74652
G1 X114.09 Y112.254 E4.76201
G1 X114.17 Y112.109 E4.76476
G1 X114.526 Y111.168 E4.7815
G1 X114.559 Y111.007 E4.78423
G1 X114.67 Y110.083 E4.7997
G1 X114.671 Y109.919 E4.80243
G1 X114.548 Y108.918 E4.8192
G1 X114.526 Y108.833 E4.82066
G1 X114.171 Y107.891 E4.83741
G1 X114.092 Y107.748 E4.84012
G1 X113.563 Y106.98 E4.85563
G1 X113.457 Y106.856 E4.85834
G1 X112.703 Y106.187 E4.87511
G1 X112.565 Y106.099 E4.87783
G1 X111.743 Y105.667 E4.89327
G1 X111.589 Y105.605 E4.89603
G1 X110.61 Y105.366 E4.91279
G1 X110.449 Y105.353 E4.91548
G1 X109.518 Y105.354 E4.93096
G1 X109.354 Y105.373 E4.93371
G1 X108.449 Y105.596 E4.94921
G1 X108.293 Y105.647 E4.95194
G1 X107.401 Y106.116 E4.96869
G1 X107.269 Y106.212 E4.97141
G1 X106.572 Y106.829 E4.98689
G1 X106.46 Y106.95 E4.98963
G1 X105.889 Y107.779 E5.00637
G1 X105.817 Y107.926 E5.00909
G1 X105.487 Y108.795 E5.02455
G1 X105.445 Y108.955 E5.0273
G1 X105.326 Y109.956 E5.04407
G1 X105.333 Y110.118 E5.04676
G1 X105.446 Y111.043 E5.06226
G1 X105.486 Y111.203 E5.065
G1 X105.816 Y112.074 E5.08049
G1 X105.889 Y112.221 E5.08322
G1 X106.459 Y113.049 E5.09994
G1 X106.571 Y113.17 E5.10268
G1 X107.268 Y113.787 E5.11816
G1 X107.401 Y113.883 E5.12089
G1 X108.293 Y114.353 E5.13766
G1 X108.376 Y114.384 E5.13913
G1 X109.352 Y114.626 E5.15585
G1 X109.516 Y114.647 E5.1586
G1 X110.523 Y114.645 E5.17535
G0 F1500 X110.61 Y114.634
G0 X110.719 Y114.608
G0 X110.579 Y114.764
G1 F900 X109.419 Y114.764 E5.18284
G1 X108.297 Y114.486 E5.19042
G1 X107.274 Y113.949 E5.19762
G1 X106.408 Y113.18 E5.20581
G1 X105.75 Y112.226 E5.21335
G1 X105.341 Y111.148 E5.22127
