;FLAVOR:Marlin
;TIME:3246
;Filament used: 0.676224m
;Layer height: 0.1
;MINX:92.494
;MINY:94.193
;MINZ:0.1
;MAXX:125.807
;MAXY:127.51
;MAXZ:10
;Generated with Cura_SteamEngine master
M82 ;absolute extrusion mode
;Sliced at: Sun 07-05-2023 03:24:51
;Basic settings: Layer height: 0.1 Walls: 0.8 Fill: 20
G21 ;metric values
G90 ;absolute positioning
M82 ;set extruder to absolute mode
M107 ;start with the fan off
M117 Start heating ...
M104 S200
M117 Homing X/Y ...
G28 X0 Y0 ;move X/Y to min endstops
M117 Homing Z ...
G28 Z0 ;move Z to min endstops
G1 Z15.0 F50 ;move the platform down 15mm
M117 Heating ...
M109 S200
M117 Start cleaning ...
G92 E0 ;zero the extruded length
G1 F200 E10 ;extrude 10mm of feed stock
G92 E0 ;zero the extruded length again
M117 Intro line ...
G1 Z2.0 F3000 ; Move Z Axis up little to prevent scratching of Heat Bed
G1 X0.1 Y20 Z0.1 F5000.0 ; Move to start position
G1 X0.1 Y200.0 Z0.1 F1500.0 E15 ; Draw the first line
G1 X0.4 Y200.0 Z0.1 F5000.0 ; Move to side a little
G1 X0.4 Y20 Z0.3 F1500.0 E30 ; Draw the second line
G92 E0 ; Reset Extruder
G1 E-1 F500 ; Retract filiment by 1 mm
G1 Z2.0 F3000 ; Move Z Axis up little to prevent scratching of Heat Bed
G1 X5 Y20 Z0.3 F50 ; Move over to prevent blob squish
G1 F50
G92 E0 ; Reset Extruder
M117 Printing...

G92 E0
G92 E0
G1 F1800 E-7
;LAYER_COUNT:100
;LAYER:0
M107
G1 F300 Z0.3
G0 F1500 X93.794 Y95.383 Z0.3
;TYPE:SKIRT
G1 F300 Z0.1
G1 F1800 E0
G1 F900 X94.221 Y95.012 E0.00941
G1 X94.696 Y94.705 E0.01881
G1 X95.209 Y94.469 E0.0282
G1 X95.751 Y94.307 E0.03761
G1 X96.484 Y94.213 E0.0499
G1 X97 Y94.2 E0.05848
G1 X99.62 Y94.194 E0.10206
G1 X101.036 Y94.214 E0.12561
G1 X103.767 Y94.214 E0.17102
G1 X104.504 Y94.198 E0.18328
G1 X105.06 Y94.193 E0.19253
G1 X108.297 Y94.193 E0.24636
G1 X109.317 Y94.207 E0.26332
G1 X110.607 Y94.256 E0.28479
G1 X111.386 Y94.363 E0.29787
G1 X111.855 Y94.476 E0.30589
G1 X113.52 Y94.899 E0.33446
G1 X114.004 Y95.047 E0.34288
G1 X114.58 Y95.274 E0.35317
G1 X115.646 Y95.72 E0.37239
G1 X116.119 Y95.943 E0.38109
G1 X117.278 Y96.57 E0.403
G1 X117.765 Y96.869 E0.4125
G1 X118.205 Y97.171 E0.42138
G1 X118.711 Y97.535 E0.43174
G1 X119.131 Y97.854 E0.44052
G1 X119.597 Y98.228 E0.45045
G1 X119.743 Y98.352 E0.45364
G1 X120.367 Y98.909 E0.46755
G1 X120.656 Y99.181 E0.47415
G1 X121.157 Y99.67 E0.48579
G1 X121.709 Y100.302 E0.49974
G1 X122.117 Y100.811 E0.51059
G1 X122.421 Y101.217 E0.51903
G1 X122.516 Y101.35 E0.52175
G1 X122.956 Y101.997 E0.53476
G1 X123.241 Y102.457 E0.54376
G1 X123.453 Y102.853 E0.55123
G1 X123.771 Y103.541 E0.56383
G1 X124.039 Y104.143 E0.57479
G1 X124.351 Y104.871 E0.58796
G1 X124.439 Y105.097 E0.59199
G1 X124.86 Y106.271 E0.61274
G1 X124.937 Y106.507 E0.61686
G1 X125.266 Y107.642 E0.63652
G1 X125.475 Y108.344 E0.6487
G1 X125.598 Y108.902 E0.6582
G1 X125.683 Y109.479 E0.6679
G1 X125.746 Y110.009 E0.67677
G1 X125.776 Y110.529 E0.68544
G1 X125.807 Y112.075 E0.71115
G1 X125.807 Y120.391 E0.84945
G1 X125.801 Y122.715 E0.8881
G1 X125.789 Y123.444 E0.90022
G1 X125.74 Y124.007 E0.90962
G1 X125.612 Y124.558 E0.91903
G1 X125.408 Y125.085 E0.92842
G1 X125.131 Y125.578 E0.93783
G1 X124.618 Y126.206 E0.95131
G1 X124.506 Y126.318 E0.95395
G1 X124.079 Y126.689 E0.96335
G1 X123.604 Y126.996 E0.97276
G1 X123.091 Y127.232 E0.98215
G1 X122.549 Y127.394 E0.99156
G1 X121.813 Y127.488 E1.0039
G1 X121.17 Y127.5 E1.01459
G1 X119.998 Y127.5 E1.03408
G1 X119.935 Y127.505 E1.03513
G1 X119.132 Y127.506 E1.04849
G1 X119.045 Y127.5 E1.04994
G1 X118.009 Y127.5 E1.06717
G1 X117.876 Y127.507 E1.06938
G1 X117.085 Y127.51 E1.08254
G1 X116.937 Y127.5 E1.085
G1 X115.967 Y127.5 E1.10113
G1 X115.265 Y127.49 E1.11281
G1 X114.702 Y127.442 E1.12221
G1 X114.151 Y127.315 E1.13161
G1 X113.623 Y127.111 E1.14102
G1 X113.13 Y126.836 E1.15041
G1 X112.506 Y126.331 E1.16376
G1 X112.392 Y126.218 E1.16643
G1 X112.041 Y125.82 E1.17525
G1 X111.835 Y125.553 E1.18086
G1 X110.113 Y123.389 E1.22685
G1 X108.352 Y121.3 E1.27229
G1 X106.556 Y119.288 E1.31714
G1 X104.664 Y117.284 E1.36297
G1 X102.787 Y115.407 E1.40712
G1 X100.775 Y113.504 E1.45317
G1 X98.784 Y111.727 E1.49755
G1 X96.677 Y109.948 E1.54341
G1 X95.194 Y108.757 E1.57504
G1 X94.149 Y107.934 E1.59717
G1 X93.682 Y107.506 E1.6077
G1 X93.311 Y107.079 E1.61711
G1 X93.004 Y106.604 E1.62651
G1 X92.768 Y106.091 E1.6359
G1 X92.606 Y105.549 E1.64531
G1 X92.512 Y104.813 E1.65765
G1 X92.5 Y104.13 E1.66901
G1 X92.5 Y102.998 E1.68784
G1 X92.495 Y102.935 E1.68889
G1 X92.494 Y102.132 E1.70224
G1 X92.5 Y102.045 E1.70369
G1 X92.5 Y100.941 E1.72205
G1 X92.495 Y100.878 E1.7231
G1 X92.494 Y100.075 E1.73645
G1 X92.5 Y99.987 E1.73792
G1 X92.5 Y98.946 E1.75523
G1 X92.51 Y98.264 E1.76658
G1 X92.559 Y97.701 E1.77597
G1 X92.686 Y97.15 E1.78538
G1 X92.889 Y96.623 E1.79477
G1 X93.165 Y96.129 E1.80418
G1 X93.682 Y95.495 E1.81778
G1 X93.794 Y95.383 E1.82042
G0 F1500 X94.076 Y95.665
G1 F900 X94.483 Y95.316 E1.82934
G1 X94.937 Y95.03 E1.83826
G1 X95.428 Y94.815 E1.84717
G1 X95.946 Y94.675 E1.8561
G1 X96.498 Y94.613 E1.86533
G1 X97.006 Y94.6 E1.87378
G1 X99.615 Y94.594 E1.91717
G1 X101.031 Y94.614 E1.94072
G1 X103.776 Y94.614 E1.98637
G1 X104.508 Y94.598 E1.99855
G1 X105.064 Y94.593 E2.00779
G1 X108.291 Y94.593 E2.06146
G1 X109.311 Y94.607 E2.07842
G1 X110.592 Y94.656 E2.09974
G1 X111.293 Y94.752 E2.11151
G1 X111.756 Y94.864 E2.11943
G1 X113.421 Y95.287 E2.148
G1 X114.188 Y95.542 E2.16144
G1 X114.451 Y95.654 E2.1662
G1 X115.485 Y96.086 E2.18483
G1 X115.928 Y96.294 E2.19297
G1 X116.755 Y96.743 E2.20862
G1 X117.334 Y97.066 E2.21965
G1 X117.898 Y97.444 E2.23094
G1 X118.477 Y97.86 E2.24279
G1 X118.888 Y98.172 E2.25137
G1 X119.345 Y98.539 E2.26112
G1 X119.477 Y98.651 E2.264
G1 X120.093 Y99.2 E2.27772
G1 X120.377 Y99.468 E2.28422
G1 X120.878 Y99.957 E2.29586
G1 X121.401 Y100.557 E2.3091
G1 X121.805 Y101.061 E2.31984
G1 X122.185 Y101.575 E2.33047
G1 X122.625 Y102.222 E2.34348
G1 X122.9 Y102.665 E2.35215
G1 X123.09 Y103.021 E2.35886
G1 X123.405 Y103.704 E2.37137
G1 X123.671 Y104.301 E2.38224
G1 X123.983 Y105.029 E2.39541
G1 X124.063 Y105.232 E2.39904
G1 X124.484 Y106.406 E2.41978
G1 X124.553 Y106.618 E2.42349
G1 X124.889 Y107.78 E2.4436
G1 X125.091 Y108.458 E2.45537
G1 X125.203 Y108.96 E2.46392
G1 X125.288 Y109.537 E2.47362
G1 X125.349 Y110.055 E2.48229
G1 X125.376 Y110.537 E2.49032
G1 X125.407 Y112.075 E2.51591
G1 X125.407 Y120.39 E2.65418
G1 X125.402 Y122.708 E2.69273
G1 X125.39 Y123.437 E2.70486
G1 X125.341 Y123.971 E2.71378
G1 X125.213 Y124.492 E2.7227
G1 X125.01 Y124.988 E2.73161
G1 X124.735 Y125.449 E2.74054
G1 X124.336 Y125.924 E2.75085
G1 X124.224 Y126.036 E2.75349
G1 X123.817 Y126.385 E2.7624
G1 X123.363 Y126.671 E2.77133
G1 X122.872 Y126.886 E2.78024
G1 X122.354 Y127.026 E2.78916
G1 X121.8 Y127.088 E2.79843
G1 X121.165 Y127.1 E2.809
G1 X120.063 Y127.1 E2.82732
G1 X119.934 Y127.105 E2.82947
G1 X119.131 Y127.106 E2.84282
G1 X119.049 Y127.1 E2.84419
G1 X118.036 Y127.1 E2.86104
G1 X117.875 Y127.107 E2.86372
G1 X117.084 Y127.11 E2.87687
G1 X116.943 Y127.1 E2.87922
G1 X115.973 Y127.1 E2.89535
G1 X115.271 Y127.09 E2.90703
G1 X114.737 Y127.042 E2.91595
G1 X114.215 Y126.916 E2.92488
G1 X113.719 Y126.713 E2.93379
G1 X113.258 Y126.439 E2.94271
G1 X112.788 Y126.047 E2.95288
G1 X112.358 Y125.576 E2.96349
G1 X112.148 Y125.304 E2.96921
G1 X110.416 Y123.128 E3.01546
G1 X108.656 Y121.039 E3.06088
G1 X106.846 Y119.012 E3.10607
G1 X104.989 Y117.045 E3.15106
G1 X103.025 Y115.081 E3.19725
G1 X101.07 Y113.231 E3.24201
G1 X99.045 Y111.425 E3.28713
G1 X96.921 Y109.631 E3.33337
G1 X95.47 Y108.466 E3.36432
G1 X94.396 Y107.62 E3.38705
G1 X93.964 Y107.224 E3.3968
G1 X93.615 Y106.817 E3.40571
G1 X93.329 Y106.363 E3.41464
G1 X93.114 Y105.872 E3.42355
G1 X92.974 Y105.354 E3.43247
G1 X92.912 Y104.8 E3.44175
G1 X92.9 Y104.125 E3.45297
G1 X92.9 Y103.063 E3.47063
G1 X92.895 Y102.934 E3.47278
G1 X92.894 Y102.131 E3.48613
G1 X92.9 Y102.049 E3.4875
G1 X92.9 Y101.006 E3.50485
G1 X92.895 Y100.877 E3.50699
G1 X92.894 Y100.074 E3.52035
G1 X92.9 Y99.992 E3.52172
G1 X92.9 Y98.952 E3.53901
G1 X92.91 Y98.27 E3.55035
G1 X92.958 Y97.736 E3.55927
G1 X93.085 Y97.215 E3.56819
G1 X93.287 Y96.718 E3.57711
G1 X93.562 Y96.257 E3.58604
G1 X93.964 Y95.777 E3.59645
G1 X94.076 Y95.665 E3.59908
G0 F1500 X94.359 Y95.948
G1 F900 X94.744 Y95.62 E3.60749
G1 X95.175 Y95.357 E3.61589
G1 X95.643 Y95.164 E3.62431
G1 X96.135 Y95.048 E3.63272
G1 X96.744 Y95.005 E3.64287
G1 X97.051 Y95 E3.64797
G1 X99.609 Y94.994 E3.69051
G1 X101.025 Y95.014 E3.71406
G1 X103.785 Y95.014 E3.75996
G1 X104.511 Y94.998 E3.77204
G1 X105.067 Y94.993 E3.78129
G1 X108.286 Y94.993 E3.83482
G1 X109.386 Y95.009 E3.85311
G1 X110.577 Y95.055 E3.87293
G1 X111.199 Y95.141 E3.88338
G1 X111.658 Y95.252 E3.89123
G1 X113.323 Y95.675 E3.9198
G1 X114.031 Y95.91 E3.9322
G1 X114.294 Y96.022 E3.93696
G1 X115.324 Y96.452 E3.95552
G1 X115.737 Y96.646 E3.96311
G1 X116.547 Y97.086 E3.97844
G1 X117.118 Y97.403 E3.9893
G1 X117.673 Y97.775 E4.00041
G1 X118.244 Y98.184 E4.01209
G1 X118.646 Y98.49 E4.02049
G1 X119.094 Y98.85 E4.03005
G1 X119.212 Y98.95 E4.03262
G1 X119.754 Y99.432 E4.04468
G1 X120.097 Y99.754 E4.05251
G1 X120.598 Y100.243 E4.06415
G1 X121.093 Y100.812 E4.07669
G1 X121.564 Y101.403 E4.08926
G1 X121.854 Y101.799 E4.09742
G1 X122.294 Y102.446 E4.11044
G1 X122.558 Y102.872 E4.11877
G1 X122.727 Y103.19 E4.12476
G1 X123.04 Y103.867 E4.13716
G1 X123.303 Y104.458 E4.14792
G1 X123.615 Y105.186 E4.16109
G1 X123.686 Y105.367 E4.16432
G1 X124.107 Y106.541 E4.18507
G1 X124.168 Y106.73 E4.18837
G1 X124.499 Y107.87 E4.20811
G1 X124.708 Y108.572 E4.22029
G1 X124.807 Y109.019 E4.2279
G1 X124.892 Y109.596 E4.2376
G1 X124.951 Y110.1 E4.24604
G1 X124.976 Y110.545 E4.25345
G1 X125.007 Y112.075 E4.2789
G1 X125.007 Y120.389 E4.41717
G1 X125.002 Y122.702 E4.45563
G1 X124.99 Y123.431 E4.46776
G1 X124.941 Y123.934 E4.47616
G1 X124.814 Y124.423 E4.48456
G1 X124.612 Y124.887 E4.49298
G1 X124.339 Y125.312 E4.50138
G1 X123.941 Y125.753 E4.51126
G1 X123.556 Y126.081 E4.51967
G1 X123.125 Y126.344 E4.52807
G1 X122.657 Y126.537 E4.53648
G1 X122.165 Y126.653 E4.54489
G1 X121.638 Y126.693 E4.55368
G1 X121.16 Y126.7 E4.56163
G1 X120.001 Y126.7 E4.5809
G1 X119.934 Y126.705 E4.58202
G1 X119.131 Y126.706 E4.59538
G1 X119.053 Y126.7 E4.59668
G1 X117.938 Y126.7 E4.61522
G1 X117.873 Y126.707 E4.61631
G1 X117.082 Y126.71 E4.62946
G1 X116.949 Y126.7 E4.63168
G1 X115.978 Y126.7 E4.64783
G1 X115.276 Y126.69 E4.6595
G1 X114.773 Y126.643 E4.6679
G1 X114.283 Y126.517 E4.67632
G1 X113.82 Y126.315 E4.68472
G1 X113.393 Y126.044 E4.69313
G1 X112.955 Y125.65 E4.70293
G1 X112.431 Y125.017 E4.71659
G1 X110.72 Y122.867 E4.76229
G1 X108.961 Y120.78 E4.80768
G1 X107.151 Y118.753 E4.85287
G1 X105.263 Y116.753 E4.89861
G1 X103.319 Y114.809 E4.94433
G1 X101.327 Y112.924 E4.98993
G1 X99.306 Y111.121 E5.03498
G1 X97.165 Y109.313 E5.08158
G1 X95.718 Y108.152 E5.11243
G1 X94.644 Y107.306 E5.13517
G1 X94.247 Y106.941 E5.14413
G1 X93.919 Y106.556 E5.15255
G1 X93.656 Y106.125 E5.16094
G1 X93.463 Y105.657 E5.16936
G1 X93.347 Y105.165 E5.17777
G1 X93.307 Y104.638 E5.18656
G1 X93.3 Y104.121 E5.19515
G1 X93.3 Y103.001 E5.21378
G1 X93.295 Y102.934 E5.2149
G1 X93.294 Y102.131 E5.22825
G1 X93.3 Y102.053 E5.22955
G1 X93.3 Y100.944 E5.248
G1 X93.295 Y100.877 E5.24911
G1 X93.294 Y100.074 E5.26247
G1 X93.3 Y99.996 E5.26377
G1 X93.3 Y98.958 E5.28103
G1 X93.31 Y98.276 E5.29237
G1 X93.358 Y97.773 E5.30078
G1 X93.484 Y97.283 E5.30919
G1 X93.685 Y96.819 E5.3176
G1 X93.957 Y96.393 E5.326
G1 X94.359 Y95.948 E5.33598
G1 F1800 E-1.66402
G1 F300 Z0.3
G0 F1500 X96.7 Y98.401 Z0.3
;TYPE:SUPPORT
G1 F300 Z0.1
G1 F1800 E5.33598
G1 F900 X100.217 Y98.394 E5.39446
G1 X100.599 Y98.511 E5.40111
G1 X104.268 Y98.511 E5.46212
G1 X104.65 Y98.393 E5.46877
G1 X108.935 Y98.393 E5.54003
G1 X109.17 Y98.409 E5.54395
G1 X110.422 Y98.441 E5.56478
G1 X111.605 Y98.767 E5.58518
G1 X112.62 Y98.996 E5.60249
G1 X113.511 Y99.391 E5.6187
G1 X114.167 Y99.647 E5.63041
G1 X114.67 Y99.938 E5.64007
G1 X115.284 Y100.253 E5.65155
G1 X116.263 Y100.938 E5.67142
G1 X116.355 Y101.005 E5.67331
G1 X116.814 Y101.365 E5.68301
G1 X117.294 Y101.78 E5.69356
G1 X118.233 Y102.671 E5.71509
G1 X118.615 Y103.166 E5.72549
G1 X118.853 Y103.44 E5.73152
G1 X119.407 Y104.23 E5.74757
G1 X119.658 Y104.629 E5.75541
G1 X120.47 Y106.453 E5.78861
G1 X120.741 Y107.162 E5.80124
G1 X120.936 Y107.745 E5.81146
G1 X121.313 Y109.156 E5.83575
G1 X121.461 Y109.548 E5.84271
G1 X121.584 Y110.494 E5.85858
G1 X121.607 Y111.065 E5.86808
G1 X121.607 Y120.382 E6.02303
G1 X121.6 Y123.3 E6.07155
G1 X120.248 Y123.3 E6.09404
G1 X120.259 Y120.902 E6.13391
G1 X120.263 Y111.494 E6.29037
G1 X120.248 Y110.927 E6.2998
G1 X120.207 Y110.345 E6.30951
G1 X120.138 Y109.802 E6.31861
G1 X120.138 Y109.789 E6.31882
G1 X120.038 Y109.207 E6.32865
G1 X119.898 Y108.6 E6.339
G1 X119.754 Y108.081 E6.34796
G1 X119.579 Y107.546 E6.35732
G1 X119.365 Y106.99 E6.36723
G1 X119.128 Y106.462 E6.37686
G1 X118.867 Y105.941 E6.38655
G1 X118.859 Y105.93 E6.38677
G1 X118.584 Y105.443 E6.39607
G1 X118.271 Y104.95 E6.40578
G1 X117.947 Y104.491 E6.41513
G1 X117.589 Y104.034 E6.42478
G1 X117.223 Y103.608 E6.43412
G1 X116.812 Y103.175 E6.44405
G1 X116.396 Y102.78 E6.45359
G1 X115.958 Y102.403 E6.4632
G1 X115.501 Y102.047 E6.47283
G1 X115.039 Y101.721 E6.48224
G1 X114.557 Y101.416 E6.49172
G1 X114.045 Y101.126 E6.50151
G1 X114.027 Y101.119 E6.50183
G1 X113.511 Y100.858 E6.51145
G1 X112.999 Y100.632 E6.52075
G1 X112.459 Y100.423 E6.53038
G1 X111.911 Y100.242 E6.53998
G1 X111.374 Y100.095 E6.54924
G1 X111.363 Y100.091 E6.54943
G1 X110.789 Y99.961 E6.55922
G1 X110.231 Y99.865 E6.56864
G1 X109.643 Y99.793 E6.57849
G1 X109.076 Y99.752 E6.58794
G1 X108.496 Y99.737 E6.59759
G1 X99.098 Y99.742 E6.75388
G1 X96.7 Y99.752 E6.79376
G1 X96.7 Y98.401 E6.81623
G0 F1500 X96.86 Y98.679
G1 F900 X110.685 Y98.679 E7.04614
G0 F1500 X109.347 Y98.574
G1 F900 X109.347 Y99.611 E7.06338
G1 F1800 E0.06338
G1 F300 Z0.3
G0 F1500 X106.68 Y99.578 Z0.3
G1 F300 Z0.1
G1 F1800 E7.06338
G1 F900 X106.68 Y98.553 E7.08043
G1 F1800 E0.08043
G1 F300 Z0.3
G0 F1500 X104.013 Y98.671 Z0.3
G1 F300 Z0.1
G1 F1800 E7.08043
G1 F900 X104.013 Y99.58 E7.09555
G1 F1800 E0.09555
G1 F300 Z0.3
G0 F1500 X101.346 Y99.581 Z0.3
G1 F300 Z0.1
G1 F1800 E7.09555
G1 F900 X101.346 Y98.671 E7.11068
G1 F1800 E0.11068
G1 F300 Z0.3
G0 F1500 X98.679 Y98.557 Z0.3
G1 F300 Z0.1
G1 F1800 E7.11068
G1 F900 X98.679 Y99.584 E7.12776
G1 F1800 E0.12776
G1 F300 Z0.3
G0 F1500 X112.014 Y100.107 Z0.3
G1 F300 Z0.1
G1 F1800 E7.12776
G1 F900 X112.014 Y99.023 E7.14579
G1 F1800 E0.14579
G1 F300 Z0.3
G0 F1500 X114.681 Y100.124 Z0.3
G1 F300 Z0.1
G1 F1800 E7.14579
G1 F900 X114.681 Y101.305 E7.16543
G1 X114.745 Y101.346
G1 X116.531 Y101.346 E7.19513
G0 F1500 X117.348 Y102.052
G1 F900 X117.348 Y103.508 E7.21934
G0 F1500 X117.776 Y104.013
G1 F900 X119.06 Y104.013 E7.24069
G1 F1800 E0.24069
G1 F300 Z0.3
G0 F1500 X120.015 Y105.825 Z0.3
G1 F300 Z0.1
G1 F1800 E7.24069
G1 F900 X120.015 Y108.424 E7.28391
G0 F1500 X120.224 Y109.347
G1 F900 X121.215 Y109.347 E7.30039
G1 F1800 E0.30039
G1 F300 Z0.3
G0 F1500 X121.447 Y112.014 Z0.3
G1 F300 Z0.1
G1 F1800 E7.30039
G1 F900 X120.423 Y112.014 E7.31742
G1 F1800 E0.31742
G1 F300 Z0.3
G0 F1500 X120.422 Y114.681 Z0.3
G1 F300 Z0.1
G1 F1800 E7.31742
G1 F900 X121.447 Y114.681 E7.33447
G1 F1800 E0.33447
G1 F300 Z0.3
G0 F1500 X121.447 Y117.348 Z0.3
G1 F300 Z0.1
G1 F1800 E7.33447
G1 F900 X120.421 Y117.348 E7.35153
G1 F1800 E0.35153
G1 F300 Z0.3
G0 F1500 X120.419 Y120.015 Z0.3
G1 F300 Z0.1
G1 F1800 E7.35153
G1 F900 X121.446 Y120.015 E7.36861
G1 F1800 E0.36861
G1 F300 Z0.3
G0 F1500 X121.44 Y122.682 Z0.3
G1 F300 Z0.1
G1 F1800 E7.36861
G1 F900 X120.411 Y122.682 E7.38572
G1 F1800 E0.38572
G1 F300 Z0.3
G0 F1500 X120.386 Y106.68 Z0.3
G1 F300 Z0.1
G1 F1800 E7.38572
G1 F900 X119.402 Y106.68 E7.40209
G1 F1800 E0.40209
G1 F300 Z0.3
G0 F1500 X116.116 Y108.352 Z0.3
G1 F300 Z0.1
G1 F1800 E7.40209
G1 F900 X116.379 Y109.09 E7.41512
G1 X116.58 Y109.893 E7.42888
G1 X116.698 Y110.689 E7.44226
G1 X116.74 Y111.508 E7.4559
G1 X116.739 Y117.355 E7.55314
G1 X116.744 Y121.531 E7.62259
G1 X116.752 Y123.3 E7.652
G1 X115.4 Y123.3 E7.67449
