;FLAVOR:Marlin
;TIME:8899
;Filament used: 4.75832m
;Layer height: 0.2
;MINX:58.323
;MINY:76.242
;MINZ:0.2
;MAXX:158.357
;MAXY:143.758
;MAXZ:10
;Generated with Cura_SteamEngine master
M82 ;absolute extrusion mode
;Sliced at: Fri 10-11-2023 19:58:33
;Basic settings: Layer height: 0.2 Walls: 0.8 Fill: 20
G21 ;metric values
G90 ;absolute positioning
M82 ;set extruder to absolute mode
M107 ;start with the fan off
M117 Start heating ...
M104 S200
M117 Homing X/Y ...
G28 X0 Y0 ;move X/Y to min endstops
M117 Homing Z ...
G28 Z0 ;move Z to min endstops
G1 Z15.0 F100 ;move the platform down 15mm
M117 Heating ...
M109 S200
M117 Start cleaning ...
G92 E0 ;zero the extruded length
G1 F200 E10 ;extrude 10mm of feed stock
G92 E0 ;zero the extruded length again
M117 Intro line ...
G1 Z2.0 F3000 ; Move Z Axis up little to prevent scratching of Heat Bed
G1 X0.1 Y20 Z0.2 F5000.0 ; Move to start position
G1 X0.1 Y200.0 Z0.2 F1500.0 E15 ; Draw the first line
G1 X0.4 Y200.0 Z0.2 F5000.0 ; Move to side a little
G1 X0.4 Y20 Z0.3 F1500.0 E30 ; Draw the second line
G92 E0 ; Reset Extruder
G1 E-1 F500 ; Retract filiment by 1 mm
G1 Z2.0 F3000 ; Move Z Axis up little to prevent scratching of Heat Bed
G1 X5 Y20 Z0.3 F100 ; Move over to prevent blob squish
G1 F100
G92 E0 ; Reset Extruder
M117 Printing...

G92 E0
G92 E0
G1 F1800 E-7
;LAYER_COUNT:49
;LAYER:0
M107
G1 F300 Z0.4
G0 F3000 X64.841 Y78.25 Z0.4
;TYPE:SKIRT
G1 F300 Z0.2
G1 F1800 E0
G1 F1200 X65.466 Y77.782 E0.02597
G1 X66.202 Y77.33 E0.0547
G1 X66.863 Y77.003 E0.07922
G1 X67.187 Y76.87 E0.09087
G1 X67.663 Y76.698 E0.10771
G1 X68.423 Y76.483 E0.13398
G1 X69.185 Y76.342 E0.15975
G1 X69.552 Y76.299 E0.17204
G1 X70.074 Y76.263 E0.18944
G1 X70.877 Y76.243 E0.21616
G1 X148.949 Y76.242 E2.81285
G1 X149.802 Y76.254 E2.84122
G1 X150.413 Y76.294 E2.86159
G1 X151.236 Y76.41 E2.88923
G1 X151.981 Y76.588 E2.91471
G1 X152.791 Y76.859 E2.94311
G1 X153.528 Y77.188 E2.96996
G1 X154.226 Y77.579 E2.99657
G1 X154.841 Y78.002 E3.02139
G1 X155.243 Y78.322 E3.03848
G1 X155.814 Y78.847 E3.06428
G1 X156.349 Y79.439 E3.09082
G1 X156.809 Y80.052 E3.11631
G1 X157.013 Y80.365 E3.12874
G1 X157.27 Y80.803 E3.14563
G1 X157.598 Y81.467 E3.17026
G1 X157.727 Y81.781 E3.18155
G1 X157.9 Y82.258 E3.19843
G1 X158.117 Y83.023 E3.22488
G1 X158.258 Y83.78 E3.25049
G1 X158.301 Y84.151 E3.26291
G1 X158.337 Y84.675 E3.28038
G1 X158.357 Y85.435 E3.30567
G1 X158.357 Y134.349 E4.93255
G1 X158.345 Y135.199 E4.96083
G1 X158.307 Y135.791 E4.98056
G1 X158.187 Y136.647 E5.0093
G1 X158.013 Y137.378 E5.0343
G1 X157.74 Y138.194 E5.06292
G1 X157.414 Y138.924 E5.08951
G1 X157.023 Y139.623 E5.11615
G1 X156.599 Y140.239 E5.14102
G1 X156.28 Y140.64 E5.15806
G1 X155.75 Y141.217 E5.18412
G1 X155.159 Y141.75 E5.21059
G1 X154.533 Y142.219 E5.23661
G1 X153.798 Y142.67 E5.26529
G1 X153.137 Y142.997 E5.28982
G1 X152.813 Y143.13 E5.30146
G1 X152.337 Y143.302 E5.3183
G1 X151.577 Y143.517 E5.34457
G1 X150.815 Y143.658 E5.37034
G1 X150.448 Y143.701 E5.38263
G1 X149.926 Y143.737 E5.40004
G1 X149.123 Y143.757 E5.42675
G1 X71.051 Y143.758 E8.02344
G1 X70.199 Y143.746 E8.05178
G1 X69.585 Y143.706 E8.07224
G1 X68.764 Y143.59 E8.09982
G1 X68.019 Y143.412 E8.1253
G1 X67.209 Y143.141 E8.1537
G1 X66.472 Y142.812 E8.18055
G1 X65.77 Y142.418 E8.20732
G1 X65.158 Y141.997 E8.23203
G1 X64.755 Y141.676 E8.24917
G1 X64.183 Y141.149 E8.27503
G1 X63.649 Y140.558 E8.30153
G1 X63.181 Y139.933 E8.3275
G1 X62.983 Y139.628 E8.33959
G1 X62.729 Y139.195 E8.35629
G1 X62.409 Y138.55 E8.38024
G1 X62.339 Y138.393 E8.38595
G1 X61.17 Y135.576 E8.48739
G1 X60.06 Y133.1 E8.57764
G1 X58.967 Y130.828 E8.6615
G1 X58.738 Y130.367 E8.67862
G1 X58.523 Y129.845 E8.6974
G1 X58.383 Y129.297 E8.71621
G1 X58.323 Y128.735 E8.73501
G1 X58.371 Y127.947 E8.76126
G1 X58.473 Y127.322 E8.78233
G1 X58.757 Y125.717 E8.83654
G1 X59.15 Y123.053 E8.9261
G1 X59.473 Y120.35 E9.01664
G1 X59.72 Y117.617 E9.10791
G1 X59.885 Y114.952 E9.19672
G1 X59.977 Y112.211 E9.28794
G1 X59.992 Y109.502 E9.37804
G1 X59.929 Y106.793 E9.46817
G1 X59.79 Y104.056 E9.55932
G1 X59.577 Y101.389 E9.64831
G1 X59.283 Y98.665 E9.73943
G1 X58.915 Y95.979 E9.8296
G1 X58.466 Y93.278 E9.92067
G1 X58.387 Y92.843 E9.93538
G1 X58.326 Y92.281 E9.95418
G1 X58.374 Y91.489 E9.98057
G1 X58.396 Y91.353 E9.98515
G1 X58.559 Y90.702 E10.00747
G1 X58.746 Y90.154 E10.02673
G1 X59.12 Y89.1 E10.06393
G1 X59.367 Y88.434 E10.08756
G1 X59.495 Y88.128 E10.09859
G1 X59.813 Y87.449 E10.12353
G1 X60.961 Y84.91 E10.2162
G1 X62.425 Y81.416 E10.3422
G1 X62.795 Y80.685 E10.36945
G1 X63.183 Y80.062 E10.39386
G1 X63.401 Y79.761 E10.40623
G1 X63.72 Y79.36 E10.42327
G1 X64.25 Y78.783 E10.44933
G1 X64.841 Y78.25 E10.4758
G0 F3000 X65.102 Y78.553
G1 F1200 X65.699 Y78.107 E10.50058
G1 X66.405 Y77.675 E10.52811
G1 X67.031 Y77.366 E10.55133
G1 X67.323 Y77.246 E10.56183
G1 X67.799 Y77.074 E10.57866
G1 X68.524 Y76.87 E10.60371
G1 X69.25 Y76.737 E10.62826
G1 X69.579 Y76.699 E10.63928
G1 X70.101 Y76.663 E10.65668
G1 X70.882 Y76.643 E10.68267
G1 X148.944 Y76.642 E13.27902
G1 X149.797 Y76.654 E13.30739
G1 X150.365 Y76.691 E13.32632
G1 X151.151 Y76.801 E13.35272
G1 X151.861 Y76.969 E13.37699
G1 X152.637 Y77.228 E13.4042
G1 X153.34 Y77.54 E13.42978
G1 X154.007 Y77.914 E13.45521
G1 X154.592 Y78.315 E13.4788
G1 X154.994 Y78.635 E13.49589
G1 X155.537 Y79.136 E13.52047
G1 X156.046 Y79.701 E13.54576
G1 X156.485 Y80.286 E13.57008
G1 X156.668 Y80.567 E13.58124
G1 X156.925 Y81.005 E13.59813
G1 X157.235 Y81.634 E13.62145
G1 X157.351 Y81.918 E13.63166
G1 X157.524 Y82.395 E13.64853
G1 X157.73 Y83.124 E13.67373
G1 X157.863 Y83.845 E13.69811
G1 X157.902 Y84.178 E13.70926
G1 X157.938 Y84.702 E13.72673
G1 X157.957 Y85.44 E13.75129
G1 X157.957 Y134.344 E15.37784
G1 X157.945 Y135.194 E15.40612
G1 X157.91 Y135.744 E15.42445
G1 X157.796 Y136.562 E15.45192
G1 X157.631 Y137.259 E15.47574
G1 X157.371 Y138.039 E15.50308
G1 X157.061 Y138.735 E15.52843
G1 X156.688 Y139.404 E15.5539
G1 X156.286 Y139.99 E15.57754
G1 X155.967 Y140.391 E15.59458
G1 X155.462 Y140.939 E15.61937
G1 X154.897 Y141.448 E15.64466
G1 X154.3 Y141.894 E15.66944
G1 X153.595 Y142.325 E15.69693
G1 X152.969 Y142.634 E15.72015
G1 X152.677 Y142.754 E15.73065
G1 X152.201 Y142.926 E15.74748
G1 X151.476 Y143.13 E15.77253
G1 X150.75 Y143.263 E15.79708
G1 X150.421 Y143.301 E15.80809
G1 X149.899 Y143.337 E15.8255
G1 X149.118 Y143.357 E15.85148
G1 X71.056 Y143.358 E18.44784
G1 X70.204 Y143.346 E18.47618
G1 X69.633 Y143.309 E18.49521
G1 X68.849 Y143.199 E18.52154
G1 X68.139 Y143.031 E18.54581
G1 X67.363 Y142.772 E18.57301
G1 X66.661 Y142.46 E18.59857
G1 X65.989 Y142.084 E18.62418
G1 X65.407 Y141.684 E18.64767
G1 X65.004 Y141.363 E18.6648
G1 X64.46 Y140.861 E18.68942
G1 X63.952 Y140.297 E18.71467
G1 X63.506 Y139.7 E18.73945
G1 X63.328 Y139.426 E18.75032
G1 X63.074 Y138.993 E18.76702
G1 X62.771 Y138.381 E18.78973
G1 X62.709 Y138.24 E18.79485
G1 X61.541 Y135.425 E18.89622
G1 X60.42 Y132.926 E18.98732
G1 X59.328 Y130.655 E19.07113
G1 X59.096 Y130.189 E19.08844
G1 X58.894 Y129.693 E19.10626
G1 X58.768 Y129.171 E19.12412
G1 X58.72 Y128.637 E19.14195
G1 X58.766 Y128.011 E19.16283
G1 X58.867 Y127.392 E19.18369
G1 X59.152 Y125.779 E19.23817
G1 X59.545 Y123.118 E19.32763
G1 X59.873 Y120.366 E19.41981
G1 X60.117 Y117.679 E19.50955
G1 X60.286 Y114.953 E19.60039
G1 X60.377 Y112.227 E19.69111
G1 X60.392 Y109.495 E19.78198
G1 X60.329 Y106.762 E19.8729
G1 X60.192 Y104.077 E19.96232
G1 X59.971 Y101.312 E20.05458
G1 X59.682 Y98.639 E20.144
G1 X59.307 Y95.897 E20.23605
G1 X58.86 Y93.206 E20.32678
G1 X58.781 Y92.771 E20.34148
G1 X58.725 Y92.238 E20.35931
G1 X58.769 Y91.553 E20.38214
G1 X58.791 Y91.417 E20.38672
G1 X58.937 Y90.831 E20.40681
G1 X59.123 Y90.288 E20.4259
G1 X59.495 Y89.239 E20.46291
G1 X59.742 Y88.573 E20.48654
G1 X59.857 Y88.298 E20.49645
G1 X60.198 Y87.57 E20.52319
G1 X61.323 Y85.081 E20.61404
G1 X62.794 Y81.571 E20.74062
G1 X63.148 Y80.873 E20.76665
G1 X63.518 Y80.281 E20.78987
G1 X63.714 Y80.01 E20.80099
G1 X64.033 Y79.609 E20.81804
G1 X64.538 Y79.061 E20.84282
G1 X65.102 Y78.553 E20.86807
G0 F3000 X65.364 Y78.855
G1 F1200 X65.932 Y78.432 E20.89162
G1 X66.607 Y78.02 E20.91793
G1 X67.199 Y77.729 E20.93987
G1 X67.459 Y77.622 E20.94922
G1 X67.935 Y77.45 E20.96605
G1 X68.624 Y77.257 E20.98985
G1 X69.314 Y77.131 E21.01318
G1 X69.607 Y77.098 E21.02299
G1 X70.228 Y77.056 E21.04369
G1 X70.886 Y77.043 E21.06558
G1 X148.938 Y77.042 E23.6616
G1 X149.791 Y77.054 E23.68997
G1 X150.317 Y77.088 E23.7075
G1 X151.067 Y77.192 E23.73269
G1 X151.742 Y77.351 E23.75575
G1 X152.482 Y77.597 E23.78169
G1 X153.151 Y77.893 E23.80602
G1 X153.787 Y78.248 E23.83025
G1 X154.343 Y78.628 E23.85264
G1 X154.745 Y78.948 E23.86973
G1 X155.259 Y79.424 E23.89303
G1 X155.744 Y79.963 E23.91715
G1 X156.16 Y80.519 E23.94025
G1 X156.323 Y80.77 E23.9502
G1 X156.58 Y81.208 E23.96709
G1 X156.872 Y81.802 E23.98911
G1 X156.975 Y82.054 E23.99816
G1 X157.148 Y82.531 E24.01504
G1 X157.343 Y83.224 E24.03898
G1 X157.468 Y83.909 E24.06214
G1 X157.502 Y84.206 E24.07208
G1 X157.544 Y84.827 E24.09278
G1 X157.557 Y85.444 E24.11331
G1 X157.557 Y134.338 E25.73953
G1 X157.545 Y135.188 E25.76781
G1 X157.513 Y135.696 E25.78474
G1 X157.405 Y136.478 E25.81099
G1 X157.25 Y137.14 E25.83361
G1 X157.002 Y137.884 E25.85969
G1 X156.709 Y138.547 E25.8838
G1 X156.353 Y139.185 E25.9081
G1 X155.973 Y139.741 E25.9305
G1 X155.654 Y140.142 E25.94754
G1 X155.174 Y140.662 E25.97108
G1 X154.636 Y141.145 E25.99512
G1 X154.067 Y141.569 E26.01873
G1 X153.393 Y141.98 E26.04498
G1 X152.801 Y142.271 E26.06692
G1 X152.541 Y142.378 E26.07627
G1 X152.065 Y142.55 E26.09311
G1 X151.376 Y142.743 E26.11691
G1 X150.686 Y142.869 E26.14024
G1 X150.393 Y142.902 E26.15004
G1 X149.772 Y142.944 E26.17074
G1 X149.114 Y142.957 E26.19263
G1 X71.062 Y142.958 E28.78865
G1 X70.21 Y142.946 E28.81699
G1 X69.681 Y142.912 E28.83462
G1 X68.933 Y142.808 E28.85974
G1 X68.258 Y142.649 E28.88281
G1 X67.518 Y142.403 E28.90874
G1 X66.85 Y142.107 E28.93305
G1 X66.209 Y141.75 E28.95745
G1 X65.656 Y141.371 E28.97975
G1 X65.253 Y141.05 E28.99688
G1 X64.737 Y140.573 E29.02025
G1 X64.254 Y140.035 E29.0443
G1 X63.831 Y139.467 E29.06786
G1 X63.673 Y139.223 E29.07753
G1 X63.419 Y138.79 E29.09422
G1 X63.134 Y138.212 E29.11566
G1 X63.078 Y138.086 E29.12024
G1 X61.904 Y135.256 E29.22215
G1 X60.788 Y132.768 E29.31284
G1 X59.688 Y130.481 E29.39725
G1 X59.454 Y130.011 E29.41471
G1 X59.266 Y129.542 E29.43152
G1 X59.154 Y129.049 E29.44833
G1 X59.12 Y128.545 E29.46513
G1 X59.161 Y128.075 E29.48082
G1 X59.261 Y127.461 E29.50152
G1 X59.544 Y125.864 E29.55546
G1 X59.948 Y123.122 E29.64764
G1 X60.268 Y120.444 E29.73735
G1 X60.515 Y117.707 E29.82875
G1 X60.686 Y114.957 E29.92039
G1 X60.777 Y112.242 E30.01074
G1 X60.792 Y109.488 E30.10234
G1 X60.729 Y106.769 E30.1928
G1 X60.589 Y104.024 E30.28422
G1 X60.37 Y101.273 E30.37601
G1 X60.078 Y98.574 E30.4663
G1 X59.709 Y95.882 E30.55667
G1 X59.245 Y93.087 E30.65091
G1 X59.175 Y92.7 E30.66399
G1 X59.124 Y92.197 E30.68081
G1 X59.164 Y91.617 E30.70014
G1 X59.186 Y91.481 E30.70472
G1 X59.316 Y90.96 E30.72258
G1 X59.5 Y90.421 E30.74153
G1 X59.87 Y89.378 E30.77834
G1 X60.117 Y88.712 E30.80196
G1 X60.219 Y88.468 E30.81076
G1 X60.56 Y87.74 E30.8375
G1 X61.693 Y85.234 E30.92897
G1 X63.163 Y81.725 E31.05551
G1 X63.501 Y81.061 E31.08029
G1 X63.853 Y80.5 E31.10231
G1 X64.027 Y80.259 E31.1122
G1 X64.346 Y79.858 E31.12924
G1 X64.826 Y79.338 E31.15278
G1 X65.364 Y78.855 E31.17683
G1 F1800 E24.17683
G1 F300 Z0.4
G0 F3000 X64.641 Y89.929 Z0.4
;TYPE:SUPPORT
G1 F300 Z0.2
G1 F1800 E31.17683
G1 F1200 X64.642 Y94.073 E31.31466
G1 X63.679 Y94.31 E31.34764
G1 X62.524 Y92.069 E31.4315
G1 X63.25 Y90.018 E31.50386
G1 X64.641 Y89.929 E31.55022
G0 F3000 X64.008 Y90.13
G1 F1200 X64.008 Y94.064 E31.68107
G0 F3000 X64.481 Y93.345
G1 F1200 X63.361 Y93.345 E31.71832
G1 F1800 E24.71832
G1 F300 Z0.4
G0 F3000 X63.186 Y90.678 Z0.4
G1 F300 Z0.2
G1 F1800 E31.71832
G1 F1200 X64.481 Y90.678 E31.76139
G1 F1800 E24.76139
G1 F300 Z0.4
G0 F3000 X64.642 Y126.43 Z0.4
G1 F300 Z0.2
G1 F1800 E31.76139
G1 F1200 X64.642 Y130.572 E31.89915
G1 X63.679 Y130.81 E31.93215
G1 X62.527 Y128.572 E32.01586
G1 X63.255 Y126.518 E32.08834
G1 X64.642 Y126.43 E32.13457
G0 F3000 X64.008 Y126.631
G1 F1200 X64.008 Y130.564 E32.26538
G1 F1800 E25.26538
G1 F300 Z0.4
G0 F3000 X64.481 Y128.016 Z0.4
G1 F300 Z0.2
G1 F1800 E32.26538
G1 F1200 X62.894 Y128.016 E32.31817
G1 F1800 E25.31817
G1 F300 Z0.4
;MESH:Bottom_Slots_SM.stl
G0 F3000 X143.443 Y129.735 Z0.4
;TYPE:WALL-INNER
G1 F300 Z0.2
G1 F1800 E32.31817
G1 F1200 X143.816 Y129.841 E32.33106
G1 X144.199 Y129.839 E32.3438
G1 X144.584 Y129.725 E32.35716
G1 X145.017 Y129.398 E32.3752
G1 X145.232 Y129.063 E32.38844
G1 X145.336 Y128.707 E32.40078
G1 X145.35 Y128.523 E32.40692
G1 X145.35 Y91.465 E33.63947
G1 X145.301 Y91.119 E33.65109
G1 X145.138 Y90.766 E33.66402
G1 X144.88 Y90.471 E33.67706
G1 X144.557 Y90.265 E33.6898
G1 X144.2 Y90.163 E33.70215
G1 X143.964 Y90.146 E33.71002
G1 X143.427 Y90.267 E33.72833
G1 X142.983 Y90.602 E33.74683
G1 X142.768 Y90.937 E33.76007
G1 X142.664 Y91.293 E33.7724
G1 X142.65 Y91.477 E33.77854
G1 X142.65 Y128.535 E35.01109
G1 X142.699 Y128.881 E35.02272
G1 X142.862 Y129.234 E35.03565
G1 X143.12 Y129.529 E35.04868
G1 X143.443 Y129.735 E35.06143
G0 F3000 X143.609 Y129.366
;TYPE:WALL-OUTER
G1 F1200 X143.871 Y129.441 E35.07049
G1 X144.14 Y129.439 E35.07944
G1 X144.401 Y129.362 E35.08849
G1 X144.719 Y129.122 E35.10174
G1 X144.864 Y128.896 E35.11067
G1 X144.94 Y128.635 E35.11971
G1 X144.95 Y128.507 E35.12398
G1 X144.95 Y91.493 E36.35507
G1 X144.913 Y91.233 E36.36381
G1 X144.799 Y90.986 E36.37286
G1 X144.617 Y90.778 E36.38205
G1 X144.391 Y90.634 E36.39096
G1 X144.129 Y90.559 E36.40002
G1 X143.994 Y90.549 E36.40453
G1 X143.599 Y90.638 E36.41799
G1 X143.281 Y90.878 E36.43125
G1 X143.136 Y91.104 E36.44018
G1 X143.06 Y91.365 E36.44922
G1 X143.05 Y91.493 E36.45349
G1 X143.05 Y128.507 E37.68458
G1 X143.087 Y128.767 E37.69331
G1 X143.201 Y129.014 E37.70236
G1 X143.383 Y129.222 E37.71155
G1 X143.609 Y129.366 E37.72047
G0 F3000 X143.801 Y129.421
G0 X143.68 Y129.843
G1 F1800 E30.72047
G1 F300 Z0.4
G0 F3000 X143.635 Y129.997 Z0.4
G0 X139.443 Y129.735
;TYPE:WALL-INNER
G1 F300 Z0.2
G1 F1800 E37.72047
G1 F1200 X139.816 Y129.841 E37.73336
G1 X140.199 Y129.839 E37.7461
G1 X140.584 Y129.725 E37.75946
G1 X141.017 Y129.398 E37.7775
G1 X141.232 Y129.063 E37.79074
G1 X141.336 Y128.707 E37.80308
G1 X141.35 Y128.523 E37.80922
G1 X141.35 Y91.465 E39.04177
G1 X141.301 Y91.119 E39.05339
G1 X141.139 Y90.767 E39.06628
G1 X140.88 Y90.471 E39.07936
G1 X140.557 Y90.265 E39.09211
G1 X140.2 Y90.163 E39.10445
G1 X139.964 Y90.146 E39.11232
G1 X139.427 Y90.267 E39.13063
G1 X138.983 Y90.602 E39.14913
G1 X138.768 Y90.937 E39.16237
G1 X138.664 Y91.293 E39.17471
G1 X138.65 Y91.477 E39.18084
G1 X138.65 Y128.535 E40.4134
G1 X138.699 Y128.881 E40.42502
G1 X138.862 Y129.234 E40.43795
G1 X139.12 Y129.529 E40.45099
G1 X139.443 Y129.735 E40.46373
G0 F3000 X139.609 Y129.366
;TYPE:WALL-OUTER
G1 F1200 X139.871 Y129.441 E40.47279
G1 X140.14 Y129.439 E40.48174
G1 X140.401 Y129.362 E40.49079
G1 X140.719 Y129.122 E40.50404
G1 X140.864 Y128.896 E40.51297
G1 X140.94 Y128.635 E40.52202
G1 X140.95 Y128.507 E40.52629
G1 X140.95 Y91.493 E41.75738
G1 X140.913 Y91.233 E41.76611
G1 X140.8 Y90.987 E41.77512
G1 X140.617 Y90.778 E41.78436
G1 X140.391 Y90.634 E41.79327
G1 X140.129 Y90.559 E41.80233
G1 X139.994 Y90.549 E41.80683
G1 X139.599 Y90.638 E41.8203
G1 X139.281 Y90.878 E41.83355
G1 X139.136 Y91.104 E41.84248
G1 X139.06 Y91.365 E41.85152
G1 X139.05 Y91.493 E41.8558
G1 X139.05 Y128.507 E43.08689
G1 X139.087 Y128.767 E43.09562
G1 X139.201 Y129.014 E43.10467
G1 X139.383 Y129.222 E43.11386
G1 X139.609 Y129.366 E43.12277
G0 F3000 X139.801 Y129.421
G0 X139.68 Y129.843
G1 F1800 E36.12277
G1 F300 Z0.4
G0 F3000 X139.635 Y129.997 Z0.4
G0 X135.443 Y129.735
;TYPE:WALL-INNER
G1 F300 Z0.2
G1 F1800 E43.12277
G1 F1200 X135.816 Y129.841 E43.13567
G1 X136.199 Y129.839 E43.14841
G1 X136.584 Y129.725 E43.16176
G1 X137.017 Y129.398 E43.17981
G1 X137.232 Y129.063 E43.19305
G1 X137.336 Y128.707 E43.20539
