;FLAVOR:Marlin
;TIME:11600
;Filament used: 5.85875m
;Layer height: 0.2
;MINX:61.642
;MINY:76.243
;MINZ:0.2
;MAXX:160.974
;MAXY:145.537
;MAXZ:16.8
;Generated with Cura_SteamEngine master
M82 ;absolute extrusion mode
;Sliced at: Fri 10-11-2023 20:00:34
;Basic settings: Layer height: 0.2 Walls: 0.8 Fill: 20
G21 ;metric values
G90 ;absolute positioning
M82 ;set extruder to absolute mode
M107 ;start with the fan off
M117 Start heating ...
M104 S200
M117 Homing X/Y ...
G28 X0 Y0 ;move X/Y to min endstops
M117 Homing Z ...
G28 Z0 ;move Z to min endstops
G1 Z15.0 F100 ;move the platform down 15mm
M117 Heating ...
M109 S200
M117 Start cleaning ...
G92 E0 ;zero the extruded length
G1 F200 E10 ;extrude 10mm of feed stock
G92 E0 ;zero the extruded length again
M117 Intro line ...
G1 Z2.0 F3000 ; Move Z Axis up little to prevent scratching of Heat Bed
G1 X0.1 Y20 Z0.2 F5000.0 ; Move to start position
G1 X0.1 Y200.0 Z0.2 F1500.0 E15 ; Draw the first line
G1 X0.4 Y200.0 Z0.2 F5000.0 ; Move to side a little
G1 X0.4 Y20 Z0.3 F1500.0 E30 ; Draw the second line
G92 E0 ; Reset Extruder
G1 E-1 F500 ; Retract filiment by 1 mm
G1 Z2.0 F3000 ; Move Z Axis up little to prevent scratching of Heat Bed
G1 X5 Y20 Z0.3 F100 ; Move over to prevent blob squish
G1 F100
G92 E0 ; Reset Extruder
M117 Printing...

G92 E0
G92 E0
G1 F1800 E-7
;LAYER_COUNT:84
;LAYER:0
M107
G1 F300 Z0.4
G0 F3000 X65.047 Y78.081 Z0.4
;TYPE:SKIRT
G1 F300 Z0.2
G1 F1800 E0
G1 F1200 X65.631 Y77.668 E0.02379
G1 X66.117 Y77.371 E0.04273
G1 X66.787 Y77.039 E0.0676
G1 X67.437 Y76.77 E0.091
G1 X68.009 Y76.592 E0.11093
G1 X68.535 Y76.462 E0.12895
G1 X69.113 Y76.351 E0.14852
G1 X69.708 Y76.281 E0.16845
G1 X70.075 Y76.259 E0.18068
G1 X71.124 Y76.243 E0.21557
G1 X148.718 Y76.243 E2.79636
G1 X150.011 Y76.266 E2.83937
G1 X150.538 Y76.303 E2.85694
G1 X151.081 Y76.378 E2.87517
G1 X151.679 Y76.509 E2.89553
G1 X152.225 Y76.664 E2.91441
G1 X152.846 Y76.884 E2.93632
G1 X153.44 Y77.148 E2.95794
G1 X154.014 Y77.451 E2.97953
G1 X154.468 Y77.73 E2.99726
G1 X154.885 Y78.029 E3.01432
G1 X155.393 Y78.444 E3.03614
G1 X155.809 Y78.839 E3.05522
G1 X156.225 Y79.288 E3.07558
G1 X156.578 Y79.725 E3.09426
G1 X157.026 Y80.383 E3.12074
G1 X157.355 Y80.954 E3.14266
G1 X157.609 Y81.488 E3.16232
G1 X157.815 Y82.008 E3.18093
G1 X157.901 Y82.248 E3.18941
G1 X158.353 Y83.643 E3.23818
G1 X158.509 Y84.149 E3.25579
G1 X159.372 Y86.689 E3.34502
G1 X160.196 Y88.913 E3.4239
G1 X160.69 Y90.207 E3.46997
G1 X160.854 Y90.748 E3.48877
G1 X160.952 Y91.553 E3.51574
G1 X160.974 Y92.667 E3.5528
G1 X160.974 Y95.338 E3.64164
G1 X160.963 Y96.056 E3.66552
G1 X160.931 Y96.502 E3.68039
G1 X160.76 Y97.836 E3.72513
G1 X160.717 Y98.137 E3.73524
G1 X160.411 Y100.843 E3.82582
G1 X160.183 Y103.541 E3.91587
G1 X160.03 Y106.279 E4.00708
G1 X159.955 Y108.953 E4.09605
G1 X159.957 Y111.696 E4.18728
G1 X160.033 Y114.363 E4.27603
G1 X160.125 Y116.172 E4.33627
G1 X160.137 Y116.624 E4.35131
G1 X160.137 Y127.131 E4.70077
G1 X160.127 Y127.833 E4.72412
G1 X160.028 Y128.66 E4.75183
G1 X159.982 Y128.857 E4.75856
G1 X159.32 Y131.406 E4.84615
G1 X158.716 Y134.026 E4.93558
G1 X158.199 Y136.616 E5.02342
G1 X158.091 Y137.08 E5.03926
G1 X157.934 Y137.631 E5.05832
G1 X157.717 Y138.242 E5.07989
G1 X157.449 Y138.845 E5.10183
G1 X157.149 Y139.414 E5.12323
G1 X156.881 Y139.851 E5.14028
G1 X156.566 Y140.291 E5.15828
G1 X156.158 Y140.792 E5.17977
G1 X155.756 Y141.213 E5.19913
G1 X155.282 Y141.65 E5.22057
G1 X154.873 Y141.979 E5.23803
G1 X154.217 Y142.426 E5.26443
G1 X153.695 Y142.729 E5.2845
G1 X153.11 Y143.01 E5.30609
G1 X152.586 Y143.217 E5.32483
G1 X152.039 Y143.394 E5.34395
G1 X151.519 Y143.526 E5.36179
G1 X150.986 Y143.632 E5.37987
G1 X150.29 Y143.713 E5.40318
G1 X149.739 Y143.741 E5.42153
G1 X149.597 Y143.746 E5.42625
G1 X148.88 Y143.757 E5.4501
G1 X107.455 Y143.757 E6.8279
G1 X104.655 Y143.797 E6.92104
G1 X101.985 Y143.91 E7.00992
G1 X99.245 Y144.104 E7.10129
G1 X96.589 Y144.368 E7.19006
G1 X93.837 Y144.72 E7.28234
G1 X91.202 Y145.134 E7.37105
G1 X90.252 Y145.31 E7.40319
G1 X89.4 Y145.456 E7.43194
G1 X88.81 Y145.512 E7.45165
G1 X87.602 Y145.537 E7.49184
G1 X78.207 Y145.537 E7.80432
G1 X77.508 Y145.527 E7.82757
G1 X76.944 Y145.479 E7.84639
G1 X76.562 Y145.399 E7.85937
G1 X73.804 Y144.684 E7.95414
G1 X71.137 Y144.071 E8.04516
G1 X68.839 Y143.612 E8.1231
G1 X68.095 Y143.439 E8.1485
G1 X67.503 Y143.251 E8.16916
G1 X67.222 Y143.142 E8.17919
G1 X66.703 Y142.919 E8.19797
G1 X66.057 Y142.59 E8.22209
G1 X65.655 Y142.341 E8.23781
G1 X65.226 Y142.046 E8.25513
G1 X64.735 Y141.665 E8.2758
G1 X64.181 Y141.151 E8.30094
G1 X63.766 Y140.703 E8.32125
G1 X63.338 Y140.154 E8.3444
G1 X63.192 Y139.944 E8.35291
G1 X62.912 Y139.512 E8.37003
G1 X62.631 Y139.02 E8.38888
G1 X62.288 Y138.276 E8.41612
G1 X62.11 Y137.796 E8.43315
G1 X61.92 Y137.144 E8.45574
G1 X61.753 Y136.303 E8.48426
G1 X61.674 Y135.552 E8.50937
G1 X61.662 Y135.262 E8.51903
G1 X61.642 Y134.112 E8.55728
G1 X61.643 Y116.399 E9.14642
G1 X61.653 Y115.689 E9.17004
G1 X61.675 Y115.149 E9.18801
G1 X61.791 Y113.091 E9.25657
G1 X61.868 Y110.416 E9.34558
G1 X61.868 Y107.672 E9.43684
G1 X61.793 Y104.981 E9.52638
G1 X61.717 Y103.47 E9.5767
G1 X61.659 Y102.466 E9.61015
G1 X61.643 Y101.921 E9.62828
G1 X61.643 Y98.399 E9.74543
G1 X61.653 Y97.704 E9.76854
G1 X61.66 Y97.533 E9.77424
G1 X61.824 Y94.682 E9.86922
G1 X61.901 Y91.979 E9.95916
G1 X61.901 Y89.235 E10.05042
G1 X61.826 Y86.538 E10.14016
G1 X61.749 Y84.994 E10.19158
G1 X61.721 Y84.501 E10.208
G1 X61.728 Y83.935 E10.22683
G1 X61.855 Y83.163 E10.25285
G1 X62.024 Y82.502 E10.27554
G1 X62.196 Y81.977 E10.29392
G1 X62.408 Y81.45 E10.31281
G1 X62.826 Y80.637 E10.34321
G1 X63.086 Y80.207 E10.35993
G1 X63.482 Y79.654 E10.38255
G1 X63.912 Y79.133 E10.40502
G1 X64.18 Y78.853 E10.41791
G1 X64.59 Y78.463 E10.43673
G1 X65.047 Y78.081 E10.45654
G0 F3000 X65.294 Y78.396
G1 F1200 X65.854 Y78 E10.47935
G1 X66.316 Y77.717 E10.49737
G1 X66.959 Y77.4 E10.52122
G1 X67.564 Y77.149 E10.543
G1 X68.105 Y76.98 E10.56185
G1 X68.631 Y76.85 E10.57987
G1 X69.182 Y76.745 E10.59853
G1 X69.747 Y76.679 E10.61745
G1 X70.081 Y76.659 E10.62858
G1 X71.13 Y76.643 E10.66347
G1 X148.718 Y76.643 E13.24406
G1 X150.004 Y76.666 E13.28684
G1 X150.739 Y76.73 E13.31138
G1 X151.273 Y76.823 E13.32941
G1 X151.57 Y76.894 E13.33956
G1 X152.116 Y77.049 E13.35844
G1 X152.688 Y77.252 E13.37863
G1 X153.259 Y77.505 E13.3994
G1 X153.808 Y77.794 E13.42004
G1 X154.244 Y78.062 E13.43706
G1 X154.766 Y78.444 E13.45857
G1 X155.172 Y78.782 E13.47614
G1 X155.642 Y79.24 E13.49797
G1 X156.101 Y79.764 E13.52114
G1 X156.485 Y80.286 E13.54269
G1 X156.816 Y80.809 E13.56328
G1 X157.106 Y81.342 E13.58346
G1 X157.237 Y81.635 E13.59413
G1 X157.443 Y82.155 E13.61274
G1 X157.521 Y82.371 E13.62038
G1 X157.971 Y83.761 E13.66897
G1 X158.124 Y84.259 E13.6863
G1 X159.002 Y86.841 E13.777
G1 X159.835 Y89.089 E13.85674
G1 X160.316 Y90.35 E13.90163
G1 X160.47 Y90.864 E13.91948
G1 X160.552 Y91.561 E13.94282
G1 X160.574 Y92.667 E13.97961
G1 X160.574 Y95.332 E14.06825
G1 X160.563 Y96.05 E14.09213
G1 X160.534 Y96.452 E14.10554
G1 X160.364 Y97.779 E14.15004
G1 X160.318 Y98.102 E14.16089
G1 X160.012 Y100.801 E14.25123
G1 X159.783 Y103.521 E14.34202
G1 X159.632 Y106.208 E14.43153
G1 X159.555 Y108.978 E14.5237
G1 X159.557 Y111.672 E14.6133
G1 X159.637 Y114.454 E14.70587
G1 X159.725 Y116.184 E14.76348
G1 X159.737 Y116.624 E14.77812
G1 X159.737 Y127.125 E15.12739
G1 X159.727 Y127.827 E15.15074
G1 X159.638 Y128.572 E15.17569
G1 X159.594 Y128.756 E15.18198
G1 X158.937 Y131.287 E15.26896
G1 X158.32 Y133.962 E15.36026
G1 X157.808 Y136.533 E15.44745
G1 X157.706 Y136.971 E15.46241
G1 X157.549 Y137.522 E15.48147
G1 X157.349 Y138.085 E15.50134
G1 X157.093 Y138.664 E15.52239
G1 X156.806 Y139.208 E15.54285
G1 X156.49 Y139.716 E15.56275
G1 X156.146 Y140.18 E15.58196
G1 X155.81 Y140.581 E15.59936
G1 X155.344 Y141.056 E15.62149
G1 X154.813 Y141.519 E15.64493
G1 X154.314 Y141.885 E15.66551
G1 X153.801 Y142.21 E15.68571
G1 X153.357 Y142.456 E15.70259
G1 X152.963 Y142.638 E15.71702
G1 X152.439 Y142.845 E15.73576
G1 X151.941 Y143.006 E15.75317
G1 X151.421 Y143.138 E15.77102
G1 X150.916 Y143.238 E15.78814
G1 X150.27 Y143.313 E15.80977
G1 X149.591 Y143.346 E15.83238
G1 X148.874 Y143.357 E15.85623
G1 X107.449 Y143.357 E17.23403
G1 X104.668 Y143.396 E17.32654
G1 X101.94 Y143.512 E17.41735
G1 X99.21 Y143.706 E17.50838
G1 X96.535 Y143.971 E17.59779
G1 X93.795 Y144.321 E17.68966
G1 X91.139 Y144.739 E17.77909
G1 X90.184 Y144.915 E17.81138
G1 X89.332 Y145.061 E17.84013
G1 X88.801 Y145.112 E17.85788
G1 X87.602 Y145.137 E17.89776
G1 X78.213 Y145.137 E18.21004
G1 X77.514 Y145.127 E18.2333
G1 X76.979 Y145.079 E18.25116
G1 X76.662 Y145.012 E18.26194
G1 X73.914 Y144.3 E18.35635
G1 X71.207 Y143.678 E18.44874
G1 X68.924 Y143.221 E18.52618
G1 X68.193 Y143.051 E18.55114
G1 X67.633 Y142.872 E18.57069
G1 X67.38 Y142.775 E18.5797
G1 X66.861 Y142.552 E18.59849
G1 X66.261 Y142.246 E18.62089
G1 X65.881 Y142.011 E18.63575
G1 X65.452 Y141.716 E18.65307
G1 X64.987 Y141.354 E18.67267
G1 X64.461 Y140.866 E18.69653
G1 X64.072 Y140.445 E18.7156
G1 X63.659 Y139.915 E18.73795
G1 X63.528 Y139.726 E18.7456
G1 X63.248 Y139.294 E18.76272
G1 X62.983 Y138.829 E18.78052
G1 X62.656 Y138.119 E18.80652
G1 X62.403 Y137.396 E18.83199
G1 X62.258 Y136.841 E18.85107
G1 X62.15 Y136.257 E18.87083
G1 X62.074 Y135.532 E18.89507
G1 X62.062 Y135.255 E18.90429
G1 X62.042 Y134.112 E18.94232
G1 X62.043 Y116.404 E19.53129
G1 X62.056 Y115.589 E19.5584
G1 X62.075 Y115.172 E19.57228
G1 X62.189 Y113.162 E19.63924
G1 X62.268 Y110.393 E19.73138
G1 X62.268 Y107.697 E19.82105
G1 X62.19 Y104.906 E19.91391
G1 X62.118 Y103.478 E19.96147
G1 X62.053 Y102.338 E19.99945
G1 X62.043 Y101.921 E20.01332
G1 X62.043 Y98.405 E20.13026
G1 X62.053 Y97.71 E20.15338
G1 X62.059 Y97.556 E20.15851
G1 X62.222 Y94.716 E20.25312
G1 X62.301 Y91.956 E20.34496
G1 X62.301 Y89.26 E20.43462
G1 X62.224 Y86.507 E20.52623
G1 X62.148 Y84.974 E20.57728
G1 X62.12 Y84.478 E20.5938
G1 X62.162 Y83.684 E20.62024
G1 X62.345 Y82.838 E20.64903
G1 X62.49 Y82.351 E20.66593
G1 X62.685 Y81.822 E20.68469
G1 X62.944 Y81.26 E20.70527
G1 X63.293 Y80.63 E20.72922
G1 X63.67 Y80.066 E20.75179
G1 X64.103 Y79.526 E20.77481
G1 X64.456 Y79.143 E20.79213
G1 X64.866 Y78.753 E20.81095
G1 X65.294 Y78.396 E20.82949
G0 F3000 X65.541 Y78.71
G1 F1200 X66.077 Y78.332 E20.8513
G1 X66.515 Y78.064 E20.86838
G1 X67.131 Y77.761 E20.89121
G1 X67.691 Y77.528 E20.91139
G1 X68.201 Y77.368 E20.92917
G1 X68.727 Y77.238 E20.94719
G1 X69.251 Y77.139 E20.96492
G1 X69.785 Y77.077 E20.9828
G1 X70.087 Y77.059 E20.99287
G1 X71.136 Y77.043 E21.02776
G1 X148.718 Y77.043 E23.60815
G1 X149.997 Y77.066 E23.65069
G1 X150.692 Y77.127 E23.6739
G1 X151.197 Y77.216 E23.69095
G1 X151.461 Y77.279 E23.69998
G1 X152.007 Y77.434 E23.71886
G1 X152.531 Y77.62 E23.73735
G1 X153.078 Y77.862 E23.75725
G1 X153.602 Y78.137 E23.77693
G1 X154.11 Y78.454 E23.79685
G1 X154.513 Y78.754 E23.81356
G1 X154.907 Y79.081 E23.83059
G1 X155.349 Y79.513 E23.85114
G1 X155.795 Y80.02 E23.8736
G1 X156.15 Y80.505 E23.89359
G1 X156.466 Y81.004 E23.91324
G1 X156.745 Y81.515 E23.9326
G1 X156.865 Y81.782 E23.94234
G1 X157.071 Y82.302 E23.96094
G1 X157.14 Y82.494 E23.96773
G1 X157.588 Y83.879 E24.01614
G1 X157.735 Y84.358 E24.03281
G1 X158.635 Y87.004 E24.12576
G1 X159.449 Y89.199 E24.20363
G1 X159.943 Y90.493 E24.2497
G1 X160.085 Y90.978 E24.26651
G1 X160.152 Y91.569 E24.28629
G1 X160.174 Y92.667 E24.32281
G1 X160.174 Y95.326 E24.41125
G1 X160.163 Y96.044 E24.43514
G1 X160.137 Y96.401 E24.44704
G1 X159.968 Y97.723 E24.49137
G1 X159.923 Y98.037 E24.50192
G1 X159.615 Y100.758 E24.593
G1 X159.384 Y103.498 E24.68446
G1 X159.232 Y106.212 E24.77486
G1 X159.155 Y108.966 E24.8665
G1 X159.157 Y111.684 E24.9569
G1 X159.236 Y114.443 E25.0487
G1 X159.326 Y116.196 E25.10708
G1 X159.337 Y116.624 E25.12132
G1 X159.337 Y127.12 E25.47042
G1 X159.327 Y127.822 E25.49377
G1 X159.248 Y128.483 E25.51592
G1 X159.207 Y128.656 E25.52183
G1 X158.543 Y131.21 E25.6096
G1 X157.933 Y133.86 E25.70004
G1 X157.416 Y136.45 E25.78789
G1 X157.322 Y136.861 E25.80191
G1 X157.165 Y137.412 E25.82096
G1 X156.982 Y137.928 E25.83917
G1 X156.737 Y138.482 E25.85932
G1 X156.463 Y139.002 E25.87887
G1 X156.158 Y139.494 E25.89812
G1 X155.837 Y139.926 E25.91603
G1 X155.511 Y140.315 E25.93291
G1 X155.072 Y140.763 E25.95377
G1 X154.559 Y141.211 E25.97642
G1 X154.095 Y141.55 E25.99553
G1 X153.605 Y141.862 E26.01485
G1 X153.083 Y142.146 E26.03462
G1 X152.816 Y142.266 E26.04436
G1 X152.292 Y142.473 E26.06309
G1 X151.842 Y142.619 E26.07883
G1 X151.322 Y142.751 E26.09667
G1 X150.66 Y142.872 E26.11906
G1 X150.249 Y142.914 E26.1328
G1 X149.698 Y142.942 E26.15115
G1 X149.585 Y142.946 E26.15491
G1 X148.868 Y142.957 E26.17876
G1 X107.443 Y142.957 E27.55656
G1 X104.646 Y142.997 E27.6496
G1 X101.929 Y143.112 E27.74005
G1 X99.182 Y143.307 E27.83164
G1 X96.478 Y143.575 E27.92202
G1 X93.754 Y143.923 E28.01336
G1 X91.04 Y144.35 E28.10473
G1 X90.116 Y144.521 E28.13599
G1 X89.264 Y144.667 E28.16474
G1 X88.792 Y144.712 E28.18051
G1 X87.602 Y144.737 E28.2201
G1 X78.218 Y144.737 E28.53221
G1 X77.519 Y144.727 E28.55546
G1 X77.016 Y144.68 E28.57226
G1 X76.762 Y144.625 E28.58091
G1 X73.998 Y143.909 E28.67587
G1 X71.296 Y143.288 E28.76808
G1 X69.008 Y142.83 E28.84569
G1 X68.291 Y142.663 E28.87018
G1 X67.763 Y142.494 E28.88862
G1 X67.538 Y142.407 E28.89664
G1 X67.019 Y142.184 E28.91543
G1 X66.465 Y141.902 E28.93611
G1 X66.108 Y141.682 E28.95005
G1 X65.679 Y141.387 E28.96737
G1 X65.238 Y141.043 E28.98597
G1 X64.741 Y140.58 E29.00856
G1 X64.378 Y140.188 E29.02633
G1 X63.98 Y139.677 E29.04788
G1 X63.864 Y139.508 E29.05469
G1 X63.584 Y139.076 E29.07182
G1 X63.334 Y138.637 E29.08862
G1 X63.024 Y137.962 E29.11332
G1 X62.789 Y137.291 E29.13697
G1 X62.649 Y136.758 E29.1553
G1 X62.548 Y136.21 E29.17383
G1 X62.473 Y135.512 E29.19718
G1 X62.461 Y135.248 E29.20597
G1 X62.442 Y134.112 E29.24376
G1 X62.443 Y116.41 E29.83253
G1 X62.453 Y115.7 E29.85615
G1 X62.474 Y115.194 E29.87299
G1 X62.589 Y113.159 E29.94079
G1 X62.668 Y110.404 E30.03246
G1 X62.668 Y107.685 E30.12289
G1 X62.591 Y104.919 E30.21492
G1 X62.517 Y103.455 E30.26368
G1 X62.453 Y102.327 E30.30126
G1 X62.443 Y101.921 E30.31476
G1 X62.443 Y98.411 E30.43151
G1 X62.453 Y97.716 E30.45462
G1 X62.458 Y97.579 E30.45918
G1 X62.622 Y94.716 E30.55456
G1 X62.701 Y91.967 E30.64603
G1 X62.701 Y89.248 E30.73647
G1 X62.623 Y86.457 E30.82933
G1 X62.548 Y84.955 E30.87935
G1 X62.519 Y84.455 E30.89601
G1 X62.557 Y83.749 E30.91953
G1 X62.734 Y82.933 E30.9473
G1 X62.942 Y82.266 E30.97054
G1 X63.135 Y81.784 E30.9878
G1 X63.53 Y81.018 E31.01647
G1 X63.886 Y80.45 E31.03877
G1 X64.413 Y79.778 E31.06717
G1 X64.732 Y79.432 E31.08282
G1 X65.142 Y79.042 E31.10164
G1 X65.541 Y78.71 E31.11891
G1 F1800 E24.11891
G1 F300 Z0.4
G0 F3000 X77.429 Y140.9 Z0.4
;TYPE:SUPPORT
G1 F300 Z0.2
G1 F1800 E31.11891
G1 F1200 X88.697 Y140.9 E31.49368
G1 X88.514 Y141.337 E31.50944
G1 X77.69 Y141.337 E31.86945
G1 X77.535 Y140.97 E31.8827
G1 X77.429 Y140.9 E31.88692
G1 F1800 E24.88692
G1 F300 Z0.4
G0 F3000 X80.01 Y141.06 Z0.4
G1 F300 Z0.2
G1 F1800 E31.88692
G1 F1200 X80.01 Y141.177 E31.89081
G1 F1800 E24.89081
G1 F300 Z0.4
G0 F3000 X82.677 Y141.177 Z0.4
G1 F300 Z0.2
G1 F1800 E31.89081
G1 F1200 X82.677 Y141.06 E31.89471
G1 F1800 E24.89471
G1 F300 Z0.4
G0 F3000 X85.344 Y141.06 Z0.4
G1 F300 Z0.2
G1 F1800 E31.89471
G1 F1200 X85.344 Y141.177 E31.8986
G1 F1800 E24.8986
G1 F300 Z0.4
G0 F3000 X88.011 Y141.177 Z0.4
G1 F300 Z0.2
G1 F1800 E31.8986
G1 F1200 X88.011 Y141.06 E31.90249
G1 F1800 E24.90249
G1 F300 Z0.4
G0 F3000 X155.5 Y127.902 Z0.4
G1 F300 Z0.2
G1 F1800 E31.90249
G1 F1200 X155.5 Y116.495 E32.28189
G1 X155.937 Y116.495 E32.29642
G1 X155.937 Y127.647 E32.66734
G1 X155.566 Y127.802 E32.68071
G1 X155.5 Y127.902 E32.6847
G1 F1800 E25.6847
G1 F300 Z0.4
G0 F3000 X155.66 Y125.349 Z0.4
G1 F300 Z0.2
G1 F1800 E32.6847
G1 F1200 X155.777 Y125.349 E32.68859
G1 F1800 E25.68859
G1 F300 Z0.4
G0 F3000 X155.777 Y122.682 Z0.4
G1 F300 Z0.2
G1 F1800 E32.68859
G1 F1200 X155.66 Y122.682 E32.69248
G1 F1800 E25.69248
G1 F300 Z0.4
G0 F3000 X155.66 Y120.015 Z0.4
