;FLAVOR:Marlin
;TIME:2757
;Filament used: 1.71129m
;Layer height: 0.2
;MINX:83.508
;MINY:83.507
;MINZ:0.2
;MAXX:136.492
;MAXY:136.492
;MAXZ:16
;Generated with Cura_SteamEngine master
M82 ;absolute extrusion mode
;Sliced at: Sat 15-04-2023 17:44:42
;Basic settings: Layer height: 0.2 Walls: 0.8 Fill: 20
G21 ;metric values
G90 ;absolute positioning
M82 ;set extruder to absolute mode
M107 ;start with the fan off
M117 Start heating ...
M104 S200
M117 Homing X/Y ...
G28 X0 Y0 ;move X/Y to min endstops
M117 Homing Z ...
G28 Z0 ;move Z to min endstops
G1 Z15.0 F100 ;move the platform down 15mm
M117 Heating ...
M109 S200
M117 Start cleaning ...
G92 E0 ;zero the extruded length
G1 F200 E10 ;extrude 10mm of feed stock
G92 E0 ;zero the extruded length again
M117 Intro line ...
G1 Z2.0 F3000 ; Move Z Axis up little to prevent scratching of Heat Bed
G1 X0.1 Y20 Z0.2 F5000.0 ; Move to start position
G1 X0.1 Y200.0 Z0.2 F1500.0 E15 ; Draw the first line
G1 X0.4 Y200.0 Z0.2 F5000.0 ; Move to side a little
G1 X0.4 Y20 Z0.3 F1500.0 E30 ; Draw the second line
G92 E0 ; Reset Extruder
G1 E-1 F500 ; Retract filiment by 1 mm
G1 Z2.0 F3000 ; Move Z Axis up little to prevent scratching of Heat Bed
G1 X5 Y20 Z0.3 F100 ; Move over to prevent blob squish
G1 F100
G92 E0 ; Reset Extruder
M117 Printing...

G92 E0
G92 E0
G1 F1800 E-7
;LAYER_COUNT:80
;LAYER:0
M107
G1 F300 Z0.4
G0 F3000 X91.043 Y91.494 Z0.4
;TYPE:SKIRT
G1 F300 Z0.2
G1 F1800 E0
G1 F1200 X91.686 Y90.856 E0.03013
G1 X91.941 Y90.617 E0.04175
G1 X92.615 Y90.009 E0.07194
G1 X92.964 Y89.713 E0.08716
G1 X93.674 Y89.135 E0.11761
G1 X93.981 Y88.9 E0.13047
G1 X94.701 Y88.372 E0.16017
G1 X95.067 Y88.118 E0.17499
G1 X95.735 Y87.676 E0.20163
G1 X96.151 Y87.415 E0.21796
G1 X96.839 Y87.008 E0.24455
G1 X97.309 Y86.746 E0.26245
G1 X98.036 Y86.364 E0.28976
G1 X98.481 Y86.143 E0.30629
G1 X99.296 Y85.767 E0.33614
G1 X99.674 Y85.604 E0.34983
G1 X100.419 Y85.302 E0.37657
G1 X100.922 Y85.113 E0.39444
G1 X101.797 Y84.81 E0.42524
G1 X102.155 Y84.697 E0.43772
G1 X103.04 Y84.438 E0.46839
G1 X103.414 Y84.34 E0.48125
G1 X104.347 Y84.117 E0.51316
G1 X104.718 Y84.039 E0.52577
G1 X105.492 Y83.894 E0.55196
G1 X106.036 Y83.807 E0.57028
G1 X106.95 Y83.683 E0.60096
G1 X107.313 Y83.645 E0.6131
G1 X108.22 Y83.568 E0.64338
G1 X108.664 Y83.543 E0.65817
G1 X109.577 Y83.51 E0.68855
G1 X109.948 Y83.507 E0.70089
G1 X110.862 Y83.522 E0.7313
G1 X111.295 Y83.54 E0.74571
G1 X112.215 Y83.6 E0.77637
G1 X112.594 Y83.636 E0.78904
G1 X113.544 Y83.746 E0.82085
G1 X113.908 Y83.798 E0.83307
G1 X114.828 Y83.951 E0.86409
G1 X115.227 Y84.028 E0.87761
G1 X115.995 Y84.195 E0.90375
G1 X116.497 Y84.318 E0.92094
G1 X117.4 Y84.563 E0.95206
G1 X117.777 Y84.675 E0.96514
G1 X118.637 Y84.956 E0.99523
G1 X119.013 Y85.089 E1.0085
G1 X119.871 Y85.416 E1.03904
G1 X120.283 Y85.585 E1.05385
G1 X121.084 Y85.937 E1.08295
G1 X121.467 Y86.118 E1.09704
G1 X122.196 Y86.482 E1.12414
G1 X122.645 Y86.721 E1.14106
G1 X123.454 Y87.177 E1.17195
G1 X123.766 Y87.365 E1.18406
G1 X124.498 Y87.826 E1.21283
G1 X124.903 Y88.097 E1.22904
G1 X125.645 Y88.62 E1.25923
G1 X125.969 Y88.861 E1.27267
G1 X126.671 Y89.411 E1.30233
G1 X126.994 Y89.677 E1.31624
G1 X127.715 Y90.302 E1.34798
G1 X127.958 Y90.524 E1.35893
G1 X128.704 Y91.237 E1.39325
G1 X128.919 Y91.456 E1.40346
G1 X129.559 Y92.132 E1.43442
G1 X129.838 Y92.442 E1.44829
G1 X130.451 Y93.159 E1.47967
G1 X130.692 Y93.457 E1.49241
G1 X131.178 Y94.083 E1.51877
G1 X131.505 Y94.529 E1.53717
G1 X132 Y95.241 E1.56601
G1 X132.231 Y95.592 E1.57998
G1 X132.727 Y96.387 E1.61115
G1 X132.923 Y96.719 E1.62397
G1 X133.36 Y97.505 E1.65388
G1 X133.557 Y97.878 E1.66791
G1 X133.914 Y98.599 E1.69467
G1 X134.134 Y99.076 E1.71214
G1 X134.51 Y99.944 E1.74361
G1 X134.634 Y100.256 E1.75477
G1 X134.984 Y101.187 E1.78785
G1 X135.099 Y101.521 E1.7996
G1 X135.384 Y102.415 E1.83081
G1 X135.481 Y102.754 E1.84254
G1 X135.715 Y103.631 E1.87273
G1 X135.812 Y104.037 E1.88661
G1 X136.005 Y104.946 E1.91752
G1 X136.084 Y105.369 E1.93183
G1 X136.23 Y106.283 E1.96262
G1 X136.282 Y106.674 E1.97574
G1 X136.383 Y107.595 E2.00655
G1 X136.415 Y107.974 E2.0192
G1 X136.465 Y108.792 E2.04646
G1 X136.484 Y109.331 E2.0644
G1 X136.492 Y110.227 E2.0942
G1 X136.485 Y110.609 E2.10691
G1 X136.448 Y111.533 E2.13767
G1 X136.418 Y111.969 E2.1522
G1 X136.337 Y112.872 E2.18236
G1 X136.295 Y113.226 E2.19421
G1 X136.159 Y114.194 E2.22672
G1 X136.1 Y114.539 E2.23837
G1 X135.918 Y115.486 E2.27044
G1 X135.832 Y115.875 E2.28369
G1 X135.624 Y116.726 E2.31283
G1 X135.508 Y117.148 E2.32738
G1 X135.234 Y118.068 E2.35931
G1 X135.133 Y118.377 E2.37012
G1 X134.864 Y119.143 E2.39713
G1 X134.668 Y119.658 E2.41545
G1 X134.325 Y120.495 E2.44554
G1 X134.16 Y120.869 E2.45914
G1 X133.773 Y121.692 E2.48938
G1 X133.595 Y122.045 E2.50253
G1 X133.17 Y122.844 E2.53263
G1 X132.954 Y123.226 E2.54723
G1 X132.487 Y124.006 E2.57747
G1 X132.273 Y124.345 E2.5908
G1 X131.746 Y125.134 E2.62236
G1 X131.537 Y125.429 E2.63438
G1 X131.01 Y126.139 E2.66379
G1 X130.732 Y126.492 E2.67874
G1 X130.201 Y127.139 E2.70658
G1 X129.883 Y127.506 E2.72273
G1 X129.317 Y128.129 E2.75072
G1 X128.957 Y128.506 E2.76806
G1 X128.314 Y129.144 E2.79819
G1 X128.06 Y129.382 E2.80976
G1 X127.353 Y130.02 E2.84144
G1 X127.053 Y130.274 E2.85451
G1 X126.419 Y130.792 E2.88174
G1 X126.031 Y131.092 E2.89806
G1 X125.294 Y131.632 E2.92844
G1 X124.946 Y131.873 E2.94252
G1 X124.18 Y132.378 E2.97304
G1 X123.847 Y132.586 E2.9861
G1 X123.165 Y132.989 E3.01245
G1 X122.692 Y133.253 E3.03046
G1 X121.885 Y133.676 E3.06077
G1 X121.52 Y133.857 E3.07432
G1 X120.7 Y134.235 E3.10435
G1 X120.323 Y134.397 E3.118
G1 X119.493 Y134.732 E3.14777
G1 X119.078 Y134.887 E3.1625
G1 X118.203 Y135.19 E3.1933
G1 X117.85 Y135.302 E3.20562
G1 X116.958 Y135.563 E3.23653
G1 X116.586 Y135.66 E3.24931
G1 X115.653 Y135.883 E3.28122
G1 X115.282 Y135.961 E3.29383
G1 X114.508 Y136.106 E3.32002
G1 X113.964 Y136.193 E3.33834
G1 X113.057 Y136.316 E3.36879
G1 X112.677 Y136.356 E3.3815
G1 X111.784 Y136.432 E3.4113
G1 X111.36 Y136.456 E3.42543
G1 X110.402 Y136.49 E3.45731
G1 X110.056 Y136.492 E3.46882
G1 X109.115 Y136.478 E3.50012
G1 X108.721 Y136.461 E3.51324
G1 X107.912 Y136.409 E3.5402
G1 X107.386 Y136.362 E3.55777
G1 X106.478 Y136.257 E3.58817
G1 X106.073 Y136.199 E3.60178
G1 X105.174 Y136.049 E3.63209
G1 X104.772 Y135.972 E3.6457
G1 X103.914 Y135.784 E3.67492
G1 X103.504 Y135.683 E3.68896
G1 X102.592 Y135.436 E3.72039
G1 X102.225 Y135.325 E3.73314
G1 X101.362 Y135.044 E3.76333
G1 X100.983 Y134.91 E3.7767
G1 X100.13 Y134.584 E3.80707
G1 X99.715 Y134.414 E3.82199
G1 X99.01 Y134.105 E3.84759
G1 X98.536 Y133.883 E3.865
G1 X97.806 Y133.519 E3.89213
G1 X97.355 Y133.279 E3.90912
G1 X96.546 Y132.823 E3.94001
G1 X96.234 Y132.634 E3.95214
G1 X95.406 Y132.111 E3.98471
G1 X95.099 Y131.905 E3.99701
G1 X94.394 Y131.408 E4.0257
G1 X93.989 Y131.106 E4.0425
G1 X93.306 Y130.57 E4.07138
G1 X93.005 Y130.322 E4.08435
G1 X92.332 Y129.739 E4.11397
G1 X92.012 Y129.447 E4.12837
G1 X91.304 Y128.77 E4.16095
G1 X91.081 Y128.544 E4.17151
G1 X90.436 Y127.863 E4.20271
G1 X90.163 Y127.559 E4.2163
G1 X89.557 Y126.851 E4.2473
G1 X89.3 Y126.535 E4.26084
G1 X88.751 Y125.821 E4.2908
G1 X88.523 Y125.508 E4.30368
G1 X87.986 Y124.738 E4.3349
G1 X87.762 Y124.397 E4.34847
G1 X87.273 Y123.613 E4.37921
G1 X87.078 Y123.282 E4.39198
G1 X86.639 Y122.494 E4.42199
G1 X86.441 Y122.119 E4.43609
G1 X86.084 Y121.397 E4.46288
G1 X85.866 Y120.924 E4.4802
G1 X85.49 Y120.056 E4.51166
G1 X85.366 Y119.744 E4.52283
G1 X85.05 Y118.907 E4.55259
G1 X84.9 Y118.477 E4.56773
G1 X84.639 Y117.659 E4.59629
G1 X84.519 Y117.245 E4.61063
G1 X84.285 Y116.367 E4.64085
G1 X84.188 Y115.963 E4.65467
G1 X83.995 Y115.054 E4.68558
G1 X83.916 Y114.631 E4.69989
G1 X83.77 Y113.717 E4.73067
G1 X83.718 Y113.325 E4.74383
G1 X83.617 Y112.406 E4.77458
G1 X83.585 Y112.026 E4.78726
G1 X83.535 Y111.207 E4.81455
G1 X83.516 Y110.669 E4.83246
G1 X83.508 Y109.773 E4.86226
G1 X83.515 Y109.391 E4.87497
G1 X83.552 Y108.467 E4.90572
G1 X83.582 Y108.031 E4.92026
G1 X83.663 Y107.128 E4.95041
G1 X83.705 Y106.774 E4.96227
G1 X83.841 Y105.806 E4.99478
G1 X83.9 Y105.461 E5.00642
G1 X84.082 Y104.514 E5.0385
G1 X84.168 Y104.125 E5.05175
G1 X84.376 Y103.274 E5.08088
G1 X84.492 Y102.852 E5.09544
G1 X84.766 Y101.932 E5.12737
G1 X84.867 Y101.623 E5.13818
G1 X85.136 Y100.857 E5.16518
G1 X85.332 Y100.342 E5.18351
G1 X85.675 Y99.505 E5.2136
G1 X85.84 Y99.131 E5.22719
G1 X86.227 Y98.308 E5.25744
G1 X86.405 Y97.955 E5.27059
G1 X86.83 Y97.156 E5.30069
G1 X87.046 Y96.774 E5.31529
G1 X87.517 Y95.988 E5.34576
G1 X87.726 Y95.659 E5.35873
G1 X88.238 Y94.892 E5.3894
G1 X88.453 Y94.588 E5.40178
G1 X89.052 Y93.781 E5.43521
G1 X89.26 Y93.517 E5.44639
G1 X89.838 Y92.813 E5.47669
G1 X90.12 Y92.49 E5.49095
G1 X90.694 Y91.859 E5.51932
G1 X91.043 Y91.494 E5.53611
G0 F3000 X91.325 Y91.778
G1 F1200 X91.961 Y91.147 E5.56591
G1 X92.21 Y90.913 E5.57728
G1 X92.798 Y90.381 E5.60365
G1 X93.217 Y90.022 E5.622
G1 X93.838 Y89.515 E5.64867
G1 X94.218 Y89.223 E5.66461
G1 X94.93 Y88.7 E5.69399
G1 X95.287 Y88.452 E5.70845
G1 X95.955 Y88.01 E5.73509
G1 X96.355 Y87.76 E5.75078
G1 X97.122 Y87.307 E5.7804
G1 X97.495 Y87.1 E5.79459
G1 X98.222 Y86.718 E5.82191
G1 X98.649 Y86.506 E5.83776
G1 X99.456 Y86.134 E5.86732
G1 X99.825 Y85.975 E5.88068
G1 X100.656 Y85.639 E5.9105
G1 X101.053 Y85.491 E5.92459
G1 X101.919 Y85.191 E5.95507
G1 X102.267 Y85.08 E5.96722
G1 X103.055 Y84.849 E5.99453
G1 X103.508 Y84.729 E6.01012
G1 X104.43 Y84.508 E6.04165
G1 X104.792 Y84.433 E6.05395
G1 X105.662 Y84.271 E6.08338
G1 X106.091 Y84.203 E6.09783
G1 X106.893 Y84.093 E6.12475
G1 X107.347 Y84.043 E6.13995
G1 X108.144 Y83.974 E6.16655
G1 X108.679 Y83.942 E6.18438
G1 X109.582 Y83.91 E6.21443
G1 X109.942 Y83.907 E6.22641
G1 X110.759 Y83.919 E6.25358
G1 X111.27 Y83.939 E6.27059
G1 X112.083 Y83.991 E6.29769
G1 X112.548 Y84.033 E6.31322
G1 X113.489 Y84.142 E6.34472
G1 X113.843 Y84.193 E6.35662
G1 X114.753 Y84.344 E6.3873
G1 X115.142 Y84.419 E6.40048
G1 X115.997 Y84.606 E6.42958
G1 X116.393 Y84.704 E6.44315
G1 X117.287 Y84.946 E6.47396
G1 X117.653 Y85.055 E6.48666
G1 X118.504 Y85.333 E6.51644
G1 X118.871 Y85.463 E6.52939
G1 X119.72 Y85.786 E6.5596
G1 X120.123 Y85.952 E6.57409
G1 X120.914 Y86.299 E6.60282
G1 X121.288 Y86.476 E6.61659
G1 X122.017 Y86.84 E6.64369
G1 X122.449 Y87.07 E6.65996
G1 X123.248 Y87.521 E6.69048
G1 X123.552 Y87.704 E6.70228
G1 X124.366 Y88.218 E6.7343
G1 X124.673 Y88.424 E6.7466
G1 X125.407 Y88.942 E6.77648
G1 X125.723 Y89.176 E6.78956
G1 X126.418 Y89.721 E6.81893
G1 X126.732 Y89.979 E6.83245
G1 X127.446 Y90.599 E6.8639
G1 X127.683 Y90.814 E6.87454
G1 X128.342 Y91.442 E6.90482
G1 X128.629 Y91.732 E6.91839
G1 X129.262 Y92.4 E6.949
G1 X129.535 Y92.703 E6.96256
G1 X130.14 Y93.411 E6.99354
G1 X130.376 Y93.702 E7.006
G1 X130.862 Y94.328 E7.03236
G1 X131.177 Y94.758 E7.05009
G1 X131.667 Y95.462 E7.07862
G1 X131.892 Y95.804 E7.09223
G1 X132.383 Y96.591 E7.12308
G1 X132.573 Y96.914 E7.13555
G1 X133.007 Y97.693 E7.16521
G1 X133.198 Y98.056 E7.17885
G1 X133.6 Y98.87 E7.20905
G1 X133.767 Y99.236 E7.22243
G1 X134.139 Y100.093 E7.2535
G1 X134.26 Y100.397 E7.26438
G1 X134.607 Y101.319 E7.29715
G1 X134.718 Y101.643 E7.30854
G1 X134.999 Y102.527 E7.33939
G1 X135.094 Y102.857 E7.35081
G1 X135.353 Y103.832 E7.38437
G1 X135.42 Y104.12 E7.3942
G1 X135.612 Y105.021 E7.42484
G1 X135.689 Y105.433 E7.43878
G1 X135.834 Y106.337 E7.46923
G1 X135.884 Y106.718 E7.48201
G1 X135.984 Y107.63 E7.51253
G1 X136.015 Y107.998 E7.52481
G1 X136.07 Y108.907 E7.5551
G1 X136.084 Y109.335 E7.56934
G1 X136.092 Y110.221 E7.59881
G1 X136.085 Y110.593 E7.61119
G1 X136.048 Y111.507 E7.64161
G1 X136.02 Y111.934 E7.65585
G1 X135.949 Y112.733 E7.68253
G1 X135.899 Y113.17 E7.69715
G1 X135.779 Y114.032 E7.7261
G1 X135.707 Y114.464 E7.74067
G1 X135.527 Y115.401 E7.7724
G1 X135.444 Y115.78 E7.78531
G1 X135.238 Y116.621 E7.81411
G1 X135.125 Y117.034 E7.82835
G1 X134.879 Y117.864 E7.85714
G1 X134.756 Y118.245 E7.87046
G1 X134.452 Y119.106 E7.90083
G1 X134.297 Y119.507 E7.91512
G1 X133.958 Y120.336 E7.94491
G1 X133.798 Y120.699 E7.95811
G1 X133.415 Y121.513 E7.98803
G1 X133.241 Y121.858 E8.00088
G1 X132.821 Y122.649 E8.03067
G1 X132.611 Y123.021 E8.04488
G1 X132.148 Y123.794 E8.07484
G1 X131.94 Y124.123 E8.08779
G1 X131.418 Y124.904 E8.11903
G1 X131.216 Y125.191 E8.13071
G1 X130.695 Y125.892 E8.15976
G1 X130.423 Y126.238 E8.1744
G1 X129.892 Y126.885 E8.20223
G1 X129.586 Y127.238 E8.21777
G1 X129.027 Y127.853 E8.24541
G1 X128.675 Y128.222 E8.26238
G1 X128.039 Y128.853 E8.29217
G1 X127.791 Y129.086 E8.30349
G1 X127.094 Y129.715 E8.33472
G1 X126.8 Y129.964 E8.34753
G1 X126.166 Y130.482 E8.37476
G1 X125.794 Y130.769 E8.39039
G1 X125.064 Y131.304 E8.42049
G1 X124.726 Y131.54 E8.4342
G1 X124.044 Y131.991 E8.4614
G1 X123.643 Y132.241 E8.47712
G1 X122.889 Y132.686 E8.50624
G1 X122.506 Y132.899 E8.52081
G1 X121.707 Y133.318 E8.55082
G1 X121.352 Y133.494 E8.564
G1 X120.541 Y133.868 E8.5937
G1 X120.173 Y134.026 E8.60702
G1 X119.351 Y134.358 E8.63651
G1 X118.947 Y134.509 E8.65085
G1 X118.081 Y134.809 E8.68133
G1 X117.737 Y134.918 E8.69334
G1 X116.855 Y135.176 E8.7239
G1 X116.492 Y135.271 E8.73638
G1 X115.57 Y135.492 E8.76792
G1 X115.208 Y135.567 E8.78021
G1 X114.338 Y135.729 E8.80965
G1 X113.909 Y135.797 E8.82409
G1 X113.107 Y135.907 E8.85102
G1 X112.643 Y135.958 E8.86654
G1 X111.759 Y136.032 E8.89605
G1 X111.345 Y136.057 E8.90984
G1 X110.505 Y136.088 E8.9378
G1 X110.061 Y136.092 E8.95257
G1 X109.228 Y136.081 E8.98028
G1 X108.747 Y136.062 E8.99629
G1 X107.852 Y136.003 E9.02612
G1 X107.431 Y135.965 E9.04018
G1 X106.533 Y135.861 E9.07025
G1 X106.139 Y135.805 E9.08348
G1 X105.33 Y135.671 E9.11076
G1 X104.857 Y135.581 E9.12677
G1 X104.008 Y135.395 E9.15568
G1 X103.608 Y135.297 E9.16938
G1 X102.706 Y135.052 E9.20046
G1 X102.348 Y134.945 E9.21289
G1 X101.495 Y134.667 E9.24273
G1 X101.125 Y134.536 E9.25578
G1 X100.281 Y134.214 E9.28583
G1 X99.876 Y134.047 E9.3004
G1 X99.091 Y133.702 E9.32892
G1 X98.715 Y133.525 E9.34274
G1 X97.985 Y133.161 E9.36987
G1 X97.551 Y132.93 E9.38623
G1 X96.752 Y132.479 E9.41674
G1 X96.447 Y132.296 E9.42857
G1 X95.709 Y131.831 E9.45758
G1 X95.329 Y131.577 E9.47279
G1 X94.632 Y131.086 E9.50114
G1 X94.236 Y130.791 E9.51757
G1 X93.559 Y130.261 E9.54616
G1 X93.266 Y130.019 E9.5588
G1 X92.6 Y129.442 E9.58811
G1 X92.288 Y129.158 E9.60214
G1 X91.587 Y128.488 E9.6344
G1 X91.371 Y128.268 E9.64465
G1 X90.733 Y127.594 E9.67552
G1 X90.466 Y127.298 E9.68878
G1 X89.866 Y126.597 E9.71947
G1 X89.617 Y126.29 E9.73261
G1 X89.074 Y125.585 E9.76221
G1 X88.851 Y125.279 E9.7748
G1 X88.319 Y124.517 E9.80571
G1 X88.101 Y124.185 E9.81892
G1 X87.617 Y123.409 E9.84934
G1 X87.427 Y123.087 E9.86178
G1 X86.992 Y122.306 E9.89151
G1 X86.8 Y121.942 E9.9052
G1 X86.443 Y121.22 E9.93199
G1 X86.233 Y120.764 E9.94869
G1 X85.861 Y119.907 E9.97976
G1 X85.74 Y119.603 E9.99064
G1 X85.424 Y118.766 E10.0204
G1 X85.281 Y118.355 E10.03487
G1 X85.02 Y117.537 E10.06343
G1 X84.905 Y117.142 E10.07711
G1 X84.671 Y116.264 E10.10734
G1 X84.58 Y115.88 E10.12046
G1 X84.388 Y114.979 E10.1511
G1 X84.311 Y114.567 E10.16504
G1 X84.166 Y113.663 E10.19549
G1 X84.116 Y113.281 E10.20831
G1 X84.016 Y112.37 E10.23879
G1 X83.985 Y112.001 E10.2511
G1 X83.93 Y111.092 E10.28139
G1 X83.916 Y110.665 E10.2956
G1 X83.908 Y109.779 E10.32507
G1 X83.915 Y109.407 E10.33745
G1 X83.952 Y108.493 E10.36787
G1 X83.98 Y108.066 E10.38211
G1 X84.051 Y107.267 E10.40878
G1 X84.101 Y106.83 E10.42341
G1 X84.221 Y105.968 E10.45236
G1 X84.293 Y105.536 E10.46693
G1 X84.473 Y104.599 E10.49866
G1 X84.556 Y104.22 E10.51157
G1 X84.762 Y103.379 E10.54037
G1 X84.875 Y102.966 E10.55461
G1 X85.121 Y102.136 E10.5834
G1 X85.244 Y101.755 E10.59672
G1 X85.548 Y100.894 E10.62709
G1 X85.703 Y100.493 E10.64138
G1 X86.042 Y99.664 E10.67117
G1 X86.202 Y99.301 E10.68437
G1 X86.585 Y98.487 E10.71429
G1 X86.759 Y98.142 E10.72714
G1 X87.179 Y97.351 E10.75693
G1 X87.389 Y96.979 E10.77114
G1 X87.855 Y96.201 E10.8013
G1 X88.059 Y95.88 E10.81395
G1 X88.564 Y95.122 E10.84424
G1 X88.774 Y94.826 E10.85631
G1 X89.367 Y94.028 E10.88938
G1 X89.569 Y93.771 E10.90025
G1 X90.141 Y93.075 E10.93022
