;FLAVOR:Marlin
;TIME:3260
;Filament used: 1.91082m
;Layer height: 0.2
;MINX:100.204
;MINY:55.205
;MINZ:0.2
;MAXX:149.796
;MAXY:104.795
;MAXZ:17
;Generated with Cura_SteamEngine master
M82 ;absolute extrusion mode
;Sliced at: Sat 01-04-2023 19:14:43
;Basic settings: Layer height: 0.2 Walls: 0.8 Fill: 20
G21 ;metric values
G90 ;absolute positioning
M82 ;set extruder to absolute mode
M107 ;start with the fan off
M117 Start heating ...
M104 S200
M117 Homing X/Y ...
G28 X0 Y0 ;move X/Y to min endstops
M117 Homing Z ...
G28 Z0 ;move Z to min endstops
G1 Z15.0 F100 ;move the platform down 15mm
M117 Heating ...
M109 S200
M117 Start cleaning ...
G92 E0 ;zero the extruded length
G1 F200 E10 ;extrude 10mm of feed stock
G92 E0 ;zero the extruded length again
M117 Intro line ...
G1 Z2.0 F3000 ; Move Z Axis up little to prevent scratching of Heat Bed
G1 X0.1 Y20 Z0.2 F5000.0 ; Move to start position
G1 X0.1 Y200.0 Z0.2 F1500.0 E15 ; Draw the first line
G1 X0.4 Y200.0 Z0.2 F5000.0 ; Move to side a little
G1 X0.4 Y20 Z0.3 F1500.0 E30 ; Draw the second line
G92 E0 ; Reset Extruder
G1 E-1 F500 ; Retract filiment by 1 mm
G1 Z2.0 F3000 ; Move Z Axis up little to prevent scratching of Heat Bed
G1 X5 Y20 Z0.3 F100 ; Move over to prevent blob squish
G1 F100
G92 E0 ; Reset Extruder
M117 Printing...

G92 E0
G92 E0
G1 F1800 E-7
;LAYER_COUNT:85
;LAYER:0
M107
G1 F300 Z0.4
G0 F3000 X102.298 Y70.635 Z0.4
;TYPE:SKIRT
G1 F300 Z0.2
G1 F1800 E0
G1 F1200 X102.775 Y70.005 E0.02628
G1 X103.312 Y69.427 E0.05252
G1 X103.906 Y68.906 E0.0788
G1 X104.549 Y68.447 E0.10508
G1 X105.235 Y68.056 E0.13134
G1 X105.957 Y67.736 E0.15761
G1 X106.707 Y67.491 E0.18385
G1 X107.479 Y67.323 E0.21013
G1 X108.264 Y67.234 E0.2364
G1 X108.95 Y67.226 E0.25922
G1 X108.95 Y65.2 E0.32661
G1 X108.99 Y64.411 E0.35288
G1 X109.109 Y63.631 E0.37913
G1 X109.307 Y62.866 E0.40541
G1 X109.581 Y62.126 E0.43165
G1 X109.929 Y61.417 E0.45792
G1 X110.19 Y60.979 E0.47488
G1 X110.641 Y60.331 E0.50114
G1 X111.155 Y59.732 E0.52739
G1 X111.728 Y59.188 E0.55367
G1 X112.352 Y58.705 E0.57992
G1 X113.182 Y58.201 E0.61221
G1 X113.86 Y57.845 E0.63768
G1 X114.208 Y57.673 E0.65059
G1 X114.942 Y57.333 E0.6775
G1 X115.288 Y57.183 E0.69004
G1 X116.057 Y56.871 E0.71764
G1 X116.401 Y56.741 E0.72988
G1 X117.18 Y56.467 E0.75734
G1 X117.552 Y56.346 E0.77035
G1 X118.345 Y56.111 E0.79786
G1 X118.705 Y56.014 E0.81026
G1 X119.501 Y55.819 E0.83752
G1 X119.859 Y55.74 E0.84971
G1 X120.641 Y55.587 E0.87622
G1 X121.029 Y55.521 E0.88931
G1 X121.864 Y55.401 E0.91736
G1 X122.222 Y55.358 E0.92936
G1 X123.017 Y55.281 E0.95592
G1 X123.397 Y55.254 E0.96859
G1 X124.235 Y55.214 E0.9965
G1 X124.607 Y55.205 E1.00887
G1 X125.407 Y55.205 E1.03548
G1 X125.792 Y55.214 E1.04829
G1 X126.622 Y55.255 E1.07593
G1 X126.996 Y55.283 E1.0884
G1 X127.814 Y55.363 E1.11574
G1 X128.171 Y55.406 E1.1277
G1 X128.994 Y55.525 E1.15536
G1 X129.378 Y55.591 E1.16832
G1 X130.179 Y55.748 E1.19546
G1 X130.555 Y55.831 E1.20827
G1 X131.334 Y56.024 E1.23496
G1 X131.69 Y56.121 E1.24724
G1 X132.497 Y56.362 E1.27525
G1 X132.856 Y56.479 E1.28781
G1 X133.614 Y56.746 E1.31454
G1 X133.964 Y56.879 E1.32699
G1 X134.728 Y57.19 E1.35443
G1 X135.073 Y57.34 E1.36694
G1 X135.818 Y57.686 E1.39426
G1 X136.162 Y57.856 E1.40702
G1 X136.822 Y58.203 E1.43182
G1 X137.501 Y58.605 E1.45807
G1 X138.137 Y59.074 E1.48435
G1 X138.721 Y59.605 E1.5106
G1 X139.249 Y60.193 E1.53689
G1 X139.81 Y60.979 E1.56901
G1 X139.868 Y61.072 E1.57265
G1 X140.252 Y61.763 E1.59894
G1 X140.563 Y62.488 E1.62518
G1 X140.8 Y63.242 E1.65147
G1 X140.959 Y64.015 E1.67772
G1 X141.04 Y64.801 E1.704
G1 X141.05 Y65.2 E1.71727
G1 X141.05 Y67.217 E1.78436
G1 X141.638 Y67.217 E1.80392
G1 X142.424 Y67.296 E1.83019
G1 X143.197 Y67.454 E1.85643
G1 X143.951 Y67.69 E1.88271
G1 X144.677 Y68 E1.90897
G1 X145.368 Y68.383 E1.93524
G1 X146.017 Y68.833 E1.96151
G1 X146.617 Y69.347 E1.98779
G1 X147.161 Y69.918 E2.01402
G1 X147.646 Y70.542 E2.04031
G1 X148.064 Y71.212 E2.06657
G1 X148.413 Y71.92 E2.09282
G1 X148.667 Y72.593 E2.11675
G1 X148.829 Y73.121 E2.13512
G1 X149.012 Y73.791 E2.15822
G1 X149.113 Y74.202 E2.1723
G1 X149.314 Y75.134 E2.20401
G1 X149.362 Y75.379 E2.21231
G1 X149.48 Y76.026 E2.23419
G1 X149.556 Y76.531 E2.25117
G1 X149.659 Y77.424 E2.28107
G1 X149.688 Y77.73 E2.29129
G1 X149.759 Y78.669 E2.32261
G1 X149.777 Y79.021 E2.33434
G1 X149.796 Y79.648 E2.3552
G1 X149.796 Y80.329 E2.37785
G1 X149.776 Y80.969 E2.39915
G1 X149.756 Y81.425 E2.41433
G1 X149.69 Y82.27 E2.44252
G1 X149.662 Y82.565 E2.45237
G1 X149.568 Y83.372 E2.4794
G1 X149.506 Y83.798 E2.49371
G1 X149.388 Y84.481 E2.51677
G1 X149.321 Y84.822 E2.52833
G1 X149.105 Y85.808 E2.5619
G1 X149.015 Y86.177 E2.57453
G1 X148.838 Y86.831 E2.59707
G1 X148.678 Y87.359 E2.61542
G1 X148.399 Y88.097 E2.64166
G1 X148.046 Y88.804 E2.66794
G1 X147.625 Y89.472 E2.6942
G1 X147.138 Y90.093 E2.72045
G1 X146.59 Y90.662 E2.74673
G1 X145.988 Y91.173 E2.77299
G1 X145.337 Y91.621 E2.79927
G1 X144.644 Y92 E2.82554
G1 X143.917 Y92.307 E2.85179
G1 X143.162 Y92.539 E2.87806
G1 X142.388 Y92.694 E2.90432
G1 X141.602 Y92.769 E2.93058
G1 X141.05 Y92.766 E2.94894
G1 X141.05 Y94.8 E3.01659
G1 X141.01 Y95.589 E3.04286
G1 X140.891 Y96.369 E3.06911
G1 X140.693 Y97.134 E3.09539
G1 X140.419 Y97.874 E3.12164
G1 X140.071 Y98.583 E3.1479
G1 X139.81 Y99.021 E3.16486
G1 X139.359 Y99.669 E3.19112
G1 X138.845 Y100.268 E3.21737
G1 X138.272 Y100.812 E3.24365
G1 X137.648 Y101.295 E3.2699
G1 X136.818 Y101.799 E3.30219
G1 X136.14 Y102.155 E3.32766
G1 X135.788 Y102.329 E3.34072
G1 X135.042 Y102.674 E3.36806
G1 X134.705 Y102.82 E3.38028
G1 X133.962 Y103.122 E3.40695
G1 X133.608 Y103.256 E3.41954
G1 X132.816 Y103.534 E3.44746
G1 X132.458 Y103.65 E3.45998
G1 X131.665 Y103.886 E3.48749
G1 X131.307 Y103.983 E3.49983
G1 X130.524 Y104.176 E3.52665
G1 X130.141 Y104.26 E3.53969
G1 X129.331 Y104.417 E3.56714
G1 X128.958 Y104.48 E3.57972
G1 X128.166 Y104.594 E3.60633
G1 X127.818 Y104.637 E3.61799
G1 X126.994 Y104.718 E3.64553
G1 X126.603 Y104.746 E3.65857
G1 X125.765 Y104.786 E3.68648
G1 X125.393 Y104.795 E3.69885
G1 X124.58 Y104.795 E3.72589
G1 X124.189 Y104.785 E3.7389
G1 X123.372 Y104.744 E3.76611
G1 X123.012 Y104.718 E3.77811
G1 X122.206 Y104.64 E3.80505
G1 X121.84 Y104.596 E3.81731
G1 X121.004 Y104.475 E3.8454
G1 X120.619 Y104.409 E3.85839
G1 X119.819 Y104.252 E3.88551
G1 X119.445 Y104.169 E3.89825
G1 X118.666 Y103.976 E3.92494
G1 X118.307 Y103.878 E3.93732
G1 X117.501 Y103.637 E3.9653
G1 X117.141 Y103.52 E3.97789
G1 X116.37 Y103.248 E4.00509
G1 X116.013 Y103.112 E4.01779
G1 X115.25 Y102.8 E4.04521
G1 X114.924 Y102.658 E4.05704
G1 X114.19 Y102.318 E4.08394
G1 X113.838 Y102.144 E4.097
G1 X113.178 Y101.797 E4.1218
G1 X112.499 Y101.395 E4.14805
G1 X111.863 Y100.926 E4.17433
G1 X111.279 Y100.395 E4.20058
G1 X110.751 Y99.807 E4.22687
G1 X110.19 Y99.021 E4.25898
G1 X110.132 Y98.928 E4.26263
G1 X109.748 Y98.237 E4.28892
G1 X109.437 Y97.512 E4.31516
G1 X109.2 Y96.758 E4.34145
G1 X109.041 Y95.985 E4.3677
G1 X108.96 Y95.199 E4.39398
G1 X108.95 Y94.8 E4.40725
G1 X108.95 Y92.764 E4.47497
G1 X108.362 Y92.764 E4.49453
G1 X107.576 Y92.685 E4.5208
G1 X106.803 Y92.527 E4.54704
G1 X106.049 Y92.291 E4.57332
G1 X105.323 Y91.981 E4.59958
G1 X104.632 Y91.598 E4.62585
G1 X103.983 Y91.148 E4.65212
G1 X103.383 Y90.634 E4.6784
G1 X102.839 Y90.063 E4.70463
G1 X102.354 Y89.439 E4.73092
G1 X101.936 Y88.769 E4.75718
G1 X101.587 Y88.061 E4.78344
G1 X101.287 Y87.242 E4.81245
G1 X101.066 Y86.489 E4.83855
G1 X100.824 Y85.543 E4.87102
G1 X100.726 Y85.106 E4.88592
G1 X100.616 Y84.543 E4.905
G1 X100.509 Y83.898 E4.92675
G1 X100.411 Y83.217 E4.94963
G1 X100.369 Y82.87 E4.96125
G1 X100.282 Y81.979 E4.99103
G1 X100.257 Y81.609 E5.00336
G1 X100.219 Y80.912 E5.02658
G1 X100.207 Y80.513 E5.03986
G1 X100.204 Y79.625 E5.06939
G1 X100.218 Y79.092 E5.08713
G1 X100.256 Y78.393 E5.11041
G1 X100.288 Y77.909 E5.12654
G1 X100.363 Y77.204 E5.15012
G1 X100.397 Y76.926 E5.15944
G1 X100.54 Y75.925 E5.19307
G1 X100.615 Y75.489 E5.20778
G1 X100.77 Y74.719 E5.23391
G1 X100.853 Y74.353 E5.24639
G1 X101.059 Y73.535 E5.27445
G1 X101.282 Y72.766 E5.30108
G1 X101.548 Y72.023 E5.32733
G1 X101.888 Y71.31 E5.3536
G1 X102.298 Y70.635 E5.37987
G0 F3000 X102.663 Y70.811
G1 F1200 X103.133 Y70.201 E5.40548
G1 X103.663 Y69.644 E5.43105
G1 X104.249 Y69.145 E5.45665
G1 X104.883 Y68.71 E5.48222
G1 X105.558 Y68.343 E5.50778
G1 X106.269 Y68.047 E5.53339
G1 X107.006 Y67.828 E5.55897
G1 X107.762 Y67.685 E5.58456
G1 X108.528 Y67.622 E5.61012
G1 X109.297 Y67.639 E5.6357
G1 X109.35 Y67.646 E5.63748
G1 X109.35 Y65.2 E5.71884
G1 X109.39 Y64.432 E5.74441
G1 X109.509 Y63.672 E5.77
G1 X109.707 Y62.929 E5.79557
G1 X109.981 Y62.21 E5.82117
G1 X110.471 Y61.284 E5.85601
G1 X110.529 Y61.191 E5.85966
G1 X110.969 Y60.56 E5.88524
G1 X111.473 Y59.979 E5.91082
G1 X112.034 Y59.453 E5.9364
G1 X112.647 Y58.988 E5.96199
G1 X113.368 Y58.555 E5.98997
G1 X114.046 Y58.199 E6.01544
G1 X114.376 Y58.036 E6.02768
G1 X115.11 Y57.696 E6.05458
G1 X115.438 Y57.554 E6.06647
G1 X116.207 Y57.242 E6.09407
G1 X116.534 Y57.118 E6.1057
G1 X117.313 Y56.844 E6.13317
G1 X117.665 Y56.73 E6.14548
G1 X118.458 Y56.495 E6.17298
G1 X118.8 Y56.403 E6.18476
G1 X119.596 Y56.208 E6.21202
G1 X119.936 Y56.133 E6.2236
G1 X120.718 Y55.98 E6.2501
G1 X121.086 Y55.917 E6.26252
G1 X121.921 Y55.797 E6.29058
G1 X122.261 Y55.756 E6.30197
G1 X123.056 Y55.679 E6.32854
G1 X123.416 Y55.653 E6.34054
G1 X124.254 Y55.613 E6.36844
G1 X124.607 Y55.605 E6.38019
G1 X125.407 Y55.605 E6.4068
G1 X125.772 Y55.614 E6.41894
G1 X126.602 Y55.655 E6.44658
G1 X126.957 Y55.681 E6.45842
G1 X127.775 Y55.761 E6.48576
G1 X128.114 Y55.802 E6.49711
G1 X128.937 Y55.921 E6.52477
G1 X129.301 Y55.983 E6.53705
G1 X130.102 Y56.14 E6.5642
G1 X130.459 Y56.219 E6.57636
G1 X131.238 Y56.412 E6.60305
G1 X131.576 Y56.504 E6.6147
G1 X132.383 Y56.745 E6.64272
G1 X132.724 Y56.856 E6.65464
G1 X133.482 Y57.123 E6.68137
G1 X133.813 Y57.249 E6.69315
G1 X134.577 Y57.56 E6.72059
G1 X134.904 Y57.703 E6.73246
G1 X135.649 Y58.049 E6.75978
G1 X135.976 Y58.21 E6.7719
G1 X136.636 Y58.557 E6.7967
G1 X137.297 Y58.95 E6.82228
G1 X137.914 Y59.409 E6.84786
G1 X138.48 Y59.93 E6.87344
G1 X138.989 Y60.507 E6.89904
G1 X139.471 Y61.191 E6.92687
G1 X139.529 Y61.284 E6.93051
G1 X139.902 Y61.957 E6.9561
G1 X140.202 Y62.665 E6.98168
G1 X140.428 Y63.4 E7.00726
G1 X140.576 Y64.155 E7.03284
G1 X140.65 Y65.2 E7.06769
G1 X140.65 Y67.64 E7.14884
G1 X141.169 Y67.607 E7.16614
G1 X141.937 Y67.639 E7.19171
G1 X142.698 Y67.75 E7.21728
G1 X143.444 Y67.94 E7.24289
G1 X144.165 Y68.206 E7.26845
G1 X144.856 Y68.545 E7.29405
G1 X145.507 Y68.954 E7.31962
G1 X146.112 Y69.429 E7.3452
G1 X146.665 Y69.963 E7.37077
G1 X147.159 Y70.553 E7.39637
G1 X147.59 Y71.19 E7.42195
G1 X147.952 Y71.869 E7.44754
G1 X148.287 Y72.717 E7.47786
G1 X148.444 Y73.226 E7.49558
G1 X148.627 Y73.896 E7.51868
G1 X148.722 Y74.286 E7.53203
G1 X148.923 Y75.218 E7.56374
G1 X148.969 Y75.45 E7.57161
G1 X149.087 Y76.097 E7.59348
G1 X149.158 Y76.577 E7.60962
G1 X149.261 Y77.47 E7.63952
G1 X149.289 Y77.76 E7.64921
G1 X149.36 Y78.699 E7.68053
G1 X149.378 Y79.033 E7.69166
G1 X149.397 Y79.66 E7.71252
G1 X149.396 Y80.316 E7.73434
G1 X149.375 Y80.956 E7.75564
G1 X149.358 Y81.394 E7.77022
G1 X149.292 Y82.239 E7.79841
G1 X149.264 Y82.519 E7.80777
G1 X149.17 Y83.326 E7.83479
G1 X149.112 Y83.73 E7.84836
G1 X148.994 Y84.413 E7.87142
G1 X148.931 Y84.737 E7.88239
G1 X148.715 Y85.723 E7.91597
G1 X148.629 Y86.072 E7.92792
G1 X148.452 Y86.726 E7.95046
G1 X148.297 Y87.237 E7.96822
G1 X148.024 Y87.956 E7.9938
G1 X147.678 Y88.643 E8.01938
G1 X147.263 Y89.29 E8.04495
G1 X146.783 Y89.891 E8.07053
G1 X146.243 Y90.439 E8.09612
G1 X145.649 Y90.928 E8.12171
G1 X145.007 Y91.352 E8.1473
G1 X144.325 Y91.708 E8.17288
G1 X143.61 Y91.991 E8.19846
G1 X142.869 Y92.198 E8.22405
G1 X142.111 Y92.327 E8.24962
G1 X141.344 Y92.376 E8.27519
G1 X140.65 Y92.349 E8.29829
G1 X140.65 Y94.8 E8.37981
G1 X140.61 Y95.568 E8.40539
G1 X140.491 Y96.328 E8.43097
G1 X140.293 Y97.071 E8.45655
G1 X140.019 Y97.79 E8.48214
G1 X139.529 Y98.716 E8.51698
G1 X139.471 Y98.809 E8.52063
G1 X139.031 Y99.44 E8.54621
G1 X138.527 Y100.021 E8.5718
G1 X137.966 Y100.547 E8.59737
G1 X137.353 Y101.012 E8.62296
G1 X136.632 Y101.445 E8.65094
G1 X135.954 Y101.801 E8.67641
G1 X135.62 Y101.966 E8.6888
G1 X134.874 Y102.311 E8.71613
G1 X134.554 Y102.449 E8.72772
G1 X133.811 Y102.751 E8.7544
G1 X133.476 Y102.878 E8.76632
G1 X132.684 Y103.156 E8.79423
G1 X132.344 Y103.267 E8.80613
G1 X131.551 Y103.503 E8.83365
G1 X131.211 Y103.595 E8.84536
G1 X130.428 Y103.788 E8.87219
G1 X130.065 Y103.868 E8.88455
G1 X129.255 Y104.025 E8.91199
G1 X128.901 Y104.085 E8.92393
G1 X128.109 Y104.199 E8.95055
G1 X127.779 Y104.239 E8.9616
G1 X126.955 Y104.32 E8.98914
G1 X126.584 Y104.347 E9.00151
G1 X125.746 Y104.387 E9.02942
G1 X125.393 Y104.395 E9.04116
G1 X124.58 Y104.395 E9.0682
G1 X124.209 Y104.386 E9.08054
G1 X123.392 Y104.345 E9.10775
G1 X123.05 Y104.32 E9.11916
G1 X122.244 Y104.242 E9.14609
G1 X121.897 Y104.2 E9.15772
G1 X121.061 Y104.079 E9.18581
G1 X120.696 Y104.016 E9.19813
G1 X119.896 Y103.859 E9.22525
G1 X119.541 Y103.781 E9.23734
G1 X118.762 Y103.588 E9.26403
G1 X118.422 Y103.495 E9.27575
G1 X117.616 Y103.254 E9.30373
G1 X117.274 Y103.142 E9.3157
G1 X116.503 Y102.87 E9.34289
G1 X116.164 Y102.741 E9.35496
G1 X115.401 Y102.429 E9.38238
G1 X115.092 Y102.295 E9.39358
G1 X114.358 Y101.955 E9.42048
G1 X114.024 Y101.79 E9.43287
G1 X113.364 Y101.443 E9.45767
G1 X112.703 Y101.05 E9.48325
G1 X112.086 Y100.591 E9.50883
G1 X111.52 Y100.07 E9.53441
G1 X111.011 Y99.493 E9.56001
G1 X110.529 Y98.809 E9.58784
G1 X110.471 Y98.716 E9.59148
G1 X110.098 Y98.043 E9.61707
G1 X109.798 Y97.335 E9.64265
G1 X109.572 Y96.6 E9.66823
G1 X109.424 Y95.845 E9.69381
G1 X109.35 Y94.8 E9.72866
G1 X109.35 Y92.341 E9.81044
G1 X108.831 Y92.374 E9.82774
G1 X108.063 Y92.342 E9.85331
G1 X107.302 Y92.231 E9.87889
G1 X106.556 Y92.041 E9.90449
G1 X105.835 Y91.775 E9.93005
G1 X105.144 Y91.436 E9.95565
G1 X104.493 Y91.027 E9.98122
G1 X103.888 Y90.552 E10.00681
G1 X103.335 Y90.018 E10.03237
G1 X102.841 Y89.428 E10.05797
G1 X102.41 Y88.791 E10.08355
G1 X102.048 Y88.112 E10.10914
G1 X101.67 Y87.125 E10.14429
G1 X101.454 Y86.39 E10.16977
G1 X101.212 Y85.444 E10.20225
G1 X101.118 Y85.029 E10.2164
G1 X101.008 Y84.466 E10.23548
G1 X100.904 Y83.836 E10.25672
G1 X100.807 Y83.16 E10.27943
G1 X100.767 Y82.831 E10.29046
G1 X100.68 Y81.94 E10.32023
G1 X100.656 Y81.587 E10.332
G1 X100.618 Y80.89 E10.35522
G1 X100.607 Y80.512 E10.3678
G1 X100.604 Y79.624 E10.39733
G1 X100.617 Y79.113 E10.41433
G1 X100.655 Y78.414 E10.43762
G1 X100.686 Y77.951 E10.45305
G1 X100.761 Y77.246 E10.47663
G1 X100.793 Y76.982 E10.48548
G1 X100.936 Y75.981 E10.51911
G1 X101.008 Y75.568 E10.53305
G1 X101.163 Y74.798 E10.55917
G1 X101.241 Y74.451 E10.571
G1 X101.447 Y73.633 E10.59906
G1 X101.665 Y72.882 E10.62507
G1 X101.925 Y72.158 E10.65066
G1 X102.259 Y71.465 E10.67624
G1 X102.663 Y70.811 E10.70181
G0 F3000 X103.027 Y70.988
G1 F1200 X103.49 Y70.4 E10.7267
G1 X104.013 Y69.865 E10.75159
G1 X104.59 Y69.389 E10.77646
G1 X105.215 Y68.977 E10.80136
G1 X105.88 Y68.634 E10.82625
G1 X106.578 Y68.365 E10.85113
G1 X107.3 Y68.171 E10.87599
G1 X108.039 Y68.055 E10.90087
G1 X108.786 Y68.019 E10.92575
G1 X109.533 Y68.063 E10.95064
G1 X109.75 Y68.099 E10.95795
G1 X109.75 Y65.2 E11.05437
G1 X109.79 Y64.453 E11.07926
G1 X109.909 Y63.715 E11.10412
G1 X110.107 Y62.993 E11.12902
G1 X110.38 Y62.297 E11.15389
G1 X110.81 Y61.496 E11.18412
G1 X110.868 Y61.403 E11.18777
G1 X111.298 Y60.79 E11.21267
G1 X111.79 Y60.227 E11.23754
G1 X112.339 Y59.719 E11.26242
G1 X112.94 Y59.273 E11.28731
G1 X113.554 Y58.909 E11.31105
G1 X114.232 Y58.553 E11.33652
G1 X114.544 Y58.399 E11.34809
G1 X115.278 Y58.059 E11.375
G1 X115.588 Y57.925 E11.38623
G1 X116.357 Y57.613 E11.41383
G1 X116.666 Y57.496 E11.42482
G1 X117.445 Y57.222 E11.45229
G1 X117.779 Y57.113 E11.46397
G1 X118.572 Y56.878 E11.49148
G1 X118.895 Y56.791 E11.50261
G1 X119.691 Y56.596 E11.52987
G1 X120.013 Y56.525 E11.54083
G1 X120.795 Y56.372 E11.56734
G1 X121.143 Y56.313 E11.57908
G1 X121.978 Y56.193 E11.60713
