;FLAVOR:Marlin
;TIME:1251
;Filament used: 0.6514m
;Layer height: 0.2
;MINX:95.513
;MINY:95.513
;MINZ:0.2
;MAXX:124.487
;MAXY:124.487
;MAXZ:31.6
;Generated with Cura_SteamEngine master
M82 ;absolute extrusion mode
;Sliced at: Sun 20-11-2022 23:50:49
;Basic settings: Layer height: 0.2 Walls: 0.8 Fill: 100.0
G21 ;metric values
G90 ;absolute positioning
M82 ;set extruder to absolute mode
M107 ;start with the fan off
M117 Start heating ...
M104 S200
M117 Homing X/Y ...
G28 X0 Y0 ;move X/Y to min endstops
M117 Homing Z ...
G28 Z0 ;move Z to min endstops
G1 Z15.0 F100 ;move the platform down 15mm
M117 Heating ...
M109 S200
M117 Start cleaning ...
G92 E0 ;zero the extruded length
G1 F200 E10 ;extrude 10mm of feed stock
G92 E0 ;zero the extruded length again
M117 Intro line ...
G1 Z2.0 F3000 ; Move Z Axis up little to prevent scratching of Heat Bed
G1 X0.1 Y20 Z0.2 F5000.0 ; Move to start position
G1 X0.1 Y200.0 Z0.2 F1500.0 E15 ; Draw the first line
G1 X0.4 Y200.0 Z0.2 F5000.0 ; Move to side a little
G1 X0.4 Y20 Z0.3 F1500.0 E30 ; Draw the second line
G92 E0 ; Reset Extruder
G1 E-1 F500 ; Retract filiment by 1 mm
G1 Z2.0 F3000 ; Move Z Axis up little to prevent scratching of Heat Bed
G1 X5 Y20 Z0.3 F100 ; Move over to prevent blob squish
G1 F100
G92 E0 ; Reset Extruder
M117 Printing...

G92 E0
G92 E0
G1 F1800 E-7
;LAYER_COUNT:158
;LAYER:0
M107
G1 F300 Z0.4
G0 F3000 X99.872 Y99.64 Z0.4
;TYPE:SKIRT
G1 F300 Z0.2
G1 F1800 E0
G1 F1200 X100.32 Y99.229 E0.02022
G1 X100.872 Y98.751 E0.04451
G1 X101.125 Y98.549 E0.05528
G1 X101.657 Y98.162 E0.07716
G1 X102.164 Y97.814 E0.09761
G1 X102.446 Y97.637 E0.10868
G1 X102.937 Y97.357 E0.12748
G1 X103.588 Y97.009 E0.15203
G1 X103.887 Y96.865 E0.16307
G1 X104.391 Y96.648 E0.18132
G1 X105.082 Y96.373 E0.20606
G1 X105.394 Y96.264 E0.21705
G1 X105.932 Y96.101 E0.23575
G1 X106.604 Y95.917 E0.25892
G1 X106.916 Y95.845 E0.26957
G1 X107.498 Y95.736 E0.28927
G1 X107.633 Y95.713 E0.29382
G1 X108.251 Y95.619 E0.31461
G1 X108.569 Y95.584 E0.32525
G1 X109.24 Y95.538 E0.34762
G1 X109.862 Y95.513 E0.36833
G1 X110.187 Y95.513 E0.37914
G1 X110.723 Y95.535 E0.39698
G1 X111.422 Y95.583 E0.42028
G1 X111.817 Y95.627 E0.4335
G1 X112.327 Y95.706 E0.45067
G1 X112.45 Y95.727 E0.45482
G1 X113.103 Y95.849 E0.47691
G1 X113.422 Y95.922 E0.4878
G1 X114.023 Y96.088 E0.50853
G1 X114.636 Y96.274 E0.52984
G1 X114.954 Y96.386 E0.54105
G1 X115.591 Y96.641 E0.56387
G1 X116.14 Y96.879 E0.58378
G1 X116.475 Y97.041 E0.59615
G1 X117.048 Y97.349 E0.61779
G1 X117.588 Y97.658 E0.63848
G1 X117.873 Y97.838 E0.64969
G1 X118.415 Y98.214 E0.67163
G1 X118.901 Y98.569 E0.69165
G1 X119.164 Y98.778 E0.70283
G1 X119.595 Y99.152 E0.7218
G1 X120.121 Y99.634 E0.74553
G1 X120.357 Y99.87 E0.75663
G1 X120.768 Y100.317 E0.77683
G1 X120.85 Y100.409 E0.78093
G1 X121.25 Y100.872 E0.80128
G1 X121.453 Y101.128 E0.81215
G1 X121.838 Y101.657 E0.83391
G1 X122.182 Y102.158 E0.85412
G1 X122.358 Y102.44 E0.86518
G1 X122.696 Y103.035 E0.88794
G1 X122.99 Y103.586 E0.90871
G1 X123.135 Y103.887 E0.91982
G1 X123.352 Y104.391 E0.93807
G1 X123.627 Y105.082 E0.96281
G1 X123.736 Y105.394 E0.9738
G1 X123.899 Y105.932 E0.9925
G1 X124.083 Y106.604 E1.01567
G1 X124.154 Y106.914 E1.02625
G1 X124.263 Y107.495 E1.04591
G1 X124.284 Y107.618 E1.05006
G1 X124.378 Y108.222 E1.07039
G1 X124.416 Y108.561 E1.08174
G1 X124.461 Y109.232 E1.10411
G1 X124.487 Y109.851 E1.12471
G1 X124.487 Y110.189 E1.13595
G1 X124.458 Y110.84 E1.15763
G1 X124.417 Y111.422 E1.17703
G1 X124.373 Y111.817 E1.19025
G1 X124.294 Y112.327 E1.20742
G1 X124.273 Y112.45 E1.21157
G1 X124.151 Y113.103 E1.23366
G1 X124.078 Y113.422 E1.24455
G1 X123.943 Y113.916 E1.26158
G1 X123.727 Y114.63 E1.28639
G1 X123.618 Y114.943 E1.29741
G1 X123.407 Y115.475 E1.31645
G1 X123.359 Y115.591 E1.32062
G1 X123.121 Y116.14 E1.34053
G1 X122.961 Y116.472 E1.35278
G1 X122.709 Y116.944 E1.37058
G1 X122.652 Y117.047 E1.37449
G1 X122.343 Y117.587 E1.39519
G1 X122.162 Y117.873 E1.40645
G1 X121.786 Y118.415 E1.42839
G1 X121.431 Y118.901 E1.4484
G1 X121.222 Y119.164 E1.45958
G1 X120.848 Y119.595 E1.47856
G1 X120.366 Y120.121 E1.50229
G1 X120.13 Y120.357 E1.51339
G1 X119.683 Y120.768 E1.53358
G1 X119.591 Y120.85 E1.53768
G1 X119.128 Y121.25 E1.55803
G1 X118.872 Y121.453 E1.5689
G1 X118.341 Y121.839 E1.59073
G1 X117.835 Y122.186 E1.61114
G1 X117.555 Y122.362 E1.62214
G1 X117.064 Y122.642 E1.64094
G1 X116.417 Y122.988 E1.66534
G1 X116.119 Y123.132 E1.67635
G1 X115.613 Y123.35 E1.69468
G1 X114.923 Y123.625 E1.71938
G1 X114.606 Y123.736 E1.73055
G1 X114.068 Y123.899 E1.74925
G1 X113.396 Y124.083 E1.77242
G1 X113.084 Y124.155 E1.78307
G1 X112.502 Y124.264 E1.80277
G1 X112.367 Y124.287 E1.80732
G1 X111.749 Y124.381 E1.82811
G1 X111.431 Y124.416 E1.83875
G1 X110.76 Y124.462 E1.86112
G1 X110.138 Y124.487 E1.88183
G1 X109.813 Y124.487 E1.89264
G1 X109.277 Y124.465 E1.91048
G1 X108.578 Y124.417 E1.93378
G1 X108.183 Y124.373 E1.947
G1 X107.673 Y124.294 E1.96417
G1 X107.55 Y124.273 E1.96832
G1 X106.897 Y124.151 E1.99041
G1 X106.578 Y124.078 E2.0013
G1 X105.977 Y123.912 E2.02203
G1 X105.364 Y123.726 E2.04334
G1 X105.046 Y123.614 E2.05455
G1 X104.408 Y123.359 E2.07741
G1 X103.857 Y123.12 E2.09738
G1 X103.525 Y122.959 E2.10965
G1 X102.952 Y122.651 E2.13129
G1 X102.412 Y122.342 E2.15198
G1 X102.127 Y122.162 E2.1632
G1 X101.585 Y121.786 E2.18514
G1 X101.099 Y121.431 E2.20515
G1 X100.836 Y121.222 E2.21633
G1 X100.405 Y120.848 E2.23531
G1 X99.879 Y120.366 E2.25904
G1 X99.643 Y120.13 E2.27014
G1 X99.232 Y119.683 E2.29033
G1 X99.15 Y119.591 E2.29443
G1 X98.75 Y119.128 E2.31478
G1 X98.547 Y118.872 E2.32565
G1 X98.161 Y118.341 E2.34748
G1 X97.814 Y117.835 E2.36789
G1 X97.64 Y117.557 E2.3788
G1 X97.302 Y116.962 E2.40156
G1 X97.009 Y116.412 E2.42228
G1 X96.865 Y116.113 E2.43332
G1 X96.648 Y115.609 E2.45157
G1 X96.373 Y114.918 E2.47631
G1 X96.264 Y114.606 E2.4873
G1 X96.101 Y114.068 E2.506
G1 X95.917 Y113.396 E2.52917
G1 X95.845 Y113.084 E2.53982
G1 X95.736 Y112.502 E2.55952
G1 X95.713 Y112.367 E2.56407
G1 X95.619 Y111.749 E2.58486
G1 X95.584 Y111.431 E2.5955
G1 X95.538 Y110.76 E2.61787
G1 X95.513 Y110.138 E2.63858
G1 X95.513 Y109.813 E2.64939
G1 X95.535 Y109.277 E2.66723
G1 X95.583 Y108.578 E2.69053
G1 X95.627 Y108.183 E2.70375
G1 X95.706 Y107.673 E2.72092
G1 X95.727 Y107.55 E2.72507
G1 X95.849 Y106.897 E2.74716
G1 X95.922 Y106.578 E2.75805
G1 X96.057 Y106.084 E2.77508
G1 X96.275 Y105.363 E2.80013
G1 X96.385 Y105.049 E2.8112
G1 X96.641 Y104.409 E2.83412
G1 X96.879 Y103.86 E2.85403
G1 X97.039 Y103.528 E2.86628
G1 X97.291 Y103.056 E2.88408
G1 X97.66 Y102.409 E2.90885
G1 X97.84 Y102.123 E2.92009
G1 X98.217 Y101.58 E2.94208
G1 X98.576 Y101.09 E2.96228
G1 X98.78 Y100.835 E2.97314
G1 X99.226 Y100.322 E2.99575
G1 X99.629 Y99.883 E3.01557
G1 X99.872 Y99.64 E3.027
G0 F3000 X100.142 Y99.935
G1 F1200 X100.59 Y99.524 E3.04722
G1 X101.133 Y99.053 E3.07113
G1 X101.361 Y98.872 E3.08081
G1 X101.796 Y98.554 E3.09874
G1 X102.391 Y98.144 E3.12277
G1 X102.645 Y97.985 E3.13274
G1 X103.226 Y97.655 E3.15496
G1 X103.776 Y97.362 E3.17569
G1 X104.045 Y97.232 E3.18562
G1 X104.549 Y97.015 E3.20387
G1 X105.229 Y96.745 E3.22821
G1 X105.51 Y96.647 E3.23811
G1 X106.149 Y96.455 E3.2603
G1 X106.709 Y96.303 E3.2796
G1 X106.989 Y96.239 E3.28915
G1 X107.571 Y96.13 E3.30885
G1 X107.693 Y96.109 E3.31296
G1 X108.311 Y96.015 E3.33375
G1 X108.597 Y95.983 E3.34333
G1 X109.146 Y95.944 E3.36163
G1 X109.878 Y95.913 E3.386
G1 X110.171 Y95.913 E3.39575
G1 X110.812 Y95.941 E3.41709
G1 X111.393 Y95.982 E3.43646
G1 X111.756 Y96.022 E3.4486
G1 X112.266 Y96.101 E3.46577
G1 X113.029 Y96.242 E3.49158
G1 X113.317 Y96.308 E3.5014
G1 X113.811 Y96.443 E3.51844
G1 X114.52 Y96.657 E3.54307
G1 X114.807 Y96.757 E3.55318
G1 X115.332 Y96.966 E3.57197
G1 X115.981 Y97.246 E3.59548
G1 X116.286 Y97.394 E3.60676
G1 X116.849 Y97.696 E3.62801
G1 X117.389 Y98.005 E3.6487
G1 X117.646 Y98.167 E3.6588
G1 X118.101 Y98.481 E3.67719
G1 X118.665 Y98.892 E3.7004
G1 X118.901 Y99.08 E3.71044
G1 X119.411 Y99.524 E3.73293
G1 X119.85 Y99.928 E3.75277
G1 X120.062 Y100.14 E3.76274
G1 X120.473 Y100.587 E3.78294
G1 X120.947 Y101.134 E3.80701
G1 X121.13 Y101.364 E3.81679
G1 X121.508 Y101.883 E3.83814
G1 X121.852 Y102.384 E3.85836
G1 X122.011 Y102.638 E3.86832
G1 X122.343 Y103.223 E3.8907
G1 X122.637 Y103.774 E3.91147
G1 X122.768 Y104.045 E3.92148
G1 X122.985 Y104.549 E3.93973
G1 X123.255 Y105.229 E3.96406
G1 X123.353 Y105.51 E3.97396
G1 X123.545 Y106.149 E3.99615
G1 X123.697 Y106.709 E4.01545
G1 X123.761 Y106.988 E4.02497
G1 X123.889 Y107.679 E4.04835
G1 X123.983 Y108.283 E4.06868
G1 X124.017 Y108.588 E4.07889
G1 X124.062 Y109.249 E4.10092
G1 X124.088 Y109.868 E4.12153
G1 X124.088 Y110.172 E4.13164
G1 X124.065 Y110.712 E4.14962
G1 X124.018 Y111.394 E4.17235
G1 X123.978 Y111.756 E4.18447
G1 X123.899 Y112.266 E4.20163
G1 X123.758 Y113.029 E4.22744
G1 X123.692 Y113.317 E4.23727
G1 X123.529 Y113.908 E4.25766
G1 X123.345 Y114.514 E4.27872
G1 X123.246 Y114.795 E4.28863
G1 X122.992 Y115.432 E4.31144
G1 X122.754 Y115.981 E4.33134
G1 X122.608 Y116.284 E4.34253
G1 X122.305 Y116.848 E4.36382
G1 X121.996 Y117.388 E4.38452
G1 X121.833 Y117.646 E4.39467
G1 X121.463 Y118.179 E4.41625
G1 X121.108 Y118.665 E4.43626
G1 X120.92 Y118.901 E4.4463
G1 X120.476 Y119.411 E4.46879
G1 X120.072 Y119.85 E4.48863
G1 X119.86 Y120.062 E4.4986
G1 X119.413 Y120.473 E4.5188
G1 X118.866 Y120.947 E4.54287
G1 X118.636 Y121.13 E4.55265
G1 X118.115 Y121.509 E4.57408
G1 X117.609 Y121.856 E4.59449
G1 X117.356 Y122.014 E4.60441
G1 X116.775 Y122.344 E4.62663
G1 X116.229 Y122.635 E4.64721
G1 X115.96 Y122.764 E4.65713
G1 X115.359 Y123.022 E4.67888
G1 X114.775 Y123.254 E4.69978
G1 X114.49 Y123.353 E4.70982
G1 X113.851 Y123.545 E4.73201
G1 X113.291 Y123.697 E4.75131
G1 X113.011 Y123.761 E4.76086
G1 X112.429 Y123.87 E4.78056
G1 X112.307 Y123.891 E4.78468
G1 X111.689 Y123.985 E4.80547
G1 X111.403 Y124.017 E4.81504
G1 X110.854 Y124.056 E4.83334
G1 X110.122 Y124.087 E4.85771
G1 X109.829 Y124.087 E4.86746
G1 X109.188 Y124.059 E4.8888
G1 X108.607 Y124.018 E4.90817
G1 X108.244 Y123.978 E4.92032
G1 X107.734 Y123.899 E4.93748
G1 X106.971 Y123.758 E4.96329
G1 X106.683 Y123.692 E4.97312
G1 X106.189 Y123.557 E4.99015
G1 X105.48 Y123.343 E5.01478
G1 X105.193 Y123.243 E5.02489
G1 X104.567 Y122.992 E5.04732
G1 X104.016 Y122.753 E5.0673
G1 X103.714 Y122.606 E5.07847
G1 X103.151 Y122.304 E5.09972
G1 X102.611 Y121.995 E5.12041
G1 X102.354 Y121.833 E5.13052
G1 X101.899 Y121.519 E5.1489
G1 X101.335 Y121.108 E5.17211
G1 X101.099 Y120.92 E5.18215
G1 X100.589 Y120.476 E5.20464
G1 X100.15 Y120.072 E5.22448
G1 X99.938 Y119.86 E5.23446
G1 X99.527 Y119.413 E5.25465
G1 X99.053 Y118.866 E5.27873
G1 X98.87 Y118.636 E5.2885
G1 X98.491 Y118.115 E5.30993
G1 X98.144 Y117.609 E5.33034
G1 X97.987 Y117.358 E5.34018
G1 X97.655 Y116.774 E5.36253
G1 X97.362 Y116.224 E5.38325
G1 X97.232 Y115.955 E5.39319
G1 X97.015 Y115.451 E5.41144
G1 X96.745 Y114.771 E5.43578
G1 X96.647 Y114.49 E5.44567
G1 X96.455 Y113.851 E5.46787
G1 X96.303 Y113.291 E5.48717
G1 X96.239 Y113.011 E5.49672
G1 X96.13 Y112.429 E5.51641
G1 X96.109 Y112.307 E5.52053
G1 X96.015 Y111.689 E5.54132
G1 X95.983 Y111.403 E5.55089
G1 X95.944 Y110.854 E5.5692
G1 X95.913 Y110.122 E5.59357
G1 X95.913 Y109.829 E5.60331
G1 X95.941 Y109.188 E5.62465
G1 X95.982 Y108.607 E5.64402
G1 X96.022 Y108.244 E5.65617
G1 X96.101 Y107.734 E5.67334
G1 X96.242 Y106.971 E5.69914
G1 X96.308 Y106.683 E5.70897
G1 X96.443 Y106.189 E5.726
G1 X96.658 Y105.479 E5.75068
G1 X96.756 Y105.197 E5.76061
G1 X96.965 Y104.671 E5.77943
G1 X97.246 Y104.019 E5.80305
G1 X97.392 Y103.716 E5.81423
G1 X97.644 Y103.244 E5.83203
G1 X98.007 Y102.608 E5.85638
G1 X98.169 Y102.351 E5.86649
G1 X98.54 Y101.816 E5.88814
G1 X98.899 Y101.326 E5.90835
G1 X99.082 Y101.096 E5.91812
G1 X99.452 Y100.669 E5.93691
G1 X99.924 Y100.153 E5.96017
G1 X100.142 Y99.935 E5.97043
G0 F3000 X100.413 Y100.23
G1 F1200 X100.932 Y99.755 E5.99383
G1 X101.394 Y99.356 E6.01413
G1 X101.598 Y99.195 E6.02278
G1 X102.11 Y98.822 E6.04384
G1 X102.617 Y98.474 E6.0643
G1 X102.843 Y98.332 E6.07317
G1 X103.414 Y98.008 E6.09501
G1 X103.964 Y97.715 E6.11574
G1 X104.204 Y97.6 E6.12459
G1 X104.795 Y97.347 E6.14597
G1 X105.376 Y97.117 E6.16675
G1 X105.626 Y97.029 E6.17557
G1 X106.164 Y96.866 E6.19427
G1 X106.814 Y96.689 E6.21667
G1 X107.063 Y96.632 E6.22517
G1 X107.753 Y96.504 E6.24851
G1 X108.371 Y96.41 E6.2693
G1 X108.625 Y96.382 E6.2778
G1 X109.174 Y96.343 E6.29611
G1 X109.894 Y96.313 E6.32007
G1 X110.154 Y96.313 E6.32872
G1 X110.784 Y96.34 E6.3497
G1 X111.483 Y96.391 E6.37301
G1 X111.695 Y96.418 E6.38011
G1 X112.303 Y96.513 E6.40058
G1 X112.956 Y96.635 E6.42268
G1 X113.212 Y96.694 E6.43141
G1 X113.706 Y96.829 E6.44845
G1 X114.404 Y97.04 E6.4727
G1 X114.659 Y97.129 E6.48168
G1 X115.273 Y97.375 E6.50368
G1 X115.822 Y97.613 E6.52358
G1 X116.097 Y97.746 E6.53374
G1 X116.57 Y97.999 E6.55159
G1 X117.19 Y98.353 E6.57533
G1 X117.419 Y98.496 E6.58431
G1 X117.944 Y98.86 E6.60556
G1 X118.43 Y99.215 E6.62558
G1 X118.639 Y99.382 E6.63448
G1 X119.14 Y99.818 E6.65656
G1 X119.579 Y100.222 E6.67641
G1 X119.768 Y100.411 E6.6853
G1 X120.179 Y100.858 E6.70549
G1 X120.644 Y101.395 E6.72912
G1 X120.807 Y101.6 E6.73783
G1 X121.178 Y102.11 E6.75881
G1 X121.522 Y102.611 E6.77902
G1 X121.663 Y102.836 E6.78785
G1 X121.99 Y103.412 E6.80988
G1 X122.284 Y103.963 E6.83065
G1 X122.4 Y104.204 E6.83955
G1 X122.653 Y104.795 E6.86093
G1 X122.883 Y105.376 E6.88172
G1 X122.971 Y105.626 E6.89053
G1 X123.134 Y106.164 E6.90923
G1 X123.311 Y106.814 E6.93163
G1 X123.368 Y107.062 E6.9401
G1 X123.494 Y107.741 E6.96307
G1 X123.588 Y108.345 E6.9834
G1 X123.618 Y108.616 E6.99247
G1 X123.662 Y109.266 E7.01414
G1 X123.688 Y109.885 E7.03474
G1 X123.688 Y110.155 E7.04372
G1 X123.66 Y110.784 E7.06466
G1 X123.619 Y111.366 E7.08407
G1 X123.582 Y111.695 E7.09508
G1 X123.487 Y112.303 E7.11555
G1 X123.365 Y112.956 E7.13764
G1 X123.306 Y113.212 E7.14638
G1 X123.146 Y113.792 E7.16639
G1 X122.962 Y114.398 E7.18746
G1 X122.875 Y114.648 E7.19626
G1 X122.664 Y115.18 E7.21529
G1 X122.387 Y115.822 E7.23855
G1 X122.255 Y116.095 E7.24864
G1 X122.003 Y116.567 E7.26643
G1 X121.648 Y117.189 E7.29025
G1 X121.504 Y117.419 E7.29928
G1 X121.14 Y117.944 E7.32053
G1 X120.785 Y118.43 E7.34054
G1 X120.618 Y118.639 E7.34944
G1 X120.182 Y119.14 E7.37153
G1 X119.778 Y119.579 E7.39137
G1 X119.589 Y119.768 E7.40026
G1 X119.142 Y120.179 E7.42046
G1 X118.605 Y120.644 E7.44409
G1 X118.4 Y120.807 E7.4528
G1 X117.889 Y121.179 E7.47382
G1 X117.383 Y121.526 E7.49423
G1 X117.158 Y121.667 E7.50306
G1 X116.587 Y121.991 E7.5249
G1 X116.041 Y122.282 E7.54547
G1 X115.802 Y122.397 E7.55429
G1 X115.211 Y122.65 E7.57568
G1 X114.627 Y122.882 E7.59658
G1 X114.374 Y122.971 E7.6055
G1 X113.836 Y123.134 E7.6242
G1 X113.186 Y123.311 E7.6466
G1 X112.937 Y123.368 E7.6551
G1 X112.247 Y123.496 E7.67844
G1 X111.629 Y123.59 E7.69923
G1 X111.375 Y123.618 E7.70773
G1 X110.826 Y123.657 E7.72603
G1 X110.106 Y123.687 E7.75
G1 X109.846 Y123.687 E7.75865
G1 X109.216 Y123.66 E7.77962
G1 X108.517 Y123.609 E7.80293
G1 X108.305 Y123.582 E7.81004
G1 X107.697 Y123.487 E7.83051
G1 X107.044 Y123.365 E7.8526
G1 X106.788 Y123.306 E7.86134
G1 X106.294 Y123.171 E7.87838
G1 X105.596 Y122.96 E7.90263
G1 X105.341 Y122.871 E7.91161
G1 X104.727 Y122.625 E7.93361
G1 X104.176 Y122.386 E7.95359
G1 X103.903 Y122.254 E7.96367
G1 X103.43 Y122.001 E7.98151
G1 X102.81 Y121.647 E8.00526
G1 X102.581 Y121.504 E8.01424
G1 X102.056 Y121.14 E8.03549
G1 X101.57 Y120.785 E8.05551
G1 X101.361 Y120.618 E8.0644
G1 X100.86 Y120.182 E8.08649
G1 X100.421 Y119.778 E8.10634
G1 X100.232 Y119.589 E8.11523
G1 X99.821 Y119.142 E8.13542
G1 X99.356 Y118.605 E8.15905
G1 X99.193 Y118.4 E8.16776
G1 X98.821 Y117.889 E8.18878
G1 X98.474 Y117.383 E8.20919
G1 X98.334 Y117.16 E8.21795
G1 X98.008 Y116.586 E8.2399
G1 X97.715 Y116.036 E8.26063
G1 X97.6 Y115.796 E8.26948
G1 X97.347 Y115.205 E8.29086
G1 X97.117 Y114.624 E8.31165
G1 X97.029 Y114.374 E8.32046
G1 X96.866 Y113.836 E8.33916
G1 X96.689 Y113.186 E8.36156
G1 X96.632 Y112.937 E8.37006
G1 X96.504 Y112.247 E8.3934
G1 X96.41 Y111.629 E8.41419
G1 X96.382 Y111.375 E8.42269
