;FLAVOR:Marlin
;TIME:8595
;Filament used: 4.17948m
;Layer height: 0.1
;MINX:89.2
;MINY:87.45
;MINZ:0.1
;MAXX:134.8
;MAXY:136.55
;MAXZ:30
;Generated with Cura_SteamEngine 4.2.1
M140 S60
M105
M190 S60
M104 S200
M105
M109 S200
M82 ;absolute extrusion mode
G21 ;metric values
G90 ;absolute positioning
M82 ;set extruder to absolute mode
M107 ;start with the fan off
G28 X0 Y0 ;move X/Y to min endstops
G28 Z0 ;move Z to min endstops
G1 Z15.0 F50 ;move the platform down 15mm
G92 E0 ;zero the extruded length
G1 F200 E3 ;extrude 3mm of feed stock
G92 E0 ;zero the extruded length again
G1 F50
M117 Printing...
G5
M141 S28
G92 E0
G92 E0
G1 F2400 E-6
;LAYER_COUNT:300
;LAYER:0
M106 S255
M204 S3000
M205 X10 Y10
;MESH:Tubus.Tarto.stl
G0 F1500 X92.208 Y100.484 Z0.1
M204 S1800
M205 X8 Y8
;TYPE:WALL-INNER
G1 F2400 E0
G1 F1500 X92.137 Y100.448 E0.00185
G1 X92.133 Y100.154 E0.0087
G1 X91.853 Y99.768 E0.0198
G1 X91.531 Y98.389 E0.05277
G1 X91.4 Y97.691 E0.06931
G1 X90.967 Y96.769 E0.09302
G1 X90.4 Y95.503 E0.12532
G1 X90.4 Y88.65 E0.28487
G1 X133.6 Y88.65 E1.29066
G1 X133.6 Y95.474 E1.44953
G1 X133.029 Y96.778 E1.48268
G1 X132.601 Y97.69 E1.50613
G1 X132.473 Y98.373 E1.52231
G1 X132.045 Y100.198 E1.56595
G1 X132.045 Y133.795 E2.34816
G1 X92.197 Y133.795 E3.27591
G1 X92.13 Y133.795 E3.27747
G1 X92.119 Y133.795 E3.27772
G1 X92.13 Y133.369 E3.28457
G1 X92.13 Y133.302 E3.286
G1 X92.131 Y131.951 E3.31745
G1 X92.071 Y124.618 E3.48819
G1 X92.08 Y107.625 E3.88382
G1 X92.208 Y100.484 E4.0501
M204 S3000
M205 X10 Y10
G0 X97.02 Y111.858
M204 S1800
M205 X8 Y8
G1 X96.79 Y114.497 E4.11178
G1 X96.998 Y117.003 E4.17032
G1 X97.615 Y119.437 E4.22878
G1 X98.624 Y121.738 E4.28728
G1 X99.996 Y123.842 E4.34576
G1 X101.67 Y125.66 E4.4033
G1 X102.246 Y126.165 E4.42113
G1 X103.664 Y127.217 E4.46224
G1 X104.415 Y127.678 E4.48276
G1 X105.877 Y128.419 E4.52092
G1 X106.81 Y128.792 E4.54431
G1 X108.258 Y129.238 E4.57959
G1 X109.366 Y129.475 E4.60597
G1 X110.74 Y129.655 E4.63823
G1 X112 Y129.705 E4.66759
G1 X113.26 Y129.655 E4.69695
G1 X114.634 Y129.475 E4.72921
G1 X115.742 Y129.238 E4.75559
G1 X117.19 Y128.792 E4.79086
G1 X118.123 Y128.419 E4.81426
G1 X119.585 Y127.678 E4.85242
G1 X120.336 Y127.217 E4.87294
G1 X121.754 Y126.165 E4.91404
G1 X122.32 Y125.667 E4.9316
G1 X123.66 Y124.264 E4.97676
G1 X125.172 Y122.105 E5.03813
G1 X126.292 Y119.702 E5.09986
G1 X126.98 Y117.142 E5.16157
G1 X127.21 Y114.503 E5.22325
G1 X127.002 Y111.997 E5.28179
G1 X126.385 Y109.563 E5.34025
G1 X125.376 Y107.262 E5.39875
G1 X124.004 Y105.158 E5.45723
G1 X122.33 Y103.34 E5.51477
G1 X121.754 Y102.835 E5.5326
G1 X120.336 Y101.783 E5.57371
G1 X119.585 Y101.322 E5.59423
G1 X118.123 Y100.581 E5.63239
G1 X117.19 Y100.208 E5.65578
G1 X115.742 Y99.762 E5.69106
G1 X114.634 Y99.525 E5.71744
G1 X113.26 Y99.345 E5.7497
G1 X112 Y99.295 E5.77906
G1 X110.74 Y99.345 E5.80842
G1 X109.366 Y99.525 E5.84068
G1 X108.258 Y99.762 E5.86706
G1 X106.81 Y100.208 E5.90234
G1 X105.877 Y100.581 E5.92573
G1 X104.415 Y101.322 E5.96389
G1 X103.664 Y101.783 E5.98441
G1 X102.246 Y102.835 E6.02551
G1 X101.68 Y103.333 E6.04307
G1 X100.34 Y104.736 E6.08824
G1 X98.828 Y106.895 E6.1496
G1 X97.708 Y109.298 E6.21133
G1 X97.02 Y111.858 E6.27305
M204 S3000
M205 X10 Y10
G0 X97.574 Y111.956
M204 S1800
M205 X8 Y8
G1 X97.352 Y114.498 E6.33245
G1 X97.552 Y116.91 E6.3888
G1 X98.146 Y119.255 E6.44512
G1 X99.118 Y121.471 E6.50146
G1 X100.44 Y123.497 E6.55779
G1 X102.062 Y125.259 E6.61354
G1 X102.598 Y125.729 E6.63014
G1 X103.978 Y126.753 E6.67015
G1 X104.688 Y127.189 E6.68955
G1 X106.108 Y127.908 E6.7266
G1 X106.997 Y128.264 E6.7489
G1 X108.399 Y128.696 E6.78306
G1 X109.461 Y128.923 E6.80834
G1 X110.788 Y129.096 E6.8395
G1 X112 Y129.145 E6.86774
G1 X113.212 Y129.096 E6.89598
G1 X114.539 Y128.923 E6.92714
G1 X115.601 Y128.696 E6.95242
G1 X117.003 Y128.264 E6.98658
G1 X117.892 Y127.908 E7.00887
G1 X119.312 Y127.189 E7.04593
G1 X120.022 Y126.753 E7.06533
G1 X121.402 Y125.729 E7.10533
G1 X121.932 Y125.263 E7.12177
G1 X123.226 Y123.908 E7.16539
G1 X124.685 Y121.824 E7.22462
G1 X125.764 Y119.51 E7.28406
G1 X126.426 Y117.044 E7.34351
G1 X126.648 Y114.502 E7.40292
G1 X126.448 Y112.09 E7.45926
G1 X125.854 Y109.745 E7.51559
G1 X124.882 Y107.529 E7.57192
G1 X123.56 Y105.503 E7.62825
G1 X121.938 Y103.741 E7.684
G1 X121.402 Y103.271 E7.7006
G1 X120.022 Y102.247 E7.74061
G1 X119.312 Y101.811 E7.76001
G1 X117.892 Y101.092 E7.79707
G1 X117.003 Y100.736 E7.81936
G1 X115.601 Y100.304 E7.85352
G1 X114.539 Y100.077 E7.8788
G1 X113.212 Y99.904 E7.90996
G1 X112 Y99.855 E7.9382
G1 X110.788 Y99.904 E7.96644
G1 X109.461 Y100.077 E7.9976
G1 X108.399 Y100.304 E8.02288
G1 X106.997 Y100.736 E8.05704
G1 X106.108 Y101.092 E8.07933
G1 X104.688 Y101.811 E8.11639
G1 X103.978 Y102.247 E8.13579
G1 X102.598 Y103.271 E8.1758
G1 X102.068 Y103.737 E8.19223
G1 X100.774 Y105.092 E8.23585
G1 X99.315 Y107.176 E8.29508
G1 X98.236 Y109.49 E8.35452
G1 X97.574 Y111.956 E8.41397
M204 S3000
M205 X10 Y10
G0 X97.478 Y111.931
G0 X91.727 Y100.773
G0 X91.642 Y100.824
M204 S1800
M205 X8 Y8
G1 X91.581 Y100.793 E8.41556
G1 X91.575 Y100.339 E8.42613
G1 X91.334 Y100.006 E8.4357
G1 X90.98 Y98.492 E8.4719
G1 X90.863 Y97.864 E8.48678
G1 X90.46 Y97.007 E8.50882
G1 X89.883 Y95.723 E8.5416
G1 X89.84 Y95.595 E8.54474
G1 X89.84 Y88.09 E8.71947
G1 X134.16 Y88.09 E9.75134
G1 X134.16 Y95.546 E9.92493
G1 X134.153 Y95.608 E9.92638
G1 X133.536 Y97.016 E9.96217
G1 X133.138 Y97.864 E9.98398
G1 X133.018 Y98.501 E9.99907
G1 X132.605 Y100.263 E10.04121
G1 X132.605 Y134.355 E10.83494
G1 X91.832 Y134.355 E11.78422
G1 X91.831 Y134.355 E11.78424
G1 X91.545 Y134.355 E11.7909
G1 X91.551 Y134.069 E11.79519
G1 X91.552 Y134.068 E11.79522
G1 X91.57 Y133.362 E11.81166
G1 X91.571 Y131.953 E11.84447
G1 X91.511 Y124.618 E12.01525
G1 X91.52 Y107.615 E12.41111
G1 X91.642 Y100.824 E12.56925
M204 S3000
M205 X10 Y10
G0 X91.076 Y101.164
M204 S1800
M205 X8 Y8
;TYPE:WALL-OUTER
G1 X91.025 Y101.138 E12.57058
G1 X91.017 Y100.523 E12.5849
G1 X90.815 Y100.243 E12.59294
G1 X90.435 Y98.62 E12.63175
G1 X90.326 Y98.038 E12.64553
G1 X89.953 Y97.246 E12.66591
G1 X89.362 Y95.931 E12.69948
G1 X89.28 Y95.687 E12.70547
G1 X89.28 Y87.53 E12.89539
G1 X134.72 Y87.53 E13.95332
G1 X134.72 Y95.58 E14.14074
G1 X134.701 Y95.754 E14.14482
G1 X134.048 Y97.244 E14.1827
G1 X133.675 Y98.038 E14.20312
G1 X133.565 Y98.619 E14.21689
G1 X133.165 Y100.328 E14.25775
G1 X133.165 Y134.688 E15.05772
G1 X133.108 Y134.812 E15.0609
G1 X133.027 Y134.885 E15.06344
G1 X132.949 Y134.915 E15.06539
G1 X91.063 Y134.915 E16.04058
G1 X91.027 Y134.915 E16.04142
G1 X90.893 Y134.871 E16.0447
G1 X90.838 Y134.797 E16.04685
G1 X90.983 Y134.428 E16.05608
G1 X90.983 Y134.392 E16.05692
G1 X91.01 Y133.355 E16.08107
G1 X91.011 Y131.955 E16.11366
G1 X90.951 Y124.618 E16.28449
G1 X90.96 Y107.605 E16.68059
G1 X91.076 Y101.164 E16.83057
M204 S3000
M205 X10 Y10
G0 X91.025 Y101.138
G0 X91.024 Y100.995
G0 X91.665 Y100.74
G0 X97.47 Y111.996
G0 X98.128 Y112.054
M204 S1800
M205 X8 Y8
G1 X97.914 Y114.499 E16.88771
G1 X98.106 Y116.818 E16.94189
G1 X98.677 Y119.073 E16.99605
G1 X99.612 Y121.204 E17.05023
G1 X100.884 Y123.152 E17.10439
G1 X102.454 Y124.858 E17.15837
G1 X102.95 Y125.293 E17.17373
G1 X104.292 Y126.289 E17.21264
G1 X104.961 Y126.7 E17.23092
G1 X106.339 Y127.397 E17.26688
G1 X107.184 Y127.736 E17.28807
G1 X108.54 Y128.154 E17.32111
G1 X109.556 Y128.371 E17.3453
G1 X110.836 Y128.537 E17.37535
G1 X112 Y128.585 E17.40247
G1 X113.164 Y128.537 E17.4296
G1 X114.444 Y128.371 E17.45965
G1 X115.46 Y128.154 E17.48383
G1 X116.816 Y127.736 E17.51687
G1 X117.661 Y127.397 E17.53807
G1 X119.039 Y126.7 E17.57402
G1 X119.708 Y126.289 E17.5923
G1 X121.05 Y125.293 E17.63121
G1 X121.544 Y124.859 E17.64652
G1 X122.792 Y123.552 E17.6886
G1 X124.198 Y121.543 E17.74569
G1 X125.236 Y119.318 E17.80285
G1 X125.872 Y116.946 E17.86002
G1 X126.086 Y114.501 E17.91717
G1 X125.894 Y112.182 E17.97134
G1 X125.323 Y109.927 E18.0255
G1 X124.388 Y107.796 E18.07968
G1 X123.116 Y105.848 E18.13385
G1 X121.546 Y104.142 E18.18783
G1 X121.05 Y103.707 E18.20319
G1 X119.708 Y102.711 E18.24209
G1 X119.039 Y102.3 E18.26038
G1 X117.661 Y101.603 E18.29633
G1 X116.816 Y101.264 E18.31753
G1 X115.46 Y100.846 E18.35056
G1 X114.444 Y100.629 E18.37475
G1 X113.164 Y100.463 E18.4048
G1 X112 Y100.415 E18.43192
G1 X110.836 Y100.463 E18.45905
G1 X109.556 Y100.629 E18.4891
G1 X108.54 Y100.846 E18.51329
G1 X107.184 Y101.264 E18.54632
G1 X106.339 Y101.603 E18.56752
G1 X104.961 Y102.3 E18.60347
G1 X104.292 Y102.711 E18.62175
G1 X102.95 Y103.707 E18.66066
G1 X102.456 Y104.141 E18.67597
G1 X101.208 Y105.448 E18.71805
G1 X99.802 Y107.457 E18.77514
G1 X98.764 Y109.682 E18.8323
G1 X98.128 Y112.054 E18.88948
M204 S3000
M205 X10 Y10
G0 X98.111 Y112.253
G0 X97.453 Y112.196
G0 X96.476 Y111.762
M204 S1800
M205 X8 Y8
;TYPE:SKIN
G1 X96.238 Y114.495 E18.95335
G1 X96.454 Y117.094 E19.01407
G1 X97.093 Y119.616 E19.07464
G1 X98.139 Y122.001 E19.13527
G1 X99.56 Y124.18 E19.19584
G1 X101.285 Y126.055 E19.25516
G1 X101.9 Y126.593 E19.27418
G1 X103.356 Y127.673 E19.31639
G1 X104.146 Y128.159 E19.33798
G1 X105.651 Y128.92 E19.37725
G1 X106.627 Y129.311 E19.40172
G1 X108.119 Y129.771 E19.43807
G1 X109.272 Y130.017 E19.46552
G1 X110.693 Y130.203 E19.49889
G1 X112 Y130.255 E19.52934
G1 X113.307 Y130.203 E19.5598
G1 X114.728 Y130.017 E19.59316
G1 X115.881 Y129.771 E19.62061
G1 X117.373 Y129.311 E19.65696
G1 X118.349 Y128.92 E19.68144
G1 X119.854 Y128.159 E19.7207
G1 X120.644 Y127.673 E19.7423
G1 X122.1 Y126.593 E19.78451
G1 X122.701 Y126.064 E19.80315
G1 X124.086 Y124.614 E19.84983
G1 X125.65 Y122.382 E19.91328
G1 X126.811 Y119.891 E19.97727
G1 X127.524 Y117.238 E20.04123
G1 X127.762 Y114.505 E20.1051
G1 X127.546 Y111.906 E20.16582
G1 X126.907 Y109.384 E20.22639
G1 X125.861 Y106.999 E20.28703
G1 X124.44 Y104.82 E20.34759
G1 X122.715 Y102.945 E20.40691
G1 X122.1 Y102.407 E20.42593
G1 X120.644 Y101.327 E20.46814
G1 X119.854 Y100.841 E20.48973
G1 X118.349 Y100.08 E20.529
G1 X117.373 Y99.689 E20.55348
G1 X115.881 Y99.229 E20.58983
G1 X114.728 Y98.983 E20.61728
G1 X113.307 Y98.797 E20.65064
G1 X112 Y98.745 E20.6811
G1 X110.693 Y98.797 E20.71155
G1 X109.272 Y98.983 E20.74492
G1 X108.119 Y99.229 E20.77236
G1 X106.627 Y99.689 E20.80872
G1 X105.651 Y100.08 E20.83319
G1 X104.146 Y100.841 E20.87246
G1 X103.356 Y101.327 E20.89405
G1 X101.9 Y102.407 E20.93626
G1 X101.299 Y102.936 E20.9549
G1 X99.914 Y104.386 E21.00158
G1 X98.35 Y106.618 E21.06504
G1 X97.189 Y109.109 E21.12902
G1 X96.476 Y111.762 E21.19298
M204 S3000
M205 X10 Y10
G0 X92.63 Y107.635
M204 S1800
M205 X8 Y8
G1 X92.764 Y100.151 E21.36725
G1 X92.683 Y100.109 E21.36938
G1 X92.681 Y99.971 E21.37259
G1 X92.364 Y99.536 E21.38512
G1 X92.067 Y98.264 E21.41553
G1 X91.928 Y97.52 E21.43316
G1 X91.493 Y96.598 E21.45689
G1 X90.95 Y95.387 E21.48779
G1 X90.95 Y89.2 E21.63184
G1 X133.05 Y89.2 E22.61201
G1 X133.05 Y95.362 E22.75548
G1 X132.532 Y96.544 E22.78552
G1 X132.073 Y97.519 E22.81061
G1 X131.937 Y98.247 E22.82786
G1 X131.495 Y100.135 E22.873
G1 X131.495 Y133.245 E23.64387
G1 X92.68 Y133.245 E24.54757
G1 X92.681 Y131.949 E24.57774
G1 X92.621 Y124.618 E24.74843
G1 X92.63 Y107.635 E25.14383
M204 S3000
M205 X10 Y10
G0 X93.386 Y132.984
M204 S1800
M205 X8 Y8
G1 X92.939 Y132.537 E25.15854
M204 S3000
M205 X10 Y10
G0 X92.938 Y131.744
M204 S1800
M205 X8 Y8
G1 X94.178 Y132.984 E25.19937
M204 S3000
M205 X10 Y10
G0 X94.97 Y132.984
M204 S1800
M205 X8 Y8
G1 X92.932 Y130.946 E25.26647
M204 S3000
M205 X10 Y10
G0 X92.925 Y130.147
M204 S1800
M205 X8 Y8
G1 X95.762 Y132.984 E25.35989
M204 S3000
M205 X10 Y10
G0 X96.554 Y132.984
M204 S1800
M205 X8 Y8
G1 X92.919 Y129.349 E25.47957
M204 S3000
M205 X10 Y10
G0 X92.913 Y128.551
M204 S1800
M205 X8 Y8
G1 X97.345 Y132.984 E25.62551
M204 S3000
M205 X10 Y10
G0 X98.137 Y132.984
M204 S1800
M205 X8 Y8
G1 X92.906 Y127.752 E25.79777
M204 S3000
M205 X10 Y10
G0 X92.899 Y126.953
M204 S1800
M205 X8 Y8
G1 X98.929 Y132.984 E25.99633
M204 S3000
M205 X10 Y10
G0 X99.721 Y132.984
M204 S1800
M205 X8 Y8
G1 X92.893 Y126.155 E26.22116
M204 S3000
M205 X10 Y10
G0 X92.886 Y125.357
M204 S1800
M205 X8 Y8
G1 X100.513 Y132.984 E26.47229
M204 S3000
M205 X10 Y10
G0 X101.305 Y132.984
M204 S1800
M205 X8 Y8
G1 X92.881 Y124.559 E26.74967
M204 S3000
M205 X10 Y10
G0 X92.881 Y123.767
M204 S1800
M205 X8 Y8
G1 X102.097 Y132.984 E27.05313
M204 S3000
M205 X10 Y10
G0 X102.889 Y132.984
M204 S1800
M205 X8 Y8
G1 X92.882 Y122.976 E27.38264
M204 S3000
M205 X10 Y10
G0 X92.882 Y122.184
M204 S1800
M205 X8 Y8
G1 X103.681 Y132.984 E27.73822
M204 S3000
M205 X10 Y10
G0 X104.473 Y132.984
M204 S1800
M205 X8 Y8
G1 X92.882 Y121.393 E28.11986
M204 S3000
M205 X10 Y10
G0 X92.883 Y120.602
M204 S1800
M205 X8 Y8
G1 X105.265 Y132.984 E28.52755
M204 S3000
M205 X10 Y10
G0 X106.057 Y132.984
M204 S1800
M205 X8 Y8
G1 X92.883 Y119.81 E28.96132
M204 S3000
M205 X10 Y10
G0 X92.884 Y119.018
M204 S1800
M205 X8 Y8
G1 X106.849 Y132.984 E29.42114
M204 S3000
M205 X10 Y10
G0 X107.641 Y132.984
M204 S1800
M205 X8 Y8
G1 X92.884 Y118.226 E29.90704
M204 S3000
M205 X10 Y10
G0 X92.884 Y117.435
M204 S1800
M205 X8 Y8
G1 X98.539 Y123.09 E30.09324
G1 X98.609 Y123.16
M204 S3000
M205 X10 Y10
G0 X97.553 Y121.311
M204 S1800
M205 X8 Y8
G1 X92.885 Y116.644 E30.24692
M204 S3000
M205 X10 Y10
G0 X92.885 Y115.852
M204 S1800
M205 X8 Y8
G1 X96.933 Y119.9 E30.38021
G1 X97.003 Y119.97
M204 S3000
M205 X10 Y10
G0 X96.615 Y118.79
M204 S1800
M205 X8 Y8
G1 X92.886 Y115.061 E30.50299
M204 S3000
M205 X10 Y10
G0 X92.886 Y114.269
M204 S1800
M205 X8 Y8
G1 X96.346 Y117.729 E30.61691
M204 S3000
M205 X10 Y10
G0 X96.165 Y116.756
M204 S1800
M205 X8 Y8
G1 X92.886 Y113.477 E30.72487
M204 S3000
M205 X10 Y10
G0 X92.887 Y112.686
M204 S1800
M205 X8 Y8
G1 X96.093 Y115.892 E30.83043
M204 S3000
M205 X10 Y10
G0 X96.021 Y115.028
M204 S1800
M205 X8 Y8
G1 X92.887 Y111.894 E30.93362
M204 S3000
M205 X10 Y10
G0 X92.888 Y111.103
M204 S1800
M205 X8 Y8
G1 X96.001 Y114.216 E31.03612
M204 S3000
M205 X10 Y10
G0 X96.064 Y113.487
M204 S1800
M205 X8 Y8
G1 X92.888 Y110.311 E31.14069
M204 S3000
M205 X10 Y10
G0 X92.889 Y109.52
M204 S1800
M205 X8 Y8
G1 X96.128 Y112.759 E31.24734
M204 S3000
M205 X10 Y10
G0 X96.191 Y112.031
M204 S1800
M205 X8 Y8
G1 X92.889 Y108.728 E31.35608
M204 S3000
M205 X10 Y10
G0 X92.889 Y107.937
M204 S1800
M205 X8 Y8
G1 X96.314 Y111.361 E31.46883
M204 S3000
M205 X10 Y10
G0 X96.481 Y110.737
M204 S1800
M205 X8 Y8
G1 X92.898 Y107.154 E31.58681
M204 S3000
M205 X10 Y10
G0 X92.912 Y106.375
M204 S1800
M205 X8 Y8
G1 X96.649 Y110.112 E31.70985
M204 S3000
M205 X10 Y10
G0 X96.817 Y109.489
M204 S1800
M205 X8 Y8
G1 X92.926 Y105.597 E31.83798
M204 S3000
M205 X10 Y10
G0 X92.94 Y104.82
M204 S1800
M205 X8 Y8
G1 X97.006 Y108.885 E31.97184
M204 S3000
M205 X10 Y10
G0 X97.258 Y108.345
M204 S1800
M205 X8 Y8
G1 X92.954 Y104.041 E32.11355
M204 S3000
M205 X10 Y10
G0 X92.968 Y103.263
M204 S1800
M205 X8 Y8
G1 X97.51 Y107.805 E32.2631
M204 S3000
M205 X10 Y10
G0 X97.761 Y107.265
M204 S1800
M205 X8 Y8
G1 X92.982 Y102.485 E32.42047
M204 S3000
M205 X10 Y10
G0 X92.995 Y101.707
M204 S1800
M205 X8 Y8
G1 X98.013 Y106.725 E32.58569
M204 S3000
M205 X10 Y10
G0 X98.306 Y106.226
M204 S1800
M205 X8 Y8
G1 X93.009 Y100.929 E32.7601
M204 S3000
M205 X10 Y10
G0 X93.024 Y100.151
M204 S1800
M205 X8 Y8
G1 X98.632 Y105.76 E32.94477
M204 S3000
M205 X10 Y10
G0 X98.959 Y105.295
M204 S1800
M205 X8 Y8
G1 X92.458 Y98.794 E33.15882
M204 S3000
M205 X10 Y10
G0 X92.243 Y97.787
M204 S1800
M205 X8 Y8
