;FLAVOR:Marlin
;TIME:8041
;Filament used: 3.93299m
;Layer height: 0.1
;MINX:89.2
;MINY:87.45
;MINZ:0.1
;MAXX:134.8
;MAXY:136.55
;MAXZ:30
;Generated with Cura_SteamEngine 4.2.1
M140 S60
M105
M190 S60
M104 S200
M105
M109 S200
M82 ;absolute extrusion mode
G21 ;metric values
G90 ;absolute positioning
M82 ;set extruder to absolute mode
M107 ;start with the fan off
G28 X0 Y0 ;move X/Y to min endstops
G28 Z0 ;move Z to min endstops
G1 Z15.0 F50 ;move the platform down 15mm
G92 E0 ;zero the extruded length
G1 F200 E3 ;extrude 3mm of feed stock
G92 E0 ;zero the extruded length again
G1 F50
M117 Printing...
G5
M141 S28
G92 E0
G92 E0
G1 F2400 E-6
;LAYER_COUNT:300
;LAYER:0
M106 S255
M204 S3000
M205 X10 Y10
G0 F1500 X103.731 Y109.212 Z0.1
M204 S1800
M205 X8 Y8
;TYPE:SUPPORT
G1 F2400 E0
G1 F1500 X105.298 Y107.867 E0.04808
G1 X107.119 Y106.804 E0.09717
G1 X109.091 Y106.092 E0.14598
G1 X111.164 Y105.75 E0.1949
G1 X113.27 Y105.789 E0.24394
G1 X115.322 Y106.21 E0.29271
G1 X117.282 Y106.999 E0.3419
G1 X119.052 Y108.129 E0.39079
G1 X120.022 Y109.02 E0.42146
G1 X120.55 Y109.515 E0.43831
G1 X121.223 Y110.382 E0.46386
G1 X121.743 Y111.084 E0.4842
G1 X122.267 Y112.052 E0.50983
G1 X122.645 Y112.826 E0.52988
G1 X123.01 Y113.88 E0.55585
G1 X123.241 Y114.711 E0.57593
G1 X123.429 Y115.799 E0.60164
G1 X123.505 Y116.643 E0.62137
G1 X123.514 Y117.762 E0.64742
G1 X123.483 Y118.28 E0.6595
G1 X123.335 Y119.288 E0.68322
G1 X123.252 Y119.774 E0.6947
G1 X122.717 Y121.313 E0.73264
G1 X122.634 Y120.998 E0.74022
G1 X122.976 Y119.849 E0.76813
G1 X123.205 Y118.546 E0.79893
G1 X123.278 Y117.224 E0.82976
G1 X123.092 Y115.209 E0.87687
G1 X122.547 Y113.237 E0.92451
G1 X121.61 Y111.356 E0.97343
G1 X120.388 Y109.706 E1.02124
G1 X118.872 Y108.304 E1.06931
G1 X117.098 Y107.19 E1.11808
G1 X115.212 Y106.442 E1.16532
G1 X113.125 Y106.032 E1.21484
G1 X111.051 Y106.012 E1.26313
G1 X109.027 Y106.366 E1.31097
G1 X107.11 Y107.088 E1.35866
G1 X105.31 Y108.169 E1.40754
G1 X103.759 Y109.549 E1.45588
G1 X102.498 Y111.18 E1.50388
G1 X101.541 Y113.034 E1.55245
G1 X100.954 Y114.968 E1.59951
G1 X100.725 Y117.132 E1.65017
G1 X100.881 Y119.14 E1.69706
G1 X101.39 Y121.041 E1.74288
G1 X101.298 Y121.41 E1.75174
G1 X101.221 Y121.223 E1.75645
G1 X101.065 Y120.861 E1.76562
G1 X100.757 Y119.805 E1.79123
G1 X100.658 Y119.318 E1.8028
G1 X100.523 Y118.214 E1.8287
G1 X100.478 Y117.353 E1.84877
G1 X100.522 Y116.238 E1.87475
G1 X100.635 Y115.381 E1.89488
G1 X100.856 Y114.301 E1.92054
G1 X101.119 Y113.485 E1.9405
G1 X101.515 Y112.452 E1.96626
G1 X101.926 Y111.692 E1.98638
G1 X102.486 Y110.734 E2.01221
G1 X103.02 Y110.071 E2.03203
G1 X103.731 Y109.212 E2.05799
M204 S3000
M205 X10 Y10
G0 X103.383 Y108.879
M204 S1800
M205 X8 Y8
;TYPE:SUPPORT-INTERFACE
G1 X102.649 Y109.766 E2.0848
G1 X102.09 Y110.46 E2.10555
G1 X101.51 Y111.453 E2.13232
G1 X101.079 Y112.25 E2.15341
G1 X100.669 Y113.318 E2.18005
G1 X100.391 Y114.18 E2.20114
G1 X100.16 Y115.311 E2.22801
G1 X100.044 Y116.194 E2.24875
G1 X99.997 Y117.358 E2.27587
G1 X100.044 Y118.251 E2.29669
G1 X100.183 Y119.39 E2.3234
G1 X100.292 Y119.925 E2.33612
G1 X100.613 Y121.026 E2.36282
G1 X100.812 Y121.493 E2.37464
G1 X100.814 Y121.495 E2.3747
G1 X101.055 Y122.078 E2.38939
G1 X101.06 Y122.095 E2.3898
G1 X101.131 Y122.334 E2.39561
G1 X101.138 Y122.367 E2.39639
G1 X101.14 Y122.378 E2.39665
G1 X101.135 Y122.397 E2.39711
G1 X101.122 Y122.44 E2.39815
G1 X100.475 Y122.472 E2.41324
G1 X100.165 Y121.643 E2.43384
G1 X99.408 Y119.803 E2.48017
G1 X99.158 Y117.775 E2.52774
G1 X99.243 Y115.687 E2.57639
G1 X99.666 Y113.639 E2.62508
G1 X100.415 Y111.686 E2.67378
G1 X101.473 Y109.881 E2.72249
G1 X102.808 Y108.272 E2.77117
G1 X104.154 Y107.099 E2.81274
G1 X104.415 Y106.876 E2.82073
G1 X105.824 Y106.007 E2.85927
G1 X106.252 Y105.758 E2.8708
G1 X107.756 Y105.139 E2.90866
G1 X108.243 Y104.964 E2.92071
G1 X109.856 Y104.59 E2.95926
G1 X110.324 Y104.513 E2.97031
G1 X111.979 Y104.406 E3.00892
G1 X112.465 Y104.416 E3.02023
G1 X114.123 Y104.58 E3.05902
G1 X114.606 Y104.679 E3.0705
G1 X116.189 Y105.101 E3.10865
G1 X116.648 Y105.288 E3.12019
G1 X118.147 Y105.964 E3.15847
G1 X118.573 Y106.236 E3.17024
G1 X118.573 Y106.237 E3.17026
G1 X119.94 Y107.144 E3.20846
G1 X121.498 Y108.592 E3.25798
G1 X122.777 Y110.248 E3.30669
G1 X123.765 Y112.08 E3.35515
G1 X124.45 Y114.064 E3.40402
G1 X124.801 Y116.122 E3.45263
G1 X124.816 Y118.207 E3.50117
G1 X124.504 Y120.198 E3.54809
G1 X123.589 Y122.279 E3.60102
G1 X123.56 Y122.566 E3.60773
G1 X123.362 Y122.404 E3.61369
G1 X122.915 Y122.38 E3.62411
G1 X122.905 Y122.343 E3.625
G1 X122.922 Y122.197 E3.62843
G1 X122.932 Y122.157 E3.62939
G1 X123.719 Y119.892 E3.68521
G1 X123.809 Y119.366 E3.69764
G1 X123.962 Y118.325 E3.72213
G1 X123.994 Y117.783 E3.73478
G1 X123.985 Y116.618 E3.7619
G1 X123.905 Y115.736 E3.78252
G1 X123.71 Y114.605 E3.80924
G1 X123.466 Y113.728 E3.83043
G1 X123.09 Y112.642 E3.85719
G1 X122.697 Y111.837 E3.87805
G1 X122.147 Y110.822 E3.90492
G1 X121.607 Y110.094 E3.92603
G1 X120.905 Y109.19 E3.95268
G1 X120.11 Y108.444 E3.97806
G1 X120.107 Y108.447 E3.97816
G1 X119.343 Y107.745 E4.00231
G1 X117.502 Y106.569 E4.05317
G1 X115.465 Y105.75 E4.10429
G1 X113.321 Y105.309 E4.15525
G1 X111.131 Y105.27 E4.20625
G1 X108.969 Y105.626 E4.25726
G1 X106.913 Y106.368 E4.30815
G1 X105.021 Y107.472 E4.35915
G1 X103.383 Y108.879 E4.40942
M204 S3000
M205 X10 Y10
G1 F2400 E-1.59058
;MESH:Pamacs.Tarto.stl
G0 F1500 X98.922 Y117.784
G0 X97.396 Y117.845
G0 X97.163 Y120.39
M204 S1800
M205 X8 Y8
;TYPE:WALL-INNER
G1 F2400 E4.40942
G1 F1500 X98.031 Y122.502 E4.46259
G1 X98.162 Y122.85 E4.47124
G1 X95.232 Y133.796 E4.73506
G1 X90.4 Y133.795 E4.84756
G1 X90.4 Y88.65 E5.89863
G1 X133.6 Y88.65 E6.90442
G1 X133.6 Y133.795 E7.95549
G1 X128.775 Y133.795 E8.06782
G1 X125.873 Y122.799 E8.3326
G1 X126.732 Y120.842 E8.38236
G1 X127.116 Y118.385 E8.44026
G1 X127.101 Y115.921 E8.49763
G1 X126.684 Y113.49 E8.55505
G1 X125.881 Y111.157 E8.6125
G1 X124.71 Y108.989 E8.66986
G1 X123.202 Y107.035 E8.72733
G1 X121.37 Y105.333 E8.78555
G1 X119.824 Y104.306 E8.82876
G1 X119.248 Y103.938 E8.84467
G1 X117.555 Y103.174 E8.88792
G1 X116.921 Y102.917 E8.90385
G1 X115.125 Y102.438 E8.94712
G1 X114.458 Y102.302 E8.96297
G1 X112.608 Y102.119 E9.00625
G1 X111.927 Y102.105 E9.02211
G1 X110.072 Y102.224 E9.06539
G1 X109.398 Y102.334 E9.08129
G1 X107.589 Y102.755 E9.12453
G1 X106.946 Y102.985 E9.14043
G1 X105.229 Y103.693 E9.18367
G1 X104.638 Y104.036 E9.19958
G1 X103.058 Y105.011 E9.24281
G1 X102.551 Y105.444 E9.25833
G1 X101.156 Y106.661 E9.30143
G1 X99.582 Y108.558 E9.35882
G1 X98.337 Y110.686 E9.41622
G1 X97.452 Y112.989 E9.47366
G1 X96.953 Y115.405 E9.5311
G1 X96.854 Y117.868 E9.58849
G1 X97.163 Y120.39 E9.64764
M204 S3000
M205 X10 Y10
G0 X97.71 Y120.247
M204 S1800
M205 X8 Y8
G1 X98.549 Y122.289 E9.69904
G1 X98.749 Y122.822 E9.7123
G1 X95.662 Y134.356 E9.99029
G1 X89.84 Y134.355 E10.12583
G1 X89.84 Y88.09 E11.20298
G1 X134.16 Y88.09 E12.23484
G1 X134.16 Y134.355 E13.31199
G1 X128.344 Y134.355 E13.4474
G1 X125.282 Y122.752 E13.72679
G1 X126.19 Y120.684 E13.77937
G1 X126.556 Y118.343 E13.83454
G1 X126.541 Y115.97 E13.88979
G1 X126.14 Y113.629 E13.94508
G1 X125.366 Y111.383 E14.00039
G1 X124.239 Y109.295 E14.05564
G1 X122.787 Y107.414 E14.11096
G1 X121.022 Y105.774 E14.16705
G1 X119.518 Y104.775 E14.20909
G1 X118.981 Y104.432 E14.22392
G1 X117.334 Y103.689 E14.26599
G1 X116.743 Y103.449 E14.28084
G1 X114.997 Y102.983 E14.32292
G1 X114.374 Y102.856 E14.33772
G1 X112.575 Y102.678 E14.37981
G1 X111.939 Y102.665 E14.39462
G1 X110.135 Y102.781 E14.43671
G1 X109.507 Y102.884 E14.45152
G1 X107.747 Y103.293 E14.49359
G1 X107.147 Y103.508 E14.50843
G1 X105.477 Y104.196 E14.55048
G1 X104.926 Y104.516 E14.56532
G1 X103.389 Y105.465 E14.60737
G1 X102.917 Y105.868 E14.62182
G1 X101.558 Y107.053 E14.6638
G1 X100.042 Y108.88 E14.71908
G1 X98.843 Y110.929 E14.77435
G1 X97.991 Y113.147 E14.82967
G1 X97.511 Y115.473 E14.88496
G1 X97.415 Y117.845 E14.94023
G1 X97.71 Y120.247 E14.99658
M204 S3000
M205 X10 Y10
G0 X98.257 Y120.104
M204 S1800
M205 X8 Y8
;TYPE:WALL-OUTER
G1 X99.067 Y122.076 E15.04621
G1 X99.336 Y122.795 E15.06408
G1 X96.147 Y134.712 E15.3513
G1 X96.102 Y134.839 E15.35444
G1 X96.053 Y134.888 E15.35605
G1 X95.975 Y134.916 E15.35798
G1 X89.28 Y134.915 E15.51385
G1 X89.28 Y87.53 E16.61707
G1 X134.72 Y87.53 E17.67501
G1 X134.72 Y134.915 E18.77823
G1 X128.111 Y134.915 E18.93211
G1 X127.926 Y134.815 E18.937
G1 X127.866 Y134.738 E18.93927
G1 X124.714 Y122.791 E19.22694
G1 X124.735 Y122.604 E19.23132
G1 X125.648 Y120.525 E19.28419
G1 X125.996 Y118.301 E19.3366
G1 X125.981 Y116.019 E19.38973
G1 X125.596 Y113.768 E19.4429
G1 X124.851 Y111.609 E19.49607
G1 X123.768 Y109.601 E19.54919
G1 X122.372 Y107.793 E19.60237
G1 X120.674 Y106.215 E19.65634
G1 X119.212 Y105.244 E19.6972
G1 X118.714 Y104.926 E19.71096
G1 X117.113 Y104.204 E19.75185
G1 X116.565 Y103.981 E19.76562
G1 X114.869 Y103.528 E19.80649
G1 X114.29 Y103.41 E19.82025
G1 X112.542 Y103.237 E19.86115
G1 X111.951 Y103.225 E19.87491
G1 X110.199 Y103.338 E19.91578
G1 X109.616 Y103.434 E19.92954
G1 X107.905 Y103.831 E19.97043
G1 X107.348 Y104.031 E19.98421
G1 X105.725 Y104.699 E20.02508
G1 X105.214 Y104.996 E20.03884
G1 X103.72 Y105.919 E20.07972
G1 X103.283 Y106.292 E20.0931
G1 X101.96 Y107.445 E20.13396
G1 X100.502 Y109.202 E20.18711
G1 X99.349 Y111.172 E20.24026
G1 X98.53 Y113.305 E20.29345
G1 X98.069 Y115.541 E20.34661
G1 X97.976 Y117.822 E20.39976
G1 X98.257 Y120.104 E20.45329
M204 S3000
M205 X10 Y10
G0 X98.333 Y120.289
G0 X97.722 Y120.539
G0 X96.626 Y120.531
M204 S1800
M205 X8 Y8
;TYPE:SKIN
G1 X97.516 Y122.696 E20.50779
G1 X97.585 Y122.88 E20.51236
G1 X94.811 Y133.246 E20.7622
G1 X90.95 Y133.245 E20.85209
G1 X90.95 Y89.2 E21.87755
G1 X133.05 Y89.2 E22.85773
G1 X133.05 Y133.245 E23.88319
G1 X129.199 Y133.245 E23.97284
G1 X126.454 Y122.844 E24.22329
G1 X127.264 Y120.997 E24.27025
G1 X127.666 Y118.426 E24.33083
G1 X127.651 Y115.872 E24.3903
G1 X127.218 Y113.353 E24.44981
G1 X126.386 Y110.935 E24.50934
G1 X125.173 Y108.688 E24.56879
G1 X123.61 Y106.663 E24.62835
G1 X121.712 Y104.899 E24.68868
G1 X120.124 Y103.845 E24.73305
G1 X119.511 Y103.453 E24.74999
G1 X117.771 Y102.669 E24.79442
G1 X117.096 Y102.394 E24.81139
G1 X115.251 Y101.902 E24.85585
G1 X114.54 Y101.758 E24.87274
G1 X112.641 Y101.569 E24.91717
G1 X111.915 Y101.555 E24.93408
G1 X110.01 Y101.676 E24.97852
G1 X109.292 Y101.794 E24.99546
G1 X107.434 Y102.227 E25.03988
G1 X106.748 Y102.472 E25.05684
G1 X104.985 Y103.198 E25.10123
G1 X104.355 Y103.564 E25.11819
G1 X102.734 Y104.565 E25.16255
G1 X102.192 Y105.028 E25.17914
G1 X100.761 Y106.276 E25.22335
G1 X99.13 Y108.242 E25.28282
G1 X97.84 Y110.447 E25.3423
G1 X96.922 Y112.834 E25.40184
G1 X96.405 Y115.338 E25.46137
G1 X96.302 Y117.89 E25.52084
G1 X96.626 Y120.531 E25.58278
M204 S3000
M205 X10 Y10
G0 X91.802 Y132.984
M204 S1800
M205 X8 Y8
G1 X91.208 Y132.39 E25.60234
M204 S3000
M205 X10 Y10
G0 X91.208 Y131.598
M204 S1800
M205 X8 Y8
G1 X92.594 Y132.984 E25.64798
M204 S3000
M205 X10 Y10
G0 X93.386 Y132.984
M204 S1800
M205 X8 Y8
G1 X91.208 Y130.806 E25.71969
M204 S3000
M205 X10 Y10
G0 X91.208 Y130.015
M204 S1800
M205 X8 Y8
G1 X94.178 Y132.984 E25.81746
M204 S3000
M205 X10 Y10
G0 X94.688 Y132.702
M204 S1800
M205 X8 Y8
G1 X91.208 Y129.223 E25.93203
M204 S3000
M205 X10 Y10
G0 X91.208 Y128.431
M204 S1800
M205 X8 Y8
G1 X94.855 Y132.077 E26.05209
M204 S3000
M205 X10 Y10
G0 X95.023 Y131.453
M204 S1800
M205 X8 Y8
G1 X91.208 Y127.639 E26.17769
M204 S3000
M205 X10 Y10
G0 X91.208 Y126.847
M204 S1800
M205 X8 Y8
G1 X95.19 Y130.828 E26.30878
M204 S3000
M205 X10 Y10
G0 X95.356 Y130.203
M204 S1800
M205 X8 Y8
G1 X91.208 Y126.055 E26.44536
M204 S3000
M205 X10 Y10
G0 X91.208 Y125.263
M204 S1800
M205 X8 Y8
G1 X95.524 Y129.578 E26.58745
M204 S3000
M205 X10 Y10
G0 X95.691 Y128.953
M204 S1800
M205 X8 Y8
G1 X91.208 Y124.471 E26.73504
M204 S3000
M205 X10 Y10
G0 X91.208 Y123.679
M204 S1800
M205 X8 Y8
G1 X95.858 Y128.329 E26.88815
M204 S3000
M205 X10 Y10
G0 X96.025 Y127.704
M204 S1800
M205 X8 Y8
G1 X91.208 Y122.887 E27.04675
M204 S3000
M205 X10 Y10
G0 X91.208 Y122.095
M204 S1800
M205 X8 Y8
G1 X96.192 Y127.079 E27.21085
M204 S3000
M205 X10 Y10
G0 X96.36 Y126.454
M204 S1800
M205 X8 Y8
G1 X91.208 Y121.303 E27.38047
M204 S3000
M205 X10 Y10
G0 X91.208 Y120.511
M204 S1800
M205 X8 Y8
G1 X96.527 Y125.829 E27.55559
M204 S3000
M205 X10 Y10
G0 X96.694 Y125.205
M204 S1800
M205 X8 Y8
G1 X91.208 Y119.719 E27.73622
M204 S3000
M205 X10 Y10
G0 X91.208 Y118.927
M204 S1800
M205 X8 Y8
G1 X96.861 Y124.58 E27.92235
M204 S3000
M205 X10 Y10
G0 X97.029 Y123.955
M204 S1800
M205 X8 Y8
G1 X91.208 Y118.135 E28.11399
M204 S3000
M205 X10 Y10
G0 X91.208 Y117.343
M204 S1800
M205 X8 Y8
G1 X97.196 Y123.33 E28.31114
M204 S3000
M205 X10 Y10
G0 X97.152 Y122.495
M204 S1800
M205 X8 Y8
G1 X91.208 Y116.551 E28.50685
M204 S3000
M205 X10 Y10
G0 X91.208 Y115.759
M204 S1800
M205 X8 Y8
G1 X96.599 Y121.15 E28.68435
G1 X96.669 Y121.22
M204 S3000
M205 X10 Y10
G0 X96.307 Y120.066
M204 S1800
M205 X8 Y8
G1 X91.208 Y114.967 E28.85224
M204 S3000
M205 X10 Y10
G0 X91.208 Y114.175
M204 S1800
M205 X8 Y8
G1 X96.196 Y119.163 E29.01647
M204 S3000
M205 X10 Y10
G0 X96.085 Y118.26
M204 S1800
M205 X8 Y8
G1 X91.208 Y113.383 E29.17705
M204 S3000
M205 X10 Y10
G0 X91.208 Y112.591
M204 S1800
M205 X8 Y8
G1 X96.059 Y117.442 E29.33678
M204 S3000
M205 X10 Y10
G0 X96.09 Y116.681
M204 S1800
M205 X8 Y8
G1 X91.208 Y111.799 E29.49752
M204 S3000
M205 X10 Y10
G0 X91.208 Y111.007
M204 S1800
M205 X8 Y8
G1 X96.121 Y115.92 E29.65928
M204 S3000
M205 X10 Y10
G0 X96.172 Y115.179
M204 S1800
M205 X8 Y8
G1 X91.208 Y110.216 E29.82271
M204 S3000
M205 X10 Y10
G0 X91.208 Y109.424
M204 S1800
M205 X8 Y8
G1 X96.307 Y114.523 E29.9906
M204 S3000
M205 X10 Y10
G0 X96.443 Y113.866
M204 S1800
M205 X8 Y8
G1 X91.208 Y108.632 E30.16295
M204 S3000
M205 X10 Y10
G0 X91.208 Y107.84
M204 S1800
M205 X8 Y8
G1 X96.578 Y113.209 E30.33975
M204 S3000
M205 X10 Y10
G0 X96.74 Y112.579
M204 S1800
M205 X8 Y8
G1 X91.208 Y107.048 E30.52188
M204 S3000
M205 X10 Y10
G0 X91.208 Y106.256
M204 S1800
M205 X8 Y8
G1 X96.961 Y112.008 E30.71128
M204 S3000
M205 X10 Y10
G0 X97.181 Y111.436
M204 S1800
M205 X8 Y8
G1 X91.208 Y105.464 E30.90793
M204 S3000
M205 X10 Y10
G0 X91.208 Y104.672
M204 S1800
M205 X8 Y8
G1 X97.401 Y110.864 E31.11183
M204 S3000
M205 X10 Y10
G0 X97.626 Y110.298
M204 S1800
M205 X8 Y8
G1 X91.208 Y103.88 E31.32314
M204 S3000
M205 X10 Y10
G0 X91.208 Y103.088
M204 S1800
M205 X8 Y8
G1 X97.918 Y109.798 E31.54408
M204 S3000
M205 X10 Y10
G0 X98.21 Y109.298
M204 S1800
M205 X8 Y8
G1 X91.208 Y102.296 E31.77462
M204 S3000
M205 X10 Y10
G0 X91.208 Y101.504
M204 S1800
M205 X8 Y8
G1 X98.502 Y108.798 E32.01478
M204 S3000
M205 X10 Y10
G0 X98.795 Y108.299
M204 S1800
M205 X8 Y8
G1 X91.208 Y100.712 E32.26459
M204 S3000
M205 X10 Y10
G0 X91.208 Y99.92
M204 S1800
M205 X8 Y8
G1 X99.127 Y107.838 E32.52532
M204 S3000
M205 X10 Y10
G0 X99.486 Y107.405
M204 S1800
M205 X8 Y8
G1 X91.208 Y99.128 E32.79786
M204 S3000
M205 X10 Y10
G0 X91.208 Y98.336
M204 S1800
M205 X8 Y8
G1 X99.844 Y106.972 E33.08221
M204 S3000
M205 X10 Y10
G0 X100.204 Y106.539
M204 S1800
M205 X8 Y8
G1 X91.208 Y97.544 E33.37839
M204 S3000
M205 X10 Y10
G0 X91.208 Y96.752
M204 S1800
M205 X8 Y8
G1 X100.563 Y106.107 E33.68641
M204 S3000
M205 X10 Y10
G0 X100.984 Y105.735
M204 S1800
M205 X8 Y8
G1 X91.208 Y95.96 E34.00828
M204 S3000
M205 X10 Y10
G0 X91.208 Y95.168
M204 S1800
M205 X8 Y8
