;FLAVOR:Marlin
;TIME:3077
;Filament used: 0.693456m
;Layer height: 0.1
;MINX:18.871
;MINY:15.698
;MINZ:0.1
;MAXX:204.302
;MAXY:201.133
;MAXZ:2
;Generated with Cura_SteamEngine master
M82 ;absolute extrusion mode
;Sliced at: Fri 11-11-2022 23:33:04
;Basic settings: Layer height: 0.1 Walls: 0.8 Fill: 100.0
G21 ;metric values
G90 ;absolute positioning
M82 ;set extruder to absolute mode
M107 ;start with the fan off
M117 Start heating ...
M104 S200
M117 Homing X/Y ...
G28 X0 Y0 ;move X/Y to min endstops
M117 Homing Z ...
G28 Z0 ;move Z to min endstops
G1 Z15.0 F50 ;move the platform down 15mm
M117 Heating ...
M109 S200
M117 Start cleaning ...
G92 E0 ;zero the extruded length
G1 F200 E10 ;extrude 10mm of feed stock
G92 E0 ;zero the extruded length again
M117 Intro line ...
G1 Z2.0 F3000 ; Move Z Axis up little to prevent scratching of Heat Bed
G1 X0.1 Y20 Z0.1 F5000.0 ; Move to start position
G1 X0.1 Y200.0 Z0.1 F1500.0 E15 ; Draw the first line
G1 X0.4 Y200.0 Z0.1 F5000.0 ; Move to side a little
G1 X0.4 Y20 Z0.3 F1500.0 E30 ; Draw the second line
G92 E0 ; Reset Extruder
G1 E-1 F500 ; Retract filiment by 1 mm
G1 Z2.0 F3000 ; Move Z Axis up little to prevent scratching of Heat Bed
G1 X5 Y20 Z0.3 F50 ; Move over to prevent blob squish
G1 F50
G92 E0 ; Reset Extruder
M117 Printing...

G92 E0
G92 E0
G1 F1800 E-7
;LAYER_COUNT:20
;LAYER:0
M107
G1 F300 Z0.3
G0 F1500 X189.226 Y17.37 Z0.3
;TYPE:SKIRT
G1 F300 Z0.1
G1 F1800 E0
G1 F900 X189.722 Y16.871 E0.0117
G1 X190.148 Y16.499 E0.02111
G1 X190.622 Y16.191 E0.03051
G1 X191.135 Y15.953 E0.03991
G1 X191.676 Y15.79 E0.04931
G1 X192.235 Y15.704 E0.05871
G1 X192.8 Y15.698 E0.06811
G1 X193.361 Y15.772 E0.07752
G1 X193.905 Y15.924 E0.08691
G1 X194.423 Y16.152 E0.09632
G1 X194.903 Y16.45 E0.10572
G1 X195.338 Y16.814 E0.11515
G1 X195.899 Y17.356 E0.12813
G1 X202.712 Y24.169 E0.28836
G1 X203.177 Y24.647 E0.29945
G1 X203.542 Y25.079 E0.30885
G1 X203.842 Y25.558 E0.31825
G1 X204.071 Y26.075 E0.32765
G1 X204.226 Y26.619 E0.33706
G1 X204.302 Y27.179 E0.34646
G1 X204.298 Y27.744 E0.35586
G1 X204.215 Y28.303 E0.36525
G1 X204.054 Y28.845 E0.37466
G1 X203.818 Y29.359 E0.38406
G1 X203.511 Y29.834 E0.39347
G1 X203.131 Y30.272 E0.40311
G1 X202.491 Y30.908 E0.41812
G1 X27.522 Y199.565 E4.45958
G1 X26.998 Y200.056 E4.47152
G1 X26.559 Y200.412 E4.48092
G1 X26.075 Y200.703 E4.49031
G1 X25.554 Y200.923 E4.49971
G1 X25.007 Y201.067 E4.50912
G1 X24.446 Y201.133 E4.51851
G1 X23.88 Y201.119 E4.52793
G1 X23.323 Y201.025 E4.53732
G1 X22.784 Y200.854 E4.54673
G1 X22.275 Y200.608 E4.55613
G1 X21.805 Y200.293 E4.56554
G1 X21.399 Y199.935 E4.57454
G1 X21.002 Y199.546 E4.58378
G1 X20.456 Y199.001 E4.59661
G1 X19.997 Y198.53 E4.60755
G1 X19.632 Y198.098 E4.61696
G1 X19.332 Y197.619 E4.62635
G1 X19.102 Y197.103 E4.63575
G1 X18.947 Y196.559 E4.64516
G1 X18.871 Y195.999 E4.65455
G1 X18.874 Y195.433 E4.66397
G1 X18.956 Y194.874 E4.67336
G1 X19.117 Y194.332 E4.68277
G1 X19.353 Y193.818 E4.69217
G1 X19.832 Y193.126 E4.70617
G1 X19.971 Y192.971 E4.70963
G1 X20.439 Y192.473 E4.72099
G1 X189.226 Y17.37 E8.76556
G0 F1500 X189.51 Y17.652
G1 F900 X190.006 Y17.153 E8.77726
G1 X190.411 Y16.802 E8.78617
G1 X190.864 Y16.515 E8.79509
G1 X191.355 Y16.298 E8.80402
G1 X191.872 Y16.157 E8.81293
G1 X192.405 Y16.094 E8.82186
G1 X192.941 Y16.111 E8.83077
G1 X193.468 Y16.208 E8.83968
G1 X193.976 Y16.381 E8.84861
G1 X194.452 Y16.629 E8.85754
G1 X195.06 Y17.102 E8.87035
G1 X195.666 Y17.687 E8.88435
G1 X202.425 Y24.448 E9.04334
G1 X202.89 Y24.926 E9.05443
G1 X203.235 Y25.337 E9.06335
G1 X203.514 Y25.795 E9.07227
G1 X203.722 Y26.289 E9.08118
G1 X203.855 Y26.809 E9.09011
G1 X203.909 Y27.342 E9.09902
G1 X203.883 Y27.878 E9.10794
G1 X203.778 Y28.404 E9.11686
G1 X203.595 Y28.908 E9.12578
G1 X203.34 Y29.38 E9.1347
G1 X202.849 Y29.988 E9.1477
G1 X202.213 Y30.62 E9.16261
G1 X27.249 Y199.273 E13.20396
G1 X26.725 Y199.764 E13.21591
G1 X26.307 Y200.1 E13.22482
G1 X25.844 Y200.371 E13.23375
G1 X25.346 Y200.57 E13.24266
G1 X24.824 Y200.693 E13.25158
G1 X24.29 Y200.737 E13.26049
G1 X23.754 Y200.701 E13.26943
G1 X23.231 Y200.586 E13.27833
G1 X22.73 Y200.394 E13.28725
G1 X22.263 Y200.13 E13.29618
G1 X21.812 Y199.774 E13.30573
G1 X21.679 Y199.648 E13.30878
G1 X21.284 Y199.264 E13.31794
G1 X20.743 Y198.722 E13.33067
G1 X20.284 Y198.251 E13.34161
G1 X19.939 Y197.84 E13.35054
G1 X19.659 Y197.382 E13.35946
G1 X19.451 Y196.888 E13.36838
G1 X19.318 Y196.369 E13.37729
G1 X19.263 Y195.835 E13.38621
G1 X19.289 Y195.299 E13.39514
G1 X19.394 Y194.773 E13.40406
G1 X19.575 Y194.269 E13.41296
G1 X19.83 Y193.797 E13.42189
G1 X20.135 Y193.387 E13.43038
G1 X20.263 Y193.245 E13.43356
G1 X20.727 Y192.751 E13.44483
G1 X189.51 Y17.652 E17.4893
G0 F1500 X189.793 Y17.934
G1 F900 X190.289 Y17.435 E17.501
G1 X190.673 Y17.106 E17.50941
G1 X191.104 Y16.841 E17.51783
G1 X191.571 Y16.647 E17.52624
G1 X192.062 Y16.53 E17.53463
G1 X192.567 Y16.491 E17.54305
G1 X193.07 Y16.532 E17.55145
G1 X193.562 Y16.652 E17.55987
G1 X194.028 Y16.848 E17.56828
G1 X194.457 Y17.115 E17.57668
G1 X194.782 Y17.39 E17.58376
G1 X195.383 Y17.97 E17.59765
G1 X202.139 Y24.727 E17.75655
G1 X202.604 Y25.205 E17.76764
G1 X202.927 Y25.594 E17.77605
G1 X203.184 Y26.029 E17.78445
G1 X203.37 Y26.499 E17.79286
G1 X203.479 Y26.993 E17.80127
G1 X203.509 Y27.497 E17.80967
G1 X203.46 Y28 E17.81807
G1 X203.332 Y28.489 E17.82648
G1 X203.128 Y28.952 E17.83489
G1 X202.854 Y29.377 E17.8433
G1 X202.567 Y29.704 E17.85054
G1 X201.936 Y30.332 E17.86534
G1 X26.975 Y198.981 E21.90661
G1 X26.451 Y199.472 E21.91856
G1 X26.056 Y199.788 E21.92697
G1 X25.616 Y200.037 E21.93538
G1 X25.143 Y200.214 E21.94377
G1 X24.647 Y200.314 E21.95219
G1 X24.142 Y200.335 E21.96059
G1 X23.64 Y200.276 E21.969
G1 X23.153 Y200.138 E21.97742
G1 X22.694 Y199.926 E21.98583
G1 X22.084 Y199.481 E21.99838
G1 X21.958 Y199.362 E22.00127
G1 X21.567 Y198.981 E22.01034
G1 X21.029 Y198.442 E22.02301
G1 X20.57 Y197.971 E22.03395
G1 X20.247 Y197.583 E22.04234
G1 X19.989 Y197.148 E22.05075
G1 X19.803 Y196.678 E22.05916
G1 X19.693 Y196.184 E22.06757
G1 X19.663 Y195.68 E22.07597
G1 X19.712 Y195.176 E22.08439
G1 X19.839 Y194.687 E22.09279
G1 X20.043 Y194.224 E22.10121
G1 X20.438 Y193.649 E22.11281
G1 X20.554 Y193.518 E22.11572
G1 X21.015 Y193.028 E22.12691
G1 X189.793 Y17.934 E26.17126
G1 F1800 E19.17126
G1 F300 Z0.3
;MESH:clock-minutehand.stl
G0 F1500 X192.125 Y29.158 Z0.3
;TYPE:WALL-INNER
G1 F300 Z0.1
G1 F1800 E26.17126
G1 F900 X192.662 Y29.288 E26.18045
G1 X193.3 Y29.266 E26.19107
G1 X193.829 Y29.098 E26.2003
G1 X194.298 Y28.803 E26.20951
G1 X194.675 Y28.406 E26.21861
G1 X194.943 Y27.928 E26.22773
G1 X195.085 Y27.397 E26.23687
G1 X195.093 Y26.846 E26.24603
G1 X194.927 Y26.227 E26.25669
G1 X194.642 Y25.746 E26.26599
G1 X194.254 Y25.357 E26.27512
G1 X193.781 Y25.078 E26.28426
G1 X193.261 Y24.924 E26.29328
G1 X192.819 Y24.896 E26.30064
G1 X192.28 Y24.984 E26.30972
G1 X191.777 Y25.203 E26.31885
G1 X191.345 Y25.54 E26.32796
G1 X191.008 Y25.972 E26.33707
G1 X190.789 Y26.475 E26.34619
G1 X190.701 Y27.017 E26.35533
G1 X190.748 Y27.561 E26.36441
G1 X190.931 Y28.082 E26.37359
G1 X191.233 Y28.534 E26.38263
G1 X191.639 Y28.902 E26.39174
G1 X192.125 Y29.158 E26.40088
G0 F1500 X192.267 Y28.781
;TYPE:WALL-OUTER
G1 F900 X192.703 Y28.886 E26.40833
G1 X193.231 Y28.868 E26.41712
G1 X193.659 Y28.732 E26.42459
G1 X194.043 Y28.491 E26.43213
G1 X194.351 Y28.167 E26.43956
G1 X194.57 Y27.776 E26.44702
G1 X194.686 Y27.342 E26.45449
G1 X194.692 Y26.896 E26.4619
G1 X194.555 Y26.383 E26.47073
G1 X194.324 Y25.993 E26.47827
G1 X194.007 Y25.676 E26.48573
G1 X193.62 Y25.447 E26.49321
G1 X193.191 Y25.32 E26.50065
G1 X192.839 Y25.298 E26.50651
G1 X192.394 Y25.371 E26.51401
G1 X191.983 Y25.55 E26.52147
G1 X191.63 Y25.825 E26.52891
G1 X191.355 Y26.178 E26.53635
G1 X191.176 Y26.589 E26.5438
G1 X191.104 Y27.032 E26.55127
G1 X191.142 Y27.476 E26.55868
G1 X191.292 Y27.902 E26.56619
G1 X191.538 Y28.271 E26.57356
G1 X191.87 Y28.572 E26.58102
G1 X192.267 Y28.781 E26.58848
G0 F1500 X192.461 Y28.827
G0 X192.357 Y29.255
G1 F1800 E19.58848
G1 F300 Z0.3
G0 F1500 X192.32 Y29.411 Z0.3
G0 X199.47 Y27.431
;TYPE:WALL-INNER
G1 F300 Z0.1
G1 F1800 E26.58848
G1 F900 X24.27 Y196.31 E30.63527
G1 X23.69 Y195.73 E30.64891
G1 X192.569 Y20.53 E34.69569
G1 X199.47 Y27.431 E34.858
G0 F1500 X200.041 Y27.436
;TYPE:WALL-OUTER
G1 F900 X24.265 Y196.871 E38.9181
G1 X23.129 Y195.735 E38.94481
G1 X192.564 Y19.959 E43.00492
G1 X200.041 Y27.436 E43.18076
G0 F1500 X199.898 Y27.574
G0 X199.416 Y27.433
G0 X198.914 Y27.425
;TYPE:SKIN
G1 F900 X24.274 Y195.764 E47.21461
G1 X24.236 Y195.726 E47.21551
G1 X192.575 Y21.086 E51.24936
G1 X198.914 Y27.425 E51.39844
G1 F1800 E44.39844
G1 F300 Z0.3
G0 F1500 X199.049 Y27.29 Z0.3
G0 X195.475 Y27.451
G1 F300 Z0.1
G1 F1800 E51.39844
G1 F900 X195.483 Y26.797 E51.40932
G1 X195.29 Y26.075 E51.42175
G1 X194.952 Y25.505 E51.43277
G1 X194.495 Y25.047 E51.44353
G1 X193.937 Y24.717 E51.45431
G1 X193.329 Y24.538 E51.46485
G1 X192.8 Y24.504 E51.47366
G1 X192.169 Y24.607 E51.4843
G1 X191.576 Y24.865 E51.49505
G1 X191.068 Y25.263 E51.50578
G1 X190.67 Y25.771 E51.51651
G1 X190.412 Y26.364 E51.52727
G1 X190.309 Y27.002 E51.53802
G1 X190.364 Y27.643 E51.54872
G1 X190.58 Y28.257 E51.55954
G1 X190.935 Y28.791 E51.5702
G1 X191.413 Y29.224 E51.58093
G1 X191.986 Y29.526 E51.5917
G1 X192.623 Y29.68 E51.6026
G1 X193.367 Y29.654 E51.61498
G1 X193.995 Y29.455 E51.62594
G1 X194.547 Y29.107 E51.63679
G1 X194.991 Y28.64 E51.6475
G1 X195.307 Y28.076 E51.65825
G1 X195.475 Y27.451 E51.66902
G1 F1800 E44.66902
G1 F300 Z0.3
G0 F1500 X195.282 Y27.424 Z0.3
G0 X198.453 Y27.616
G1 F300 Z0.1
G1 F1800 E51.66902
G1 F900 X192.381 Y21.544 E51.81182
G0 F1500 X192.103 Y21.832
G1 F900 X198.165 Y27.894 E51.95439
G0 F1500 X197.878 Y28.172
G1 F900 X191.826 Y22.12 E52.09672
G0 F1500 X191.548 Y22.408
G1 F900 X193.557 Y24.417 E52.14397
G0 F1500 X192.904 Y24.33
G1 F900 X191.27 Y22.696 E52.1824
G0 F1500 X190.993 Y22.984
G1 F900 X192.395 Y24.387 E52.21539
G0 F1500 X191.948 Y24.505
G1 F900 X190.715 Y23.273 E52.24437
G0 F1500 X190.437 Y23.56
G1 F900 X191.554 Y24.677 E52.27064
G0 F1500 X191.223 Y24.912
G1 F900 X190.16 Y23.848 E52.29566
G0 F1500 X189.882 Y24.137
G1 F900 X190.913 Y25.168 E52.3199
G0 F1500 X190.665 Y25.485
G1 F900 X189.605 Y24.424 E52.34484
G0 F1500 X189.327 Y24.713
G1 F900 X190.446 Y25.832 E52.37116
G0 F1500 X190.275 Y26.226
G1 F900 X189.049 Y25.001 E52.39998
G0 F1500 X188.772 Y25.288
G1 F900 X190.177 Y26.693 E52.43303
G0 F1500 X190.148 Y27.23
G1 F900 X188.494 Y25.577 E52.47191
G0 F1500 X188.216 Y25.865
G1 F900 X190.269 Y27.917 E52.52019
G1 X190.339 Y27.987
G0 F1500 X190.733 Y27.849
G0 X192.197 Y29.289
G0 X192.089 Y29.737
G1 F900 X194.133 Y31.781 E52.56826
G0 F1500 X194.421 Y31.503
G1 F900 X192.772 Y29.855 E52.60703
G0 F1500 X193.319 Y29.836
G1 F900 X194.709 Y31.226 E52.63972
G0 F1500 X194.997 Y30.948
G1 F900 X193.765 Y29.716 E52.66869
G0 F1500 X194.17 Y29.556
G1 F900 X195.285 Y30.67 E52.6949
G0 F1500 X195.573 Y30.393
G1 F900 X194.518 Y29.337 E52.71973
G0 F1500 X194.822 Y29.076
G1 F900 X195.861 Y30.115 E52.74416
G0 F1500 X196.15 Y29.838
G1 F900 X195.098 Y28.787 E52.76889
G0 F1500 X195.311 Y28.434
G1 F900 X196.437 Y29.56 E52.79538
G0 F1500 X196.725 Y29.282
G1 F900 X195.498 Y28.055 E52.82423
G0 F1500 X195.618 Y27.609
G1 F900 X197.014 Y29.005 E52.85706
G0 F1500 X197.301 Y28.727
G1 F900 X195.658 Y27.084 E52.89571
G0 F1500 X195.57 Y26.43
G1 F900 X197.589 Y28.449 E52.94319
G1 X197.659 Y28.519
G0 F1500 X197.911 Y28.78
G0 X194.165 Y32.391
G0 X193.845 Y32.059
G1 F900 X187.939 Y26.153 E53.08209
G0 F1500 X187.661 Y26.441
G1 F900 X193.557 Y32.336 E53.22074
G0 F1500 X193.269 Y32.614
G1 F900 X187.384 Y26.729 E53.35915
G0 F1500 X187.106 Y27.017
G1 F900 X192.981 Y32.892 E53.49732
G0 F1500 X192.692 Y33.169
G1 F900 X186.828 Y27.305 E53.63523
G0 F1500 X186.551 Y27.593
G1 F900 X192.405 Y33.447 E53.77291
G0 F1500 X192.117 Y33.725
G1 F900 X186.273 Y27.881 E53.91035
G0 F1500 X185.995 Y28.169
G1 F900 X191.828 Y34.002 E54.04753
G0 F1500 X191.541 Y34.28
G1 F900 X185.718 Y28.457 E54.18448
G0 F1500 X185.44 Y28.745
G1 F900 X191.253 Y34.558 E54.32119
G0 F1500 X190.964 Y34.835
G1 F900 X185.162 Y29.033 E54.45765
G0 F1500 X184.885 Y29.321
G1 F900 X190.677 Y35.113 E54.59387
G0 F1500 X190.389 Y35.391
G1 F900 X184.607 Y29.609 E54.72985
G0 F1500 X184.33 Y29.897
G1 F900 X190.1 Y35.668 E54.86557
G0 F1500 X189.812 Y35.946
G1 F900 X184.052 Y30.185 E55.00104
G0 F1500 X183.774 Y30.473
G1 F900 X189.525 Y36.224 E55.1363
G0 F1500 X189.236 Y36.501
G1 F900 X183.497 Y30.761 E55.27128
G0 F1500 X183.219 Y31.049
G1 F900 X188.948 Y36.779 E55.40603
G0 F1500 X188.66 Y37.056
G1 F900 X182.941 Y31.338 E55.54052
G0 F1500 X182.664 Y31.626
G1 F900 X188.372 Y37.334 E55.67476
G0 F1500 X188.084 Y37.612
G1 F900 X182.386 Y31.913 E55.80878
G0 F1500 X182.108 Y32.202
G1 F900 X187.796 Y37.889 E55.94255
G0 F1500 X187.508 Y38.167
G1 F900 X181.831 Y32.49 E56.07606
G0 F1500 X181.553 Y32.777
G1 F900 X187.22 Y38.445 E56.20935
G0 F1500 X186.932 Y38.722
G1 F900 X181.276 Y33.066 E56.34237
G0 F1500 X180.998 Y33.354
G1 F900 X186.644 Y39 E56.47516
G0 F1500 X186.356 Y39.278
G1 F900 X180.72 Y33.642 E56.60771
G0 F1500 X180.443 Y33.93
G1 F900 X186.068 Y39.555 E56.74
G0 F1500 X185.78 Y39.833
G1 F900 X180.165 Y34.218 E56.87205
G0 F1500 X179.887 Y34.506
G1 F900 X185.492 Y40.111 E57.00388
G0 F1500 X185.203 Y40.388
G1 F900 X179.61 Y34.794 E57.13543
G0 F1500 X179.332 Y35.082
G1 F900 X184.916 Y40.666 E57.26675
G0 F1500 X184.628 Y40.944
G1 F900 X179.054 Y35.37 E57.39785
G0 F1500 X178.777 Y35.658
G1 F900 X184.339 Y41.221 E57.52867
G0 F1500 X184.052 Y41.499
G1 F900 X178.499 Y35.946 E57.65926
G0 F1500 X178.221 Y36.234
G1 F900 X183.764 Y41.777 E57.78963
G0 F1500 X183.475 Y42.054
G1 F900 X177.944 Y36.522 E57.91972
G0 F1500 X177.666 Y36.81
G1 F900 X183.188 Y42.332 E58.04959
G0 F1500 X182.9 Y42.61
G1 F900 X177.388 Y37.098 E58.17922
G0 F1500 X177.111 Y37.386
G1 F900 X182.611 Y42.887 E58.30859
G0 F1500 X182.323 Y43.165
G1 F900 X176.833 Y37.674 E58.43771
G0 F1500 X176.556 Y37.963
G1 F900 X182.035 Y43.442 E58.56657
G0 F1500 X181.747 Y43.72
G1 F900 X176.278 Y38.25 E58.69521
G0 F1500 X176 Y38.538
G1 F900 X181.459 Y43.998 E58.82361
G0 F1500 X181.171 Y44.275
G1 F900 X175.723 Y38.827 E58.95173
G0 F1500 X175.445 Y39.115
G1 F900 X180.883 Y44.553 E59.07963
G0 F1500 X180.595 Y44.831
G1 F900 X175.167 Y39.402 E59.2073
G0 F1500 X174.89 Y39.691
G1 F900 X180.307 Y45.108 E59.3347
G0 F1500 X180.019 Y45.386
G1 F900 X174.612 Y39.979 E59.46186
G0 F1500 X174.334 Y40.266
G1 F900 X179.731 Y45.664 E59.5888
G0 F1500 X179.443 Y45.941
G1 F900 X174.057 Y40.555 E59.71547
G0 F1500 X173.779 Y40.843
G1 F900 X179.155 Y46.219 E59.84191
G0 F1500 X178.867 Y46.497
G1 F900 X173.501 Y41.13 E59.96812
G0 F1500 X173.224 Y41.419
G1 F900 X178.579 Y46.774 E60.09406
G0 F1500 X178.291 Y47.052
G1 F900 X172.946 Y41.707 E60.21977
G0 F1500 X172.668 Y41.995
G1 F900 X178.003 Y47.33 E60.34524
G0 F1500 X177.715 Y47.607
G1 F900 X172.391 Y42.283 E60.47045
G0 F1500 X172.113 Y42.571
G1 F900 X177.427 Y47.885 E60.59543
G0 F1500 X177.139 Y48.163
G1 F900 X171.835 Y42.859 E60.72017
G0 F1500 X171.558 Y43.147
G1 F900 X176.85 Y48.44 E60.84464
G0 F1500 X176.563 Y48.718
G1 F900 X171.28 Y43.435 E60.96889
G0 F1500 X171.002 Y43.723
G1 F900 X176.275 Y48.996 E61.0929
G0 F1500 X175.986 Y49.273
G1 F900 X170.725 Y44.011 E61.21664
G0 F1500 X170.447 Y44.299
G1 F900 X175.699 Y49.551 E61.34016
G0 F1500 X175.41 Y49.828
G1 F900 X170.17 Y44.588 E61.4634
G0 F1500 X169.892 Y44.875
G1 F900 X175.122 Y50.106 E61.58641
G0 F1500 X174.834 Y50.384
G1 F900 X169.614 Y45.163 E61.70919
G0 F1500 X169.337 Y45.452
G1 F900 X174.546 Y50.661 E61.8317
G0 F1500 X174.258 Y50.939
G1 F900 X169.059 Y45.739 E61.95398
G0 F1500 X168.781 Y46.027
G1 F900 X173.97 Y51.217 E62.07603
G0 F1500 X173.682 Y51.494
G1 F900 X168.504 Y46.316 E62.19781
G0 F1500 X168.226 Y46.603
G1 F900 X173.394 Y51.772 E62.31937
G0 F1500 X173.106 Y52.05
G1 F900 X167.948 Y46.891 E62.44069
G0 F1500 X167.671 Y47.18
G1 F900 X172.818 Y52.327 E62.56174
G0 F1500 X172.53 Y52.605
G1 F900 X167.393 Y47.468 E62.68255
G0 F1500 X167.115 Y47.755
G1 F900 X172.242 Y52.883 E62.80314
