;FLAVOR:Marlin
;TIME:1332
;Filament used: 0.304033m
;Layer height: 0.1
;MINX:97.025
;MINY:76.449
;MINZ:0.1
;MAXX:122.974
;MAXY:143.563
;MAXZ:2.6
;Generated with Cura_SteamEngine master
M82 ;absolute extrusion mode
;Sliced at: Sun 06-11-2022 23:56:02
;Basic settings: Layer height: 0.1 Walls: 0.8 Fill: 30
G21 ;metric values
G90 ;absolute positioning
M82 ;set extruder to absolute mode
M107 ;start with the fan off
M117 Start heating ...
M104 S200
M117 Homing X/Y ...
G28 X0 Y0 ;move X/Y to min endstops
M117 Homing Z ...
G28 Z0 ;move Z to min endstops
G1 Z15.0 F50 ;move the platform down 15mm
M117 Heating ...
M109 S200
M117 Start cleaning ...
G92 E0 ;zero the extruded length
G1 F200 E10 ;extrude 10mm of feed stock
G92 E0 ;zero the extruded length again
M117 Intro line ...
G1 Z2.0 F3000 ; Move Z Axis up little to prevent scratching of Heat Bed
G1 X0.1 Y20 Z0.1 F5000.0 ; Move to start position
G1 X0.1 Y200.0 Z0.1 F1500.0 E15 ; Draw the first line
G1 X0.4 Y200.0 Z0.1 F5000.0 ; Move to side a little
G1 X0.4 Y20 Z0.3 F1500.0 E30 ; Draw the second line
G92 E0 ; Reset Extruder
G1 E-1 F500 ; Retract filiment by 1 mm
G1 Z2.0 F3000 ; Move Z Axis up little to prevent scratching of Heat Bed
G1 X5 Y20 Z0.3 F50 ; Move over to prevent blob squish
G1 F50
G92 E0 ; Reset Extruder
M117 Printing...

G92 E0
G92 E0
G1 F1800 E-7
;LAYER_COUNT:24
;LAYER:0
M107
G1 F300 Z0.3
G0 F1500 X100.053 Y81.111 Z0.3
;TYPE:SKIRT
G1 F300 Z0.1
G1 F1800 E0
G1 F900 X100.417 Y80.679 E0.00939
G1 X100.743 Y80.338 E0.01724
G1 X101.448 Y79.683 E0.03324
G1 X101.879 Y79.307 E0.04275
G1 X102.252 Y79.021 E0.05057
G1 X103.01 Y78.508 E0.06579
G1 X103.505 Y78.194 E0.07554
G1 X103.926 Y77.963 E0.08353
G1 X104.777 Y77.561 E0.09918
G1 X105.307 Y77.329 E0.1088
G1 X105.758 Y77.166 E0.11678
G1 X106.756 Y76.871 E0.13408
G1 X107.658 Y76.665 E0.14947
G1 X108.614 Y76.535 E0.16551
G1 X108.755 Y76.519 E0.16787
G1 X109.265 Y76.468 E0.1764
G1 X109.993 Y76.449 E0.18851
G1 X110.563 Y76.468 E0.19799
G1 X111.157 Y76.499 E0.20788
G1 X111.631 Y76.553 E0.21582
G1 X112.538 Y76.71 E0.23112
G1 X113.134 Y76.833 E0.24125
G1 X113.574 Y76.953 E0.24883
G1 X114.452 Y77.247 E0.26423
G1 X115.006 Y77.452 E0.27405
G1 X115.439 Y77.645 E0.28194
G1 X116.264 Y78.072 E0.29738
G1 X116.78 Y78.359 E0.3072
G1 X117.176 Y78.614 E0.31504
G1 X117.914 Y79.152 E0.33022
G1 X118.375 Y79.51 E0.33993
G1 X118.73 Y79.824 E0.34781
G1 X119.421 Y80.513 E0.36404
G1 X119.805 Y80.92 E0.37335
G1 X120.106 Y81.284 E0.3812
G1 X120.661 Y82.04 E0.3968
G1 X120.74 Y82.151 E0.39906
G1 X121.031 Y82.577 E0.40764
G1 X121.321 Y83.068 E0.41712
G1 X121.375 Y83.169 E0.41903
G1 X121.645 Y83.704 E0.429
G1 X121.915 Y84.269 E0.43941
G1 X122.094 Y84.708 E0.44729
G1 X122.388 Y85.574 E0.4625
G1 X122.428 Y85.699 E0.46468
G1 X122.576 Y86.187 E0.47317
G1 X122.699 Y86.7 E0.48194
G1 X122.808 Y87.338 E0.4927
G1 X122.918 Y88.113 E0.50572
G1 X122.956 Y88.591 E0.51369
G1 X122.974 Y89.486 E0.52858
G1 X122.969 Y90.07 E0.53829
G1 X122.934 Y90.544 E0.5462
G1 X122.804 Y91.523 E0.56262
G1 X122.707 Y92.121 E0.5727
G1 X122.662 Y92.349 E0.57656
G1 X122.353 Y93.716 E0.59987
G1 X122.344 Y93.78 E0.60094
G1 X122.199 Y94.399 E0.61151
G1 X121.647 Y97.076 E0.65697
G1 X121.182 Y99.725 E0.7017
G1 X120.783 Y102.444 E0.7474
G1 X120.471 Y105.084 E0.79161
G1 X120.227 Y107.801 E0.83697
G1 X120.059 Y110.539 E0.88259
G1 X119.97 Y113.245 E0.92762
G1 X119.958 Y115.952 E0.97263
G1 X120.022 Y118.661 E1.0177
G1 X120.165 Y121.399 E1.06329
G1 X120.38 Y124.068 E1.10782
G1 X120.68 Y126.823 E1.15391
G1 X120.924 Y128.66 E1.18473
G1 X120.992 Y129.31 E1.1956
G1 X121.004 Y129.761 E1.2031
G1 X121.004 Y138.877 E1.3547
G1 X120.995 Y139.604 E1.36679
G1 X120.948 Y140.167 E1.37618
G1 X120.822 Y140.718 E1.38558
G1 X120.62 Y141.246 E1.39499
G1 X120.345 Y141.74 E1.40439
G1 X120.003 Y142.19 E1.41379
G1 X119.601 Y142.588 E1.4232
G1 X119.148 Y142.925 E1.43258
G1 X118.651 Y143.195 E1.44199
G1 X118.121 Y143.392 E1.45139
G1 X117.569 Y143.513 E1.46079
G1 X116.786 Y143.561 E1.47384
G1 X116.677 Y143.563 E1.47565
G1 X113.088 Y143.563 E1.53534
G1 X111.39 Y143.539 E1.56358
G1 X108.671 Y143.539 E1.60879
G1 X108.203 Y143.55 E1.61658
G1 X107.065 Y143.563 E1.6355
G1 X103.654 Y143.563 E1.69223
G1 X102.956 Y143.553 E1.70384
G1 X102.392 Y143.505 E1.71325
G1 X101.842 Y143.378 E1.72264
G1 X101.314 Y143.174 E1.73205
G1 X100.82 Y142.899 E1.74145
G1 X100.371 Y142.556 E1.75085
G1 X99.974 Y142.154 E1.76025
G1 X99.637 Y141.699 E1.76966
G1 X99.369 Y141.202 E1.77905
G1 X99.173 Y140.672 E1.78845
G1 X99.053 Y140.119 E1.79786
G1 X99.005 Y139.329 E1.81102
G1 X99.004 Y130.077 E1.96488
G1 X99.015 Y129.36 E1.97681
G1 X99.047 Y128.914 E1.98425
G1 X99.185 Y127.838 E2.00229
G1 X99.286 Y127.131 E2.01416
G1 X99.589 Y124.466 E2.05877
G1 X99.82 Y121.749 E2.10411
G1 X99.975 Y119.011 E2.14972
G1 X100.051 Y116.34 E2.19416
G1 X100.051 Y113.596 E2.23979
G1 X99.975 Y110.921 E2.28429
G1 X99.821 Y108.187 E2.32983
G1 X99.588 Y105.448 E2.37555
G1 X99.287 Y102.792 E2.42
G1 X98.902 Y100.083 E2.4655
G1 X98.445 Y97.418 E2.51047
G1 X97.919 Y94.792 E2.55501
G1 X97.521 Y93.086 E2.58414
G1 X97.381 Y92.429 E2.59531
G1 X97.23 Y91.742 E2.60701
G1 X97.157 Y91.273 E2.6149
G1 X97.064 Y90.315 E2.63091
G1 X97.027 Y89.751 E2.64031
G1 X97.025 Y89.281 E2.64812
G1 X97.077 Y88.359 E2.66348
G1 X97.126 Y87.793 E2.67293
G1 X97.197 Y87.323 E2.68083
G1 X97.399 Y86.371 E2.69702
G1 X97.529 Y85.837 E2.70616
G1 X97.672 Y85.382 E2.71409
G1 X98.009 Y84.495 E2.72987
G1 X98.227 Y83.969 E2.73934
G1 X98.439 Y83.537 E2.74734
G1 X98.906 Y82.716 E2.76305
G1 X99.192 Y82.245 E2.77221
G1 X99.466 Y81.853 E2.78017
G1 X100.053 Y81.111 E2.7959
G0 F1500 X100.367 Y81.359
G1 F900 X100.722 Y80.938 E2.80506
G1 X101.016 Y80.631 E2.81213
G1 X101.721 Y79.976 E2.82813
G1 X102.141 Y79.61 E2.83739
G1 X102.476 Y79.353 E2.84442
G1 X103.234 Y78.84 E2.85964
G1 X103.718 Y78.533 E2.86917
G1 X104.097 Y78.325 E2.87636
G1 X104.948 Y77.923 E2.89201
G1 X105.466 Y77.697 E2.90141
G1 X105.872 Y77.549 E2.9086
G1 X106.744 Y77.29 E2.92372
G1 X107.286 Y77.146 E2.93305
G1 X107.712 Y77.062 E2.94027
G1 X108.668 Y76.932 E2.95631
G1 X108.795 Y76.917 E2.95844
G1 X109.305 Y76.866 E2.96696
G1 X109.991 Y76.849 E2.97838
G1 X110.543 Y76.868 E2.98756
G1 X111.137 Y76.899 E2.99745
G1 X111.563 Y76.947 E3.00458
G1 X112.47 Y77.104 E3.01989
G1 X113.051 Y77.224 E3.02976
G1 X113.447 Y77.332 E3.03658
G1 X114.325 Y77.626 E3.05198
G1 X114.866 Y77.827 E3.06158
G1 X115.255 Y78 E3.06866
G1 X116.08 Y78.427 E3.08411
G1 X116.584 Y78.708 E3.0937
G1 X116.941 Y78.937 E3.10076
G1 X117.679 Y79.475 E3.11594
G1 X118.128 Y79.825 E3.12541
G1 X118.448 Y80.108 E3.13252
G1 X119.139 Y80.797 E3.14874
G1 X119.512 Y81.193 E3.15779
G1 X119.784 Y81.521 E3.16488
G1 X120.41 Y82.376 E3.1825
G1 X120.701 Y82.802 E3.19108
G1 X120.97 Y83.259 E3.1999
G1 X121.246 Y83.799 E3.20998
G1 X121.554 Y84.442 E3.22184
G1 X121.715 Y84.837 E3.22893
G1 X122.009 Y85.703 E3.24414
G1 X122.045 Y85.815 E3.2461
G1 X122.193 Y86.303 E3.25458
G1 X122.335 Y86.93 E3.26527
G1 X122.426 Y87.487 E3.27466
G1 X122.522 Y88.169 E3.28611
G1 X122.556 Y88.599 E3.29328
G1 X122.575 Y89.614 E3.31016
G1 X122.538 Y90.491 E3.32476
G1 X122.408 Y91.47 E3.34119
G1 X122.312 Y92.055 E3.35104
G1 X122.272 Y92.26 E3.35452
G1 X121.972 Y93.586 E3.37713
G1 X121.954 Y93.688 E3.37885
G1 X121.811 Y94.298 E3.38927
G1 X121.255 Y96.997 E3.4351
G1 X120.787 Y99.663 E3.48011
G1 X120.389 Y102.372 E3.52564
G1 X120.072 Y105.054 E3.57056
G1 X119.824 Y107.812 E3.61661
G1 X119.66 Y110.501 E3.66141
G1 X119.57 Y113.229 E3.7068
G1 X119.558 Y115.96 E3.75222
G1 X119.623 Y118.691 E3.79765
G1 X119.765 Y121.416 E3.84303
G1 X119.981 Y124.107 E3.88792
G1 X120.278 Y126.833 E3.93352
G1 X120.523 Y128.676 E3.96444
G1 X120.592 Y129.322 E3.97525
G1 X120.604 Y129.761 E3.98255
G1 X120.604 Y138.872 E4.13407
G1 X120.595 Y139.599 E4.14616
G1 X120.548 Y140.133 E4.15507
G1 X120.423 Y140.654 E4.16398
G1 X120.221 Y141.151 E4.1729
G1 X119.948 Y141.613 E4.18183
G1 X119.61 Y142.029 E4.19074
G1 X119.213 Y142.39 E4.19966
G1 X118.767 Y142.688 E4.20858
G1 X118.282 Y142.916 E4.2175
G1 X117.768 Y143.07 E4.22642
G1 X117.096 Y143.153 E4.23768
G1 X116.677 Y143.163 E4.24465
G1 X113.094 Y143.163 E4.30424
G1 X111.396 Y143.139 E4.33248
G1 X108.662 Y143.139 E4.37794
G1 X108.198 Y143.15 E4.38566
G1 X107.06 Y143.163 E4.40459
G1 X103.659 Y143.163 E4.46115
G1 X102.961 Y143.153 E4.47276
G1 X102.427 Y143.105 E4.48167
G1 X101.906 Y142.979 E4.49059
G1 X101.409 Y142.776 E4.49951
G1 X100.948 Y142.502 E4.50843
G1 X100.533 Y142.163 E4.51734
G1 X100.173 Y141.765 E4.52627
G1 X99.876 Y141.319 E4.53518
G1 X99.648 Y140.833 E4.54411
G1 X99.496 Y140.319 E4.55302
G1 X99.414 Y139.651 E4.56421
G1 X99.404 Y139.221 E4.57137
G1 X99.404 Y130.083 E4.72333
G1 X99.415 Y129.366 E4.73526
G1 X99.444 Y128.965 E4.74194
G1 X99.581 Y127.895 E4.75988
G1 X99.68 Y127.201 E4.77154
G1 X99.991 Y124.466 E4.81732
G1 X100.22 Y121.772 E4.86228
G1 X100.373 Y119.079 E4.90714
G1 X100.451 Y116.315 E4.95312
G1 X100.451 Y113.621 E4.99792
G1 X100.373 Y110.851 E5.04401
G1 X100.221 Y108.166 E5.08873
G1 X99.989 Y105.441 E5.13421
G1 X99.681 Y102.722 E5.17972
G1 X99.299 Y100.036 E5.22483
G1 X98.837 Y97.344 E5.27026
G1 X98.311 Y94.713 E5.31488
G1 X97.91 Y92.995 E5.34421
G1 X97.771 Y92.338 E5.35538
G1 X97.621 Y91.656 E5.367
G1 X97.555 Y91.235 E5.37408
G1 X97.462 Y90.277 E5.39009
G1 X97.426 Y89.727 E5.39925
G1 X97.425 Y89.303 E5.40631
G1 X97.477 Y88.381 E5.42166
G1 X97.525 Y87.829 E5.43088
G1 X97.588 Y87.406 E5.43799
G1 X97.79 Y86.454 E5.45417
G1 X97.917 Y85.934 E5.46308
G1 X98.046 Y85.524 E5.47022
G1 X98.383 Y84.637 E5.486
G1 X98.596 Y84.124 E5.49524
G1 X98.787 Y83.735 E5.50245
G1 X99.254 Y82.914 E5.51815
G1 X99.534 Y82.454 E5.52711
G1 X99.78 Y82.101 E5.53427
G1 X100.367 Y81.359 E5.55
G0 F1500 X100.68 Y81.608
G1 F900 X101.027 Y81.197 E5.55894
G1 X101.288 Y80.924 E5.56523
G1 X102.079 Y80.191 E5.58316
G1 X102.7 Y79.684 E5.59649
G1 X103.458 Y79.171 E5.61171
G1 X103.931 Y78.872 E5.62102
G1 X104.268 Y78.687 E5.62741
G1 X105.119 Y78.285 E5.64306
G1 X105.625 Y78.064 E5.65225
G1 X105.986 Y77.932 E5.65864
G1 X106.858 Y77.673 E5.67377
G1 X107.387 Y77.533 E5.68287
G1 X107.766 Y77.458 E5.68929
G1 X108.722 Y77.328 E5.70534
G1 X109.345 Y77.264 E5.71575
G1 X109.99 Y77.249 E5.72648
G1 X110.522 Y77.267 E5.73533
G1 X111.116 Y77.298 E5.74522
G1 X111.495 Y77.341 E5.75157
G1 X112.402 Y77.498 E5.76688
G1 X112.968 Y77.616 E5.77649
G1 X113.32 Y77.712 E5.78256
G1 X114.307 Y78.044 E5.79988
G1 X115.071 Y78.355 E5.81359
G1 X115.896 Y78.782 E5.82904
G1 X116.388 Y79.056 E5.83841
G1 X116.705 Y79.26 E5.84468
G1 X117.443 Y79.798 E5.85986
G1 X117.881 Y80.139 E5.8691
G1 X118.165 Y80.391 E5.87541
G1 X118.856 Y81.08 E5.89164
G1 X119.22 Y81.466 E5.90046
G1 X119.462 Y81.757 E5.90675
G1 X120.017 Y82.513 E5.92235
G1 X120.37 Y83.028 E5.93273
G1 X120.661 Y83.531 E5.9424
G1 X120.923 Y84.049 E5.95205
G1 X121.193 Y84.614 E5.96247
G1 X121.336 Y84.965 E5.96877
G1 X121.63 Y85.831 E5.98398
G1 X121.81 Y86.419 E5.9942
G1 X121.94 Y86.995 E6.00402
G1 X122.03 Y87.543 E6.01326
G1 X122.126 Y88.225 E6.02471
G1 X122.156 Y88.607 E6.03108
G1 X122.175 Y89.609 E6.04775
G1 X122.141 Y90.438 E6.06155
G1 X121.996 Y91.52 E6.0797
G1 X121.882 Y92.172 E6.09071
G1 X121.574 Y93.536 E6.11397
G1 X121.565 Y93.596 E6.11497
G1 X121.416 Y94.231 E6.12582
G1 X120.864 Y96.913 E6.17136
G1 X120.391 Y99.608 E6.21686
G1 X119.995 Y102.303 E6.26216
G1 X119.671 Y105.043 E6.30804
G1 X119.428 Y107.75 E6.35324
G1 X119.259 Y110.5 E6.39906
G1 X119.17 Y113.215 E6.44424
G1 X119.158 Y115.967 E6.49
G1 X119.223 Y118.687 E6.53525
G1 X119.366 Y121.433 E6.58098
G1 X119.587 Y124.185 E6.62689
G1 X119.881 Y126.885 E6.67206
G1 X120.127 Y128.733 E6.70306
G1 X120.193 Y129.334 E6.71312
G1 X120.204 Y129.761 E6.72022
G1 X120.204 Y138.867 E6.87165
G1 X120.195 Y139.594 E6.88374
G1 X120.149 Y140.097 E6.89214
G1 X120.024 Y140.587 E6.90055
G1 X119.823 Y141.051 E6.90896
G1 X119.552 Y141.478 E6.91737
G1 X119.217 Y141.857 E6.92578
G1 X118.827 Y142.178 E6.93418
G1 X118.391 Y142.434 E6.94259
G1 X117.92 Y142.617 E6.951
G1 X117.426 Y142.725 E6.95941
G1 X116.764 Y142.762 E6.97043
G1 X115.493 Y142.764 E6.99157
G1 X113.1 Y142.763 E7.03136
G1 X111.402 Y142.739 E7.05961
G1 X108.652 Y142.739 E7.10534
G1 X108.194 Y142.75 E7.11296
G1 X107.056 Y142.763 E7.13188
G1 X103.665 Y142.763 E7.18828
G1 X102.967 Y142.753 E7.19988
G1 X102.464 Y142.706 E7.20829
G1 X101.974 Y142.58 E7.2167
G1 X101.51 Y142.378 E7.22512
G1 X101.084 Y142.106 E7.23352
G1 X100.706 Y141.771 E7.24192
G1 X100.386 Y141.38 E7.25032
G1 X100.131 Y140.943 E7.25874
G1 X99.948 Y140.472 E7.26714
G1 X99.841 Y139.978 E7.27555
G1 X99.805 Y139.308 E7.2867
G1 X99.804 Y130.089 E7.44002
G1 X99.815 Y129.372 E7.45194
G1 X99.841 Y129.015 E7.45789
G1 X99.977 Y127.951 E7.47573
G1 X100.08 Y127.231 E7.48783
G1 X100.387 Y124.533 E7.53299
G1 X100.617 Y121.828 E7.57813
G1 X100.773 Y119.079 E7.62392
G1 X100.851 Y116.326 E7.66972
G1 X100.851 Y113.609 E7.71491
G1 X100.773 Y110.854 E7.76074
G1 X100.618 Y108.109 E7.80646
G1 X100.392 Y105.445 E7.85093
G1 X100.076 Y102.658 E7.89757
G1 X99.695 Y99.978 E7.94259
G1 X99.231 Y97.276 E7.98818
G1 X98.697 Y94.604 E8.03349
G1 X98.3 Y92.904 E8.06252
G1 X98.275 Y92.737 E8.06533
G1 X98.15 Y92.202 E8.07447
G1 X98.012 Y91.571 E8.08521
G1 X97.953 Y91.196 E8.09152
G1 X97.86 Y90.238 E8.10753
G1 X97.825 Y89.702 E8.11646
G1 X97.824 Y89.326 E8.12272
G1 X97.876 Y88.404 E8.13807
G1 X97.923 Y87.865 E8.14707
G1 X97.98 Y87.489 E8.1534
G1 X98.182 Y86.537 E8.16958
G1 X98.306 Y86.031 E8.17824
G1 X98.42 Y85.666 E8.1846
G1 X98.757 Y84.779 E8.20038
G1 X98.965 Y84.278 E8.2094
G1 X99.135 Y83.933 E8.2158
G1 X99.655 Y83.022 E8.23324
G1 X100.093 Y82.35 E8.24658
G1 X100.68 Y81.608 E8.26232
G1 F1800 E1.26232
G1 F300 Z0.3
G0 F1500 X104.877 Y85.44 Z0.3
;TYPE:SUPPORT
G1 F300 Z0.1
G1 F1800 E8.26232
G1 F900 X105.599 Y84.654 E8.28007
G1 X106.451 Y83.991 E8.29802
G1 X107.395 Y83.48 E8.31587
G1 X108.414 Y83.13 E8.33379
G1 X109.462 Y82.956 E8.35146
G1 X110.545 Y82.956 E8.36947
G1 X111.593 Y83.13 E8.38713
G1 X112.612 Y83.48 E8.40505
G1 X113.556 Y83.991 E8.4229
G1 X114.411 Y84.657 E8.44093
G1 X115.127 Y85.436 E8.45852
G1 X115.718 Y86.339 E8.47647
G1 X116.147 Y87.317 E8.49423
G1 X116.414 Y88.369 E8.51228
G1 X116.502 Y89.431 E8.53
G1 X116.414 Y90.492 E8.5477
G1 X116.147 Y91.545 E8.56577
G1 X115.718 Y92.523 E8.58353
G1 X115.127 Y93.425 E8.60146
G1 X114.411 Y94.205 E8.61907
G1 X113.556 Y94.871 E8.6371
G1 X112.612 Y95.382 E8.65495
G1 X111.594 Y95.731 E8.67284
G1 X110.545 Y95.905 E8.69053
G1 X109.462 Y95.905 E8.70854
G1 X108.413 Y95.731 E8.72622
G1 X107.395 Y95.382 E8.74412
G1 X106.451 Y94.871 E8.76197
G1 X105.596 Y94.205 E8.77999
G1 X104.875 Y93.42 E8.79772
G1 X104.291 Y92.525 E8.81549
G1 X103.861 Y91.548 E8.83324
G1 X103.593 Y90.492 E8.85136
G1 X103.505 Y89.431 E8.86906
G1 X103.593 Y88.369 E8.88679
G1 X103.861 Y87.314 E8.90489
G1 X104.289 Y86.34 E8.92258
G1 X104.877 Y85.44 E8.94046
G0 F1500 X105.182 Y85.344
G1 F900 X114.827 Y85.344 E9.10086
G0 F1500 X114.681 Y85.187
G1 F900 X114.681 Y93.676 E9.24203
G0 F1500 X114.984 Y93.345
G1 F900 X105.022 Y93.345 E9.4077
G1 F1800 E2.4077
G1 F300 Z0.3
G0 F1500 X104.013 Y91.495 Z0.3
G1 F300 Z0.1
G1 F1800 E9.4077
G1 F900 X104.013 Y87.364 E9.4764
G0 F1500 X103.849 Y88.011
G1 F900 X116.159 Y88.011 E9.68111
G1 F1800 E2.68111
G1 F300 Z0.3
G0 F1500 X116.202 Y90.678 Z0.3
G1 F300 Z0.1
G1 F1800 E9.68111
G1 F900 X103.804 Y90.678 E9.88729
G1 F1800 E2.88729
G1 F300 Z0.3
G0 F1500 X106.68 Y94.813 Z0.3
G1 F300 Z0.1
G1 F1800 E9.88729
G1 F900 X106.68 Y84.048 E10.06631
G1 F1800 E3.06631
G1 F300 Z0.3
G0 F1500 X109.347 Y83.137 Z0.3
G1 F300 Z0.1
G1 F1800 E10.06631
G1 F900 X109.347 Y95.723 E10.27562
G1 F1800 E3.27562
G1 F300 Z0.3
G0 F1500 X112.014 Y95.419 Z0.3
G1 F300 Z0.1
G1 F1800 E10.27562
G1 F900 X112.014 Y83.444 E10.47476
G1 F1800 E3.47476
G1 F300 Z0.3
G0 F1500 X114.494 Y133.431 Z0.3
G1 F300 Z0.1
G1 F1800 E10.47476
G1 F900 X114.494 Y139.363 E10.57341
G1 X112.52 Y139.363 E10.60624
G1 X112.509 Y139.352 E10.6065
G1 X112.508 Y137.606 E10.63554
G1 X112.327 Y136.918 E10.64737
G1 X112.04 Y136.416 E10.65698
G1 X111.651 Y135.981 E10.66669
G1 X111.182 Y135.659 E10.67615
G1 X110.618 Y135.431 E10.68627
