;FLAVOR:Marlin
;TIME:4570
;Filament used: 0.710031m
;Layer height: 0.1
;MINX:18.87
;MINY:15.787
;MINZ:0.1
;MAXX:204.212
;MAXY:201.133
;MAXZ:1.2
;Generated with Cura_SteamEngine master
M82 ;absolute extrusion mode
;Sliced at: Sun 27-11-2022 17:45:01
;Basic settings: Layer height: 0.1 Walls: 0.8 Fill: 100.0
G21 ;metric values
G90 ;absolute positioning
M82 ;set extruder to absolute mode
M107 ;start with the fan off
M117 Start heating ...
M104 S200
M117 Homing X/Y ...
G28 X0 Y0 ;move X/Y to min endstops
M117 Homing Z ...
G28 Z0 ;move Z to min endstops
G1 Z15.0 F50 ;move the platform down 15mm
M117 Heating ...
M109 S200
M117 Start cleaning ...
G92 E0 ;zero the extruded length
G1 F200 E10 ;extrude 10mm of feed stock
G92 E0 ;zero the extruded length again
M117 Intro line ...
G1 Z2.0 F3000 ; Move Z Axis up little to prevent scratching of Heat Bed
G1 X0.1 Y20 Z0.1 F5000.0 ; Move to start position
G1 X0.1 Y200.0 Z0.1 F1500.0 E15 ; Draw the first line
G1 X0.4 Y200.0 Z0.1 F5000.0 ; Move to side a little
G1 X0.4 Y20 Z0.3 F1500.0 E30 ; Draw the second line
G92 E0 ; Reset Extruder
G1 E-1 F500 ; Retract filiment by 1 mm
G1 Z2.0 F3000 ; Move Z Axis up little to prevent scratching of Heat Bed
G1 X5 Y20 Z0.3 F50 ; Move over to prevent blob squish
G1 F50
G92 E0 ; Reset Extruder
M117 Printing...

G92 E0
G92 E0
G1 F1800 E-7
;LAYER_COUNT:10
;LAYER:0
M107
G1 F300 Z0.3
G0 F1500 X184.43 Y22.343 Z0.3
;TYPE:SKIRT
G1 F300 Z0.1
G1 F1800 E0
G1 F900 X185.004 Y21.76 E0.01361
G1 X189.378 Y17.386 E0.11648
G1 X189.858 Y16.917 E0.12764
G1 X190.289 Y16.551 E0.13704
G1 X190.767 Y16.25 E0.14643
G1 X191.283 Y16.02 E0.15583
G1 X191.827 Y15.864 E0.16524
G1 X192.387 Y15.787 E0.17464
G1 X192.952 Y15.789 E0.18404
G1 X193.512 Y15.871 E0.19345
G1 X194.054 Y16.031 E0.20285
G1 X194.568 Y16.266 E0.21224
G1 X195.044 Y16.571 E0.22165
G1 X195.628 Y17.086 E0.2346
G1 X202.617 Y24.073 E0.39894
G1 X203.085 Y24.553 E0.41009
G1 X203.45 Y24.984 E0.41948
G1 X203.751 Y25.463 E0.42889
G1 X203.981 Y25.979 E0.43829
G1 X204.136 Y26.523 E0.44769
G1 X204.212 Y27.083 E0.45709
G1 X204.209 Y27.649 E0.4665
G1 X204.127 Y28.208 E0.4759
G1 X203.966 Y28.75 E0.4853
G1 X203.731 Y29.264 E0.4947
G1 X203.425 Y29.739 E0.5041
G1 X202.929 Y30.305 E0.51661
G1 X198.217 Y35.019 E0.62746
G1 X197.631 Y35.596 E0.64113
G1 X27.469 Y199.616 E4.57152
G1 X26.998 Y200.057 E4.58225
G1 X26.559 Y200.413 E4.59165
G1 X26.074 Y200.704 E4.60106
G1 X25.553 Y200.924 E4.61046
G1 X25.007 Y201.067 E4.61985
G1 X24.445 Y201.133 E4.62926
G1 X23.88 Y201.119 E4.63866
G1 X23.322 Y201.025 E4.64807
G1 X22.784 Y200.853 E4.65746
G1 X22.275 Y200.607 E4.66686
G1 X21.805 Y200.292 E4.67627
G1 X21.399 Y199.935 E4.68526
G1 X21.011 Y199.556 E4.69428
G1 X20.469 Y199.014 E4.70703
G1 X20 Y198.534 E4.71819
G1 X19.634 Y198.103 E4.72759
G1 X19.333 Y197.625 E4.73699
G1 X19.103 Y197.109 E4.74638
G1 X18.947 Y196.565 E4.75579
G1 X18.87 Y196.005 E4.76519
G1 X18.872 Y195.44 E4.77459
G1 X18.954 Y194.88 E4.784
G1 X19.114 Y194.338 E4.7934
G1 X19.349 Y193.824 E4.8028
G1 X19.824 Y193.136 E4.8167
G1 X19.977 Y192.964 E4.82053
G1 X20.419 Y192.494 E4.83126
G1 X184.43 Y22.343 E8.76141
G0 F1500 X184.716 Y22.624
G1 F900 X185.286 Y22.042 E8.77496
G1 X189.657 Y17.672 E8.87775
G1 X190.137 Y17.203 E8.88891
G1 X190.548 Y16.858 E8.89783
G1 X191.005 Y16.578 E8.90674
G1 X191.498 Y16.368 E8.91565
G1 X192.018 Y16.234 E8.92458
G1 X192.551 Y16.179 E8.9335
G1 X193.087 Y16.204 E8.94242
G1 X193.613 Y16.308 E8.95134
G1 X194.118 Y16.489 E8.96026
G1 X194.59 Y16.744 E8.96918
G1 X195.124 Y17.159 E8.98043
G1 X195.429 Y17.449 E8.98742
G1 X202.331 Y24.352 E9.14976
G1 X202.799 Y24.832 E9.16091
G1 X203.143 Y25.243 E9.16982
G1 X203.423 Y25.7 E9.17874
G1 X203.632 Y26.194 E9.18766
G1 X203.765 Y26.714 E9.19658
G1 X203.82 Y27.247 E9.20549
G1 X203.794 Y27.783 E9.21442
G1 X203.69 Y28.309 E9.22333
G1 X203.508 Y28.813 E9.23224
G1 X203.253 Y29.285 E9.24117
G1 X202.847 Y29.807 E9.25216
G1 X202.557 Y30.115 E9.2592
G1 X197.937 Y34.734 E9.36784
G1 X197.353 Y35.308 E9.38146
G1 X27.196 Y199.324 E13.31174
G1 X26.725 Y199.765 E13.32247
G1 X26.307 Y200.101 E13.33139
G1 X25.844 Y200.372 E13.34031
G1 X25.346 Y200.571 E13.34923
G1 X24.824 Y200.693 E13.35815
G1 X24.289 Y200.737 E13.36707
G1 X23.754 Y200.701 E13.37599
G1 X23.23 Y200.585 E13.38492
G1 X22.73 Y200.394 E13.39382
G1 X22.263 Y200.13 E13.40274
G1 X21.83 Y199.789 E13.4119
G1 X21.324 Y199.303 E13.42357
G1 X20.755 Y198.735 E13.43694
G1 X20.286 Y198.255 E13.4481
G1 X19.941 Y197.844 E13.45703
G1 X19.661 Y197.387 E13.46594
G1 X19.451 Y196.894 E13.47485
G1 X19.317 Y196.374 E13.48378
G1 X19.262 Y195.841 E13.49269
G1 X19.287 Y195.305 E13.50161
G1 X19.391 Y194.779 E13.51053
G1 X19.572 Y194.274 E13.51945
G1 X19.827 Y193.802 E13.52837
G1 X20.128 Y193.396 E13.53678
G1 X20.268 Y193.238 E13.54029
G1 X20.707 Y192.772 E13.55094
G1 X184.716 Y22.624 E17.48103
G0 F1500 X185.001 Y22.904
G1 F900 X185.569 Y22.325 E17.49452
G1 X189.937 Y17.958 E17.59724
G1 X190.417 Y17.489 E17.6084
G1 X190.805 Y17.166 E17.61679
G1 X191.24 Y16.907 E17.62521
G1 X191.709 Y16.72 E17.63361
G1 X192.203 Y16.61 E17.64202
G1 X192.707 Y16.578 E17.65042
G1 X193.211 Y16.627 E17.65884
G1 X193.7 Y16.754 E17.66724
G1 X194.163 Y16.957 E17.67565
G1 X194.589 Y17.23 E17.68407
G1 X195.079 Y17.667 E17.69499
G1 X202.016 Y24.602 E17.85811
G1 X202.512 Y25.111 E17.86993
G1 X202.835 Y25.5 E17.87834
G1 X203.093 Y25.935 E17.88675
G1 X203.28 Y26.405 E17.89516
G1 X203.39 Y26.898 E17.90356
G1 X203.42 Y27.403 E17.91197
G1 X203.371 Y27.906 E17.92038
G1 X203.244 Y28.395 E17.92878
G1 X203.041 Y28.858 E17.93719
G1 X202.767 Y29.283 E17.9456
G1 X202.346 Y29.758 E17.95615
G1 X197.675 Y34.431 E18.06603
G1 X197.076 Y35.02 E18.08
G1 X26.922 Y199.032 E22.0102
G1 X26.451 Y199.473 E22.02093
G1 X26.056 Y199.788 E22.02933
G1 X25.616 Y200.037 E22.03774
G1 X25.142 Y200.214 E22.04615
G1 X24.647 Y200.314 E22.05455
G1 X24.142 Y200.335 E22.06296
G1 X23.64 Y200.275 E22.07137
G1 X23.153 Y200.138 E22.07978
G1 X22.694 Y199.926 E22.08819
G1 X22.1 Y199.495 E22.10039
G1 X21.604 Y199.017 E22.11185
G1 X21.041 Y198.455 E22.12508
G1 X20.572 Y197.975 E22.13624
G1 X20.249 Y197.587 E22.14463
G1 X19.99 Y197.152 E22.15305
G1 X19.803 Y196.683 E22.16145
G1 X19.693 Y196.189 E22.16986
G1 X19.661 Y195.685 E22.17826
G1 X19.71 Y195.181 E22.18668
G1 X19.837 Y194.692 E22.19509
G1 X20.04 Y194.229 E22.20349
G1 X20.431 Y193.656 E22.21503
G1 X20.559 Y193.512 E22.21823
G1 X20.995 Y193.049 E22.22881
G1 X185.001 Y22.904 E26.15883
G1 F1800 E19.15883
G1 F300 Z0.3
;MESH:clock-minutehand-with-bushing.stl
G0 F1500 X192.362 Y29.847 Z0.3
;TYPE:WALL-INNER
G1 F300 Z0.1
G1 F1800 E26.15883
G1 F900 X193.047 Y29.898 E26.17025
G1 X193.724 Y29.777 E26.18169
G1 X194.352 Y29.497 E26.19313
G1 X194.885 Y29.078 E26.2044
G1 X195.31 Y28.534 E26.21588
G1 X195.589 Y27.898 E26.22743
G1 X195.704 Y27.212 E26.239
G1 X195.647 Y26.522 E26.25051
G1 X195.421 Y25.866 E26.26205
G1 X195.039 Y25.284 E26.27363
G1 X194.531 Y24.815 E26.28513
G1 X193.92 Y24.487 E26.29666
G1 X193.262 Y24.319 E26.30795
G1 X192.955 Y24.297 E26.31307
G1 X192.28 Y24.364 E26.32435
G1 X191.628 Y24.601 E26.33589
G1 X191.053 Y24.99 E26.34743
G1 X190.594 Y25.509 E26.35896
G1 X190.273 Y26.126 E26.37052
G1 X190.115 Y26.8 E26.38203
G1 X190.127 Y27.494 E26.39358
G1 X190.31 Y28.162 E26.4051
G1 X190.65 Y28.767 E26.41664
G1 X191.128 Y29.267 E26.42814
G1 X191.71 Y29.634 E26.43958
G1 X192.362 Y29.847 E26.45099
G0 F1500 X192.44 Y29.452
;TYPE:WALL-OUTER
G1 F900 X193.026 Y29.495 E26.46076
G1 X193.606 Y29.392 E26.47056
G1 X194.144 Y29.152 E26.48035
G1 X194.6 Y28.794 E26.48999
G1 X194.964 Y28.327 E26.49984
G1 X195.203 Y27.783 E26.50972
G1 X195.301 Y27.195 E26.51964
G1 X195.252 Y26.605 E26.52948
G1 X195.059 Y26.043 E26.53936
G1 X194.732 Y25.545 E26.54927
G1 X194.297 Y25.143 E26.55912
G1 X193.774 Y24.862 E26.56899
G1 X193.198 Y24.715 E26.57888
G1 X192.961 Y24.698 E26.58283
G1 X192.37 Y24.757 E26.59271
G1 X191.811 Y24.96 E26.6026
G1 X191.319 Y25.293 E26.61248
G1 X190.926 Y25.737 E26.62234
G1 X190.651 Y26.266 E26.63226
G1 X190.516 Y26.843 E26.64211
G1 X190.526 Y27.437 E26.65199
G1 X190.683 Y28.009 E26.66185
G1 X190.974 Y28.527 E26.67173
G1 X191.383 Y28.955 E26.68158
G1 X191.881 Y29.269 E26.69137
G1 X192.44 Y29.452 E26.70115
G0 F1500 X192.639 Y29.466
G0 X192.606 Y29.905
G1 F1800 E19.70115
G1 F300 Z0.3
G0 F1500 X192.595 Y30.065 Z0.3
G0 X194.72 Y32.011
;TYPE:WALL-INNER
G1 F300 Z0.1
G1 F1800 E26.70115
G1 F900 X24.27 Y196.31 E30.63821
G1 X23.69 Y195.73 E30.65185
G1 X187.983 Y25.285 E34.58878
G1 X192.654 Y20.614 E34.69863
G1 X199.386 Y27.346 E34.85696
G1 X194.72 Y32.011 E34.96668
G0 F1500 X194.998 Y32.299
;TYPE:WALL-OUTER
G1 F900 X24.265 Y196.871 E38.91028
G1 X23.129 Y195.735 E38.93699
G1 X187.7 Y25.002 E42.88058
G1 X192.654 Y20.048 E42.99709
G1 X199.952 Y27.346 E43.16873
G1 X194.998 Y32.299 E43.28523
G0 F1500 X194.855 Y32.437
G0 X194.55 Y32.12
G0 X194.485 Y31.696
;TYPE:SKIN
G1 F900 X24.274 Y195.764 E47.21675
G1 X24.236 Y195.726 E47.21765
G1 X188.298 Y25.52 E51.14905
G1 X192.654 Y21.164 E51.25149
G1 X198.836 Y27.346 E51.39688
G1 X194.485 Y31.696 E51.4992
G1 F1800 E44.4992
G1 F300 Z0.3
G0 F1500 X194.62 Y31.831 Z0.3
G0 X193.839 Y30.153
G1 F300 Z0.1
G1 F1800 E51.4992
G1 F900 X194.555 Y29.834 E51.51224
G1 X195.164 Y29.355 E51.52512
G1 X195.647 Y28.735 E51.53819
G1 X195.965 Y28.011 E51.55134
G1 X196.096 Y27.228 E51.56454
G1 X196.031 Y26.442 E51.57766
G1 X195.774 Y25.693 E51.59083
G1 X195.339 Y25.03 E51.60402
G1 X194.759 Y24.495 E51.61714
G1 X194.062 Y24.121 E51.63029
G1 X193.325 Y23.933 E51.64294
G1 X192.95 Y23.905 E51.6492
G1 X192.193 Y23.98 E51.66185
G1 X191.449 Y24.251 E51.67501
G1 X190.794 Y24.695 E51.68817
G1 X190.27 Y25.287 E51.70132
G1 X189.904 Y25.989 E51.71449
G1 X189.725 Y26.759 E51.72763
G1 X189.737 Y27.55 E51.74079
G1 X189.947 Y28.312 E51.75393
G1 X190.334 Y29.001 E51.76708
G1 X190.879 Y29.571 E51.78019
G1 X191.543 Y29.989 E51.79324
G1 X192.286 Y30.233 E51.80624
G1 X193.067 Y30.29 E51.81927
G1 X193.839 Y30.153 E51.83231
G1 F1800 E44.83231
G1 F300 Z0.3
G0 F1500 X193.782 Y29.967 Z0.3
G0 X192.453 Y21.616
G1 F300 Z0.1
G1 F1800 E51.83231
G1 F900 X198.382 Y27.545 E51.97175
G0 F1500 X198.099 Y27.828
G1 F900 X195.963 Y25.692 E52.02198
G1 X195.893 Y25.622
G0 F1500 X196.215 Y26.51
G1 F900 X197.816 Y28.111 E52.05964
G0 F1500 X197.533 Y28.393
G1 F900 X196.267 Y27.127 E52.08941
G0 F1500 X196.208 Y27.634
G1 F900 X197.25 Y28.676 E52.11392
G0 F1500 X196.968 Y28.959
G1 F900 X196.117 Y28.108 E52.13393
G0 F1500 X195.944 Y28.502
G1 F900 X196.685 Y29.242 E52.15135
G0 F1500 X196.402 Y29.525
G1 F900 X195.758 Y28.881 E52.16649
G0 F1500 X195.511 Y29.199
G1 F900 X196.119 Y29.808 E52.1808
G0 F1500 X195.836 Y30.09
G1 F900 X195.256 Y29.511 E52.19443
G0 F1500 X194.94 Y29.76
G1 F900 X195.553 Y30.373 E52.20885
G0 F1500 X195.271 Y30.656
G1 F900 X194.618 Y30.003 E52.22421
G0 F1500 X194.226 Y30.177
G1 F900 X194.988 Y30.939 E52.24213
G0 F1500 X194.705 Y31.222
G1 F900 X193.822 Y30.339 E52.26289
G0 F1500 X193.341 Y30.423
G1 F900 X194.422 Y31.505 E52.28833
G0 F1500 X194.134 Y31.782
G1 F900 X192.802 Y30.45 E52.31966
G0 F1500 X192.17 Y30.384
G1 F900 X193.846 Y32.06 E52.35907
G0 F1500 X193.557 Y32.337
G1 F900 X191.215 Y29.995 E52.41415
G1 X191.145 Y29.925
G0 F1500 X191.378 Y29.556
G0 X190.407 Y28.56
G0 X190.005 Y28.785
G1 F900 X187.661 Y26.44 E52.46929
G0 F1500 X187.938 Y26.152
G1 F900 X189.629 Y27.843 E52.50906
G0 F1500 X189.551 Y27.199
G1 F900 X188.216 Y25.864 E52.54046
G0 F1500 X188.494 Y25.576
G1 F900 X189.565 Y26.648 E52.56566
G0 F1500 X189.672 Y26.189
G1 F900 X188.777 Y25.293 E52.58672
G0 F1500 X189.059 Y25.011
G1 F900 X189.816 Y25.767 E52.60451
G0 F1500 X190.01 Y25.395
G1 F900 X189.342 Y24.728 E52.62021
G0 F1500 X189.625 Y24.445
G1 F900 X190.234 Y25.054 E52.63453
G0 F1500 X190.5 Y24.754
G1 F900 X189.908 Y24.162 E52.64846
G0 F1500 X190.191 Y23.879
G1 F900 X190.79 Y24.479 E52.66255
G0 F1500 X191.128 Y24.25
G1 F900 X190.474 Y23.596 E52.67794
G0 F1500 X190.756 Y23.314
G1 F900 X191.488 Y24.045 E52.69514
G0 F1500 X191.902 Y23.893
G1 F900 X191.039 Y23.031 E52.71542
G0 F1500 X191.322 Y22.748
G1 F900 X192.356 Y23.782 E52.73974
G0 F1500 X192.871 Y23.731
G1 F900 X191.605 Y22.465 E52.76952
G0 F1500 X191.888 Y22.182
G1 F900 X193.496 Y23.79 E52.80733
G1 X193.566 Y23.86
G0 F1500 X194.334 Y24.063
G1 F900 X192.171 Y21.899 E52.85822
G1 X192.101 Y21.829
G0 F1500 X191.848 Y21.576
G0 X187.054 Y26.409
G0 X187.383 Y26.728
G1 F900 X193.269 Y32.615 E52.99666
G0 F1500 X192.982 Y32.893
G1 F900 X187.105 Y27.016 E53.13488
G0 F1500 X186.828 Y27.304
G1 F900 X192.693 Y33.17 E53.27282
G0 F1500 X192.405 Y33.448
G1 F900 X186.55 Y27.592 E53.41054
G0 F1500 X186.272 Y27.88
G1 F900 X192.118 Y33.726 E53.54803
G0 F1500 X191.829 Y34.003
G1 F900 X185.995 Y28.169 E53.68523
G0 F1500 X185.717 Y28.456
G1 F900 X191.541 Y34.281 E53.82222
G0 F1500 X191.253 Y34.559
G1 F900 X185.439 Y28.744 E53.95896
G0 F1500 X185.162 Y29.033
G1 F900 X190.965 Y34.836 E54.09544
G0 F1500 X190.677 Y35.114
G1 F900 X184.884 Y29.32 E54.2317
G0 F1500 X184.606 Y29.608
G1 F900 X190.389 Y35.391 E54.3677
G0 F1500 X190.101 Y35.669
G1 F900 X184.329 Y29.897 E54.50345
G0 F1500 X184.051 Y30.184
G1 F900 X189.813 Y35.947 E54.63898
G0 F1500 X189.525 Y36.224
G1 F900 X183.773 Y30.472 E54.77425
G0 F1500 X183.496 Y30.761
G1 F900 X189.237 Y36.502 E54.90927
G0 F1500 X188.949 Y36.78
G1 F900 X183.218 Y31.049 E55.04406
G0 F1500 X182.94 Y31.336
G1 F900 X188.661 Y37.057 E55.17861
G0 F1500 X188.373 Y37.335
G1 F900 X182.663 Y31.625 E55.3129
G0 F1500 X182.385 Y31.913
G1 F900 X188.085 Y37.613 E55.44695
G0 F1500 X187.796 Y37.89
G1 F900 X182.108 Y32.201 E55.58074
G0 F1500 X181.83 Y32.489
G1 F900 X187.509 Y38.168 E55.7143
G0 F1500 X187.221 Y38.446
G1 F900 X181.552 Y32.777 E55.84763
G0 F1500 X181.275 Y33.065
G1 F900 X186.932 Y38.723 E55.98068
G0 F1500 X186.645 Y39.001
G1 F900 X180.997 Y33.353 E56.11351
G0 F1500 X180.719 Y33.641
G1 F900 X186.357 Y39.279 E56.24611
G0 F1500 X186.068 Y39.556
G1 F900 X180.442 Y33.929 E56.37844
G0 F1500 X180.164 Y34.217
G1 F900 X185.78 Y39.834 E56.51053
G0 F1500 X185.493 Y40.112
G1 F900 X179.886 Y34.505 E56.6424
G0 F1500 X179.609 Y34.793
G1 F900 X185.204 Y40.389 E56.77399
G0 F1500 X184.916 Y40.667
G1 F900 X179.331 Y35.081 E56.90536
G0 F1500 X179.053 Y35.369
G1 F900 X184.629 Y40.945 E57.0365
G0 F1500 X184.34 Y41.222
G1 F900 X178.776 Y35.657 E57.16736
G0 F1500 X178.498 Y35.945
G1 F900 X184.052 Y41.5 E57.298
G0 F1500 X183.764 Y41.777
G1 F900 X178.22 Y36.233 E57.42838
G0 F1500 X177.943 Y36.522
G1 F900 X183.476 Y42.055 E57.55851
G0 F1500 X183.188 Y42.333
G1 F900 X177.665 Y36.809 E57.68842
G0 F1500 X177.387 Y37.097
G1 F900 X182.9 Y42.61 E57.81807
G0 F1500 X182.612 Y42.888
G1 F900 X177.11 Y37.386 E57.94747
G0 F1500 X176.832 Y37.673
G1 F900 X182.324 Y43.166 E58.07665
G0 F1500 X182.036 Y43.443
G1 F900 X176.555 Y37.962 E58.20555
G0 F1500 X176.277 Y38.25
G1 F900 X181.748 Y43.721 E58.33422
G0 F1500 X181.46 Y43.999
G1 F900 X175.999 Y38.538 E58.46266
G0 F1500 X175.722 Y38.826
G1 F900 X181.172 Y44.276 E58.59083
G0 F1500 X180.884 Y44.554
G1 F900 X175.444 Y39.114 E58.71877
G0 F1500 X175.166 Y39.402
G1 F900 X180.596 Y44.831 E58.84647
G0 F1500 X180.307 Y45.109
G1 F900 X174.889 Y39.69 E58.9739
G0 F1500 X174.611 Y39.978
G1 F900 X180.02 Y45.387 E59.10111
G0 F1500 X179.732 Y45.664
G1 F900 X174.333 Y40.266 E59.22808
G0 F1500 X174.056 Y40.554
G1 F900 X179.443 Y45.942 E59.35478
G0 F1500 X179.156 Y46.22
G1 F900 X173.778 Y40.842 E59.48126
G0 F1500 X173.5 Y41.13
G1 F900 X178.868 Y46.497 E59.6075
G0 F1500 X178.579 Y46.775
G1 F900 X173.223 Y41.418 E59.73348
G0 F1500 X172.945 Y41.706
G1 F900 X178.292 Y47.053 E59.85923
G0 F1500 X178.003 Y47.33
G1 F900 X172.667 Y41.994 E59.98472
G0 F1500 X172.39 Y42.282
G1 F900 X177.715 Y47.608 E60.10997
G0 F1500 X177.427 Y47.885
G1 F900 X172.112 Y42.57 E60.23497
G0 F1500 X171.834 Y42.858
G1 F900 X177.139 Y48.163 E60.35974
G0 F1500 X176.851 Y48.441
G1 F900 X171.557 Y43.146 E60.48426
G0 F1500 X171.279 Y43.434
G1 F900 X176.563 Y48.718 E60.60853
G0 F1500 X176.275 Y48.996
G1 F900 X171.002 Y43.723 E60.73254
G0 F1500 X170.724 Y44.011
G1 F900 X175.987 Y49.274 E60.85632
G0 F1500 X175.699 Y49.551
G1 F900 X170.446 Y44.298 E60.97986
