;FLAVOR:Marlin
;TIME:10886
;Filament used: 7.02936m
;Layer height: 0.2
;MINX:48.018
;MINY:48.023
;MINZ:0.2
;MAXX:171.992
;MAXY:171.99
;MAXZ:1.8
;Generated with Cura_SteamEngine master
M82 ;absolute extrusion mode
;Sliced at: Sun 06-11-2022 21:04:52
;Basic settings: Layer height: 0.2 Walls: 0.8 Fill: 100.0
G21 ;metric values
G90 ;absolute positioning
M82 ;set extruder to absolute mode
M107 ;start with the fan off
M117 Start heating ...
M104 S200
M117 Homing X/Y ...
G28 X0 Y0 ;move X/Y to min endstops
M117 Homing Z ...
G28 Z0 ;move Z to min endstops
G1 Z15.0 F100 ;move the platform down 15mm
M117 Heating ...
M109 S200
M117 Start cleaning ...
G92 E0 ;zero the extruded length
G1 F200 E10 ;extrude 10mm of feed stock
G92 E0 ;zero the extruded length again
M117 Intro line ...
G1 Z2.0 F3000 ; Move Z Axis up little to prevent scratching of Heat Bed
G1 X0.1 Y20 Z0.2 F5000.0 ; Move to start position
G1 X0.1 Y200.0 Z0.2 F1500.0 E15 ; Draw the first line
G1 X0.4 Y200.0 Z0.2 F5000.0 ; Move to side a little
G1 X0.4 Y20 Z0.3 F1500.0 E30 ; Draw the second line
G92 E0 ; Reset Extruder
G1 E-1 F500 ; Retract filiment by 1 mm
G1 Z2.0 F3000 ; Move Z Axis up little to prevent scratching of Heat Bed
G1 X5 Y20 Z0.3 F100 ; Move over to prevent blob squish
G1 F100
G92 E0 ; Reset Extruder
M117 Printing...

G92 E0
G92 E0
G1 F1800 E-7
;LAYER_COUNT:8
;LAYER:0
M107
G1 F300 Z0.4
G0 F3000 X66.153 Y66.191 Z0.4
;TYPE:SKIRT
G1 F300 Z0.2
G1 F1800 E0
G1 F1200 X66.861 Y65.488 E0.03318
G1 X67.205 Y65.161 E0.04897
G1 X68.42 Y64.033 E0.10411
G1 X68.91 Y63.589 E0.12611
G1 X69.632 Y62.966 E0.15782
G1 X70.806 Y61.983 E0.20875
G1 X71.526 Y61.399 E0.23959
G1 X71.898 Y61.11 E0.25525
G1 X73.128 Y60.179 E0.30656
G1 X74.078 Y59.483 E0.34573
G1 X74.188 Y59.406 E0.3502
G1 X75.678 Y58.39 E0.41018
G1 X76.532 Y57.825 E0.44424
G1 X76.969 Y57.551 E0.46139
G1 X78.432 Y56.658 E0.5184
G1 X78.943 Y56.355 E0.53816
G1 X79.773 Y55.889 E0.56982
G1 X81.035 Y55.202 E0.61761
G1 X81.717 Y54.842 E0.64326
G1 X82.49 Y54.458 E0.67197
G1 X83.782 Y53.836 E0.71966
G1 X84.626 Y53.445 E0.7506
G1 X85.214 Y53.189 E0.77193
G1 X86.749 Y52.544 E0.82731
G1 X87.212 Y52.356 E0.84393
G1 X88.223 Y51.971 E0.87991
G1 X89.579 Y51.479 E0.92789
G1 X90.195 Y51.264 E0.94959
G1 X91.117 Y50.966 E0.98181
G1 X92.483 Y50.546 E1.02935
G1 X93.108 Y50.361 E1.05102
G1 X94.13 Y50.087 E1.08622
G1 X95.453 Y49.75 E1.13163
G1 X96.135 Y49.585 E1.15496
G1 X97.027 Y49.392 E1.18532
G1 X98.592 Y49.076 E1.23842
G1 X99.077 Y48.985 E1.25483
G1 X100.177 Y48.804 E1.29191
G1 X101.699 Y48.576 E1.3431
G1 X102.031 Y48.53 E1.35425
G1 X103.279 Y48.387 E1.39603
G1 X104.666 Y48.248 E1.44239
G1 X105.271 Y48.196 E1.46259
G1 X106.247 Y48.134 E1.49511
G1 X107.748 Y48.06 E1.5451
G1 X108.453 Y48.034 E1.56856
G1 X109.273 Y48.024 E1.59584
G1 X110.716 Y48.023 E1.64383
G1 X111.584 Y48.034 E1.6727
G1 X112.297 Y48.061 E1.69643
G1 X113.811 Y48.136 E1.74685
G1 X114.822 Y48.202 E1.78055
G1 X115.38 Y48.252 E1.79918
G1 X116.781 Y48.392 E1.84601
G1 X117.968 Y48.529 E1.88575
G1 X118.338 Y48.58 E1.89818
G1 X119.879 Y48.812 E1.95001
G1 X120.921 Y48.984 E1.98513
G1 X121.453 Y49.084 E2.00314
G1 X123.017 Y49.401 E2.05622
G1 X123.865 Y49.583 E2.08506
G1 X124.593 Y49.76 E2.10998
G1 X125.922 Y50.1 E2.15561
G1 X126.99 Y50.389 E2.19241
G1 X127.553 Y50.556 E2.21194
G1 X128.936 Y50.982 E2.26007
G1 X129.804 Y51.263 E2.29042
G1 X130.461 Y51.493 E2.31357
G1 X131.832 Y51.991 E2.36208
G1 X132.784 Y52.353 E2.39596
G1 X133.292 Y52.56 E2.4142
G1 X134.835 Y53.209 E2.46988
G1 X135.457 Y53.482 E2.49247
G1 X136.268 Y53.86 E2.52223
G1 X137.556 Y54.48 E2.56977
G1 X138.37 Y54.887 E2.60004
G1 X139.003 Y55.223 E2.62388
G1 X140.273 Y55.914 E2.67197
G1 X141.142 Y56.404 E2.70515
G1 X141.607 Y56.681 E2.72315
G1 X143.06 Y57.569 E2.77979
G1 X143.545 Y57.875 E2.79886
G1 X144.362 Y58.417 E2.83147
G1 X145.725 Y59.345 E2.88632
G1 X145.922 Y59.484 E2.89433
G1 X146.91 Y60.209 E2.93509
G1 X148.072 Y61.089 E2.98357
G1 X148.821 Y61.673 E3.01516
G1 X149.071 Y61.879 E3.02594
G1 X150.389 Y62.985 E3.08316
G1 X151.177 Y63.666 E3.1178
G1 X151.609 Y64.06 E3.13725
G1 X152.768 Y65.138 E3.1899
G1 X153.443 Y65.784 E3.22097
G1 X153.775 Y66.118 E3.23663
G1 X154.893 Y67.265 E3.28991
G1 X155.621 Y68.035 E3.32515
G1 X155.828 Y68.265 E3.33544
G1 X156.802 Y69.368 E3.38439
G1 X157.894 Y70.654 E3.4405
G1 X157.972 Y70.749 E3.44459
G1 X158.855 Y71.856 E3.49169
G1 X159.601 Y72.822 E3.53228
G1 X159.834 Y73.138 E3.54534
G1 X160.816 Y74.506 E3.60135
G1 X161.187 Y75.036 E3.62286
G1 X161.688 Y75.789 E3.65295
G1 X162.461 Y76.987 E3.70037
G1 X162.977 Y77.812 E3.73273
G1 X163.275 Y78.315 E3.75218
G1 X164.13 Y79.796 E3.80905
G1 X164.313 Y80.123 E3.82152
G1 X164.907 Y81.24 E3.8636
G1 X165.581 Y82.557 E3.9128
G1 X165.745 Y82.888 E3.92509
G1 X166.243 Y83.949 E3.96407
G1 X166.898 Y85.4 E4.01702
G1 X167.009 Y85.656 E4.0263
G1 X167.46 Y86.754 E4.06578
G1 X168.042 Y88.237 E4.11877
G1 X168.087 Y88.358 E4.12306
G1 X168.596 Y89.791 E4.17364
G1 X169.04 Y91.121 E4.22028
G1 X169.539 Y92.77 E4.27758
G1 X169.885 Y94.009 E4.32037
G1 X170.151 Y95.011 E4.35485
G1 X170.217 Y95.292 E4.36445
G1 X170.61 Y97.021 E4.42342
G1 X170.81 Y97.963 E4.45545
G1 X170.895 Y98.416 E4.47078
G1 X171.177 Y100.026 E4.52514
G1 X171.326 Y100.948 E4.55621
G1 X171.384 Y101.368 E4.57031
G1 X171.599 Y103.087 E4.62793
G1 X171.708 Y104.088 E4.66142
G1 X171.742 Y104.482 E4.67457
G1 X171.871 Y106.212 E4.73227
G1 X171.921 Y107.043 E4.75996
G1 X171.94 Y107.546 E4.7767
G1 X171.983 Y109.283 E4.83449
G1 X171.992 Y110.231 E4.86603
G1 X171.986 Y110.622 E4.87903
G1 X171.942 Y112.382 E4.93759
G1 X171.909 Y113.223 E4.96558
G1 X171.88 Y113.683 E4.98091
G1 X171.75 Y115.421 E5.03888
G1 X171.663 Y116.393 E5.07134
G1 X171.61 Y116.846 E5.08651
G1 X171.407 Y118.461 E5.14065
G1 X171.262 Y119.491 E5.17524
G1 X171.201 Y119.856 E5.18755
G1 X170.895 Y121.598 E5.24638
G1 X170.729 Y122.458 E5.27551
G1 X170.631 Y122.919 E5.29118
G1 X170.243 Y124.607 E5.34879
G1 X170.046 Y125.417 E5.37652
G1 X169.915 Y125.905 E5.39332
G1 X169.444 Y127.58 E5.45119
G1 X169.213 Y128.363 E5.47835
G1 X169.043 Y128.89 E5.49676
G1 X168.497 Y130.512 E5.55369
G1 X168.174 Y131.426 E5.58593
G1 X168.042 Y131.774 E5.59831
G1 X167.4 Y133.408 E5.6567
G1 X167.052 Y134.256 E5.68719
G1 X166.859 Y134.698 E5.70323
G1 X166.161 Y136.243 E5.75961
G1 X165.815 Y136.982 E5.78675
G1 X165.542 Y137.531 E5.80715
G1 X164.818 Y138.942 E5.85989
G1 X164.323 Y139.873 E5.89496
G1 X164.136 Y140.204 E5.90761
G1 X163.317 Y141.622 E5.96207
G1 X162.771 Y142.536 E5.99748
G1 X162.552 Y142.883 E6.01113
G1 X161.646 Y144.286 E6.06668
G1 X161.092 Y145.116 E6.09987
G1 X160.858 Y145.447 E6.11335
G1 X159.9 Y146.78 E6.16795
G1 X159.263 Y147.638 E6.20349
G1 X159.029 Y147.938 E6.21615
G1 X157.993 Y149.238 E6.27144
G1 X157.338 Y150.034 E6.30572
G1 X157.113 Y150.295 E6.31718
G1 X155.939 Y151.623 E6.37614
G1 X155.275 Y152.353 E6.40896
G1 X155.045 Y152.592 E6.41999
G1 X153.806 Y153.864 E6.47905
G1 X153.215 Y154.454 E6.50683
G1 X152.839 Y154.81 E6.52405
G1 X151.562 Y155.996 E6.58201
G1 X150.853 Y156.633 E6.61372
G1 X150.601 Y156.85 E6.62478
G1 X149.206 Y158.02 E6.68533
G1 X148.487 Y158.605 E6.71616
G1 X148.189 Y158.836 E6.7287
G1 X146.788 Y159.897 E6.78715
G1 X146.014 Y160.464 E6.81907
G1 X145.676 Y160.699 E6.83276
G1 X144.495 Y161.503 E6.88028
G1 X142.989 Y162.485 E6.94007
G1 X141.629 Y163.317 E6.9931
G1 X140.897 Y163.75 E7.02139
G1 X140.454 Y163.999 E7.03829
G1 X138.939 Y164.823 E7.09565
G1 X138.079 Y165.274 E7.12795
G1 X137.757 Y165.433 E7.13989
G1 X136.145 Y166.21 E7.19941
G1 X135.331 Y166.587 E7.22925
G1 X134.904 Y166.772 E7.24473
G1 X133.371 Y167.418 E7.30006
G1 X132.533 Y167.758 E7.33014
G1 X132.075 Y167.93 E7.34641
G1 X130.468 Y168.515 E7.40329
G1 X129.554 Y168.832 E7.43546
G1 X129.105 Y168.976 E7.45115
G1 X127.553 Y169.455 E7.50517
G1 X126.689 Y169.709 E7.53512
G1 X126.154 Y169.852 E7.55354
G1 X124.533 Y170.265 E7.60918
G1 X123.611 Y170.485 E7.6407
G1 X123.118 Y170.59 E7.65747
G1 X121.517 Y170.913 E7.71179
G1 X120.554 Y171.093 E7.74438
G1 X120.145 Y171.158 E7.75815
G1 X118.513 Y171.404 E7.81304
G1 X117.48 Y171.544 E7.84772
G1 X117.102 Y171.586 E7.86037
G1 X115.348 Y171.761 E7.91899
G1 X114.459 Y171.836 E7.94867
G1 X113.96 Y171.867 E7.9653
G1 X112.363 Y171.947 E8.01848
G1 X111.296 Y171.985 E8.05399
G1 X110.945 Y171.988 E8.06566
G1 X109.221 Y171.99 E8.12301
G1 X108.253 Y171.975 E8.1552
G1 X107.834 Y171.958 E8.16915
G1 X106.118 Y171.873 E8.2263
G1 X105.164 Y171.81 E8.2581
G1 X104.75 Y171.773 E8.27192
G1 X103.039 Y171.601 E8.32912
G1 X102.114 Y171.495 E8.36008
G1 X101.635 Y171.428 E8.37617
G1 X100.001 Y171.181 E8.43113
G1 X99.031 Y171.02 E8.46384
G1 X98.607 Y170.939 E8.47819
G1 X96.984 Y170.611 E8.53327
G1 X96.087 Y170.417 E8.56379
G1 X95.61 Y170.302 E8.58011
G1 X93.939 Y169.878 E8.63745
G1 X93.129 Y169.66 E8.66535
G1 X92.601 Y169.504 E8.68366
G1 X91.003 Y169.011 E8.73928
G1 X90.062 Y168.705 E8.77219
G1 X89.62 Y168.549 E8.78778
G1 X88.128 Y168.005 E8.8406
G1 X87.142 Y167.63 E8.87569
G1 X86.781 Y167.483 E8.88865
G1 X85.186 Y166.811 E8.94622
G1 X84.426 Y166.478 E8.97382
G1 X83.94 Y166.251 E8.99166
G1 X82.407 Y165.514 E9.04823
G1 X81.612 Y165.117 E9.07779
G1 X81.193 Y164.895 E9.09356
G1 X79.675 Y164.069 E9.15104
G1 X78.839 Y163.597 E9.18297
G1 X78.458 Y163.37 E9.19772
G1 X77.042 Y162.505 E9.25291
G1 X76.193 Y161.969 E9.2863
G1 X75.833 Y161.729 E9.30069
G1 X74.464 Y160.796 E9.3558
G1 X73.732 Y160.283 E9.38553
G1 X73.281 Y159.95 E9.40417
G1 X71.962 Y158.95 E9.45922
G1 X71.191 Y158.348 E9.49176
G1 X70.87 Y158.084 E9.50558
G1 X69.585 Y157.006 E9.56137
G1 X68.809 Y156.335 E9.59549
G1 X68.535 Y156.084 E9.60785
G1 X67.494 Y155.12 E9.65504
G1 X66.189 Y153.859 E9.7154
G1 X66.104 Y153.774 E9.71939
G1 X65.107 Y152.75 E9.76693
G1 X64.395 Y151.998 E9.80137
G1 X64.167 Y151.745 E9.8127
G1 X63.194 Y150.641 E9.86165
G1 X61.991 Y149.219 E9.9236
G1 X61.05 Y148.038 E9.97382
G1 X60.51 Y147.34 E10.00317
G1 X60.233 Y146.965 E10.01868
G1 X59.23 Y145.57 E10.07582
G1 X58.67 Y144.766 E10.10841
G1 X58.435 Y144.411 E10.12257
G1 X57.676 Y143.235 E10.16913
G1 X56.743 Y141.725 E10.22816
G1 X56.122 Y140.652 E10.2694
G1 X55.209 Y138.995 E10.33232
G1 X55.152 Y138.888 E10.33635
G1 X54.652 Y137.91 E10.37289
G1 X53.786 Y136.128 E10.43878
G1 X53.184 Y134.791 E10.48755
G1 X52.831 Y133.98 E10.51697
G1 X52.651 Y133.537 E10.53287
G1 X52.029 Y131.953 E10.58948
G1 X51.684 Y131.035 E10.62209
G1 X51.529 Y130.588 E10.63783
G1 X51.002 Y129.021 E10.69282
G1 X50.738 Y128.198 E10.72156
G1 X50.573 Y127.64 E10.74092
G1 X50.136 Y126.084 E10.79467
G1 X49.898 Y125.192 E10.82538
G1 X49.776 Y124.686 E10.84269
G1 X49.393 Y123.014 E10.89974
G1 X49.192 Y122.074 E10.93171
G1 X49.165 Y121.932 E10.93652
G1 X48.876 Y120.287 E10.99207
G1 X48.591 Y118.446 E11.05403
G1 X48.44 Y117.229 E11.09482
G1 X48.241 Y115.308 E11.15905
G1 X48.133 Y113.861 E11.20732
G1 X48.081 Y113.004 E11.23587
G1 X48.06 Y112.444 E11.25451
G1 X48.027 Y111.082 E11.29982
G1 X48.018 Y109.273 E11.35999
G1 X48.019 Y109.155 E11.36392
G1 X48.055 Y107.713 E11.41189
G1 X48.095 Y106.72 E11.44495
G1 X48.124 Y106.262 E11.46021
G1 X48.246 Y104.642 E11.51425
G1 X48.337 Y103.621 E11.54834
G1 X48.383 Y103.216 E11.5619
G1 X48.589 Y101.576 E11.61687
G1 X48.735 Y100.534 E11.65187
G1 X48.795 Y100.176 E11.66394
G1 X49.088 Y98.51 E11.7202
G1 X49.26 Y97.606 E11.75081
G1 X49.363 Y97.126 E11.76714
G1 X49.747 Y95.446 E11.82445
G1 X49.952 Y94.596 E11.85354
G1 X49.99 Y94.454 E11.85842
G1 X50.553 Y92.446 E11.92779
G1 X50.819 Y91.552 E11.95881
G1 X50.95 Y91.148 E11.97294
G1 X51.492 Y89.532 E12.02963
G1 X51.776 Y88.724 E12.05811
G1 X51.995 Y88.146 E12.07867
G1 X52.566 Y86.688 E12.13075
G1 X52.929 Y85.798 E12.16272
G1 X53.103 Y85.399 E12.1772
G1 X53.837 Y83.772 E12.23656
G1 X54.225 Y82.946 E12.26692
G1 X54.422 Y82.552 E12.28157
G1 X55.188 Y81.059 E12.33738
G1 X55.65 Y80.19 E12.37011
G1 X55.9 Y79.747 E12.38703
G1 X56.716 Y78.333 E12.44133
G1 X57.2 Y77.523 E12.47271
G1 X57.425 Y77.166 E12.48675
G1 X58.342 Y75.746 E12.54297
G1 X58.846 Y74.988 E12.57325
G1 X59.131 Y74.581 E12.58977
G1 X60.138 Y73.178 E12.64721
G1 X60.639 Y72.502 E12.6752
G1 X60.968 Y72.08 E12.69299
G1 X62.033 Y70.744 E12.74982
G1 X62.631 Y70.018 E12.7811
G1 X62.942 Y69.657 E12.79695
G1 X64.04 Y68.414 E12.85211
G1 X64.693 Y67.696 E12.88439
G1 X64.993 Y67.381 E12.89886
G1 X66.153 Y66.191 E12.95414
G0 F3000 X66.435 Y66.474
G1 F1200 X67.136 Y65.778 E12.98699
G1 X67.478 Y65.454 E13.00266
G1 X68.689 Y64.328 E13.05766
G1 X69.171 Y63.891 E13.0793
G1 X69.889 Y63.273 E13.11081
G1 X71.059 Y62.293 E13.16157
G1 X71.771 Y61.715 E13.19207
G1 X72.139 Y61.429 E13.20757
G1 X73.364 Y60.502 E13.25867
G1 X74.314 Y59.806 E13.29784
G1 X74.413 Y59.736 E13.30187
G1 X75.899 Y58.723 E13.36169
G1 X76.745 Y58.164 E13.39541
G1 X77.177 Y57.892 E13.41239
G1 X78.637 Y57.002 E13.46926
G1 X79.139 Y56.704 E13.48868
G1 X79.964 Y56.24 E13.52016
G1 X81.222 Y55.555 E13.5678
G1 X81.895 Y55.2 E13.59311
G1 X82.663 Y54.818 E13.62164
G1 X83.95 Y54.199 E13.66914
G1 X84.786 Y53.812 E13.69978
G1 X85.369 Y53.558 E13.72093
G1 X86.9 Y52.914 E13.77617
G1 X87.355 Y52.73 E13.7925
G1 X88.36 Y52.347 E13.82827
G1 X89.711 Y51.857 E13.87607
G1 X90.318 Y51.645 E13.89745
G1 X91.235 Y51.349 E13.9295
G1 X92.597 Y50.929 E13.97691
G1 X93.122 Y50.773 E13.99512
G1 X94.229 Y50.474 E14.03326
G1 X95.547 Y50.139 E14.07849
G1 X96.318 Y49.954 E14.10486
G1 X97.106 Y49.784 E14.13167
G1 X98.667 Y49.469 E14.18464
G1 X99.142 Y49.38 E14.20071
G1 X100.236 Y49.2 E14.23759
G1 X101.754 Y48.972 E14.28864
G1 X102.077 Y48.928 E14.29949
G1 X103.319 Y48.785 E14.34107
G1 X104.702 Y48.647 E14.3873
G1 X105.297 Y48.595 E14.40716
G1 X106.267 Y48.533 E14.43949
G1 X107.763 Y48.46 E14.48931
G1 X108.458 Y48.434 E14.51244
G1 X109.273 Y48.424 E14.53955
G1 X110.711 Y48.423 E14.58737
G1 X111.579 Y48.434 E14.61625
G1 X112.277 Y48.46 E14.63948
G1 X113.785 Y48.535 E14.6897
G1 X114.787 Y48.601 E14.7231
G1 X115.34 Y48.65 E14.74156
G1 X116.735 Y48.79 E14.78819
G1 X118.01 Y48.938 E14.83088
G1 X118.279 Y48.976 E14.83992
G1 X119.814 Y49.207 E14.89155
G1 X120.939 Y49.394 E14.92948
G1 X121.374 Y49.476 E14.9442
G1 X122.933 Y49.792 E14.99711
G1 X123.771 Y49.972 E15.02562
G1 X124.494 Y50.148 E15.05037
G1 X125.818 Y50.486 E15.09581
G1 X126.876 Y50.772 E15.13227
G1 X127.436 Y50.938 E15.15169
G1 X128.813 Y51.363 E15.19962
G1 X129.765 Y51.672 E15.23291
G1 X130.324 Y51.869 E15.25263
G1 X131.69 Y52.365 E15.30096
G1 X132.725 Y52.76 E15.33781
G1 X133.137 Y52.929 E15.35262
G1 X134.675 Y53.576 E15.40812
G1 X135.289 Y53.845 E15.43041
G1 X136.095 Y54.22 E15.45998
G1 X137.378 Y54.838 E15.50734
G1 X138.183 Y55.24 E15.53727
G1 X138.812 Y55.574 E15.56096
G1 X140.077 Y56.263 E15.60887
G1 X140.937 Y56.748 E15.64171
G1 X141.399 Y57.022 E15.65957
G1 X142.847 Y57.908 E15.71603
G1 X143.324 Y58.208 E15.73478
G1 X144.137 Y58.748 E15.76724
G1 X145.495 Y59.672 E15.82187
G1 X145.685 Y59.806 E15.8296
G1 X146.669 Y60.528 E15.8702
G1 X147.827 Y61.404 E15.91849
G1 X148.497 Y61.926 E15.94674
G1 X148.814 Y62.185 E15.96035
G1 X150.128 Y63.288 E16.01741
G1 X150.908 Y63.962 E16.0517
G1 X151.337 Y64.353 E16.07101
G1 X152.492 Y65.427 E16.12346
G1 X153.16 Y66.067 E16.15423
G1 X153.489 Y66.397 E16.16973
G1 X154.603 Y67.54 E16.22282
G1 X155.324 Y68.303 E16.25773
G1 X155.528 Y68.53 E16.26788
G1 X156.497 Y69.627 E16.31657
G1 X157.589 Y70.913 E16.37268
G1 X157.659 Y70.998 E16.37634
G1 X158.538 Y72.101 E16.42325
G1 X159.34 Y73.141 E16.46693
G1 X159.509 Y73.372 E16.47645
G1 X160.489 Y74.736 E16.53231
G1 X160.802 Y75.181 E16.55041
G1 X161.352 Y76.006 E16.58339
G1 X162.123 Y77.2 E16.63066
G1 X162.586 Y77.938 E16.65964
G1 X162.929 Y78.515 E16.68196
G1 X163.782 Y79.992 E16.73869
G1 X163.96 Y80.311 E16.75084
G1 X164.551 Y81.422 E16.7927
G1 X165.208 Y82.706 E16.84067
G1 X165.383 Y83.058 E16.85374
G1 X165.878 Y84.113 E16.8925
G1 X166.531 Y85.561 E16.94533
G1 X166.639 Y85.808 E16.9543
G1 X167.087 Y86.9 E16.99356
G1 X167.669 Y88.383 E17.04655
G1 X167.71 Y88.492 E17.05042
G1 X168.217 Y89.919 E17.10079
G1 X168.657 Y91.237 E17.147
G1 X169.177 Y92.96 E17.20686
G1 X169.499 Y94.112 E17.24665
G1 X169.738 Y95.01 E17.27756
G1 X169.827 Y95.381 E17.29024
G1 X170.219 Y97.104 E17.34902
