;FLAVOR:Marlin
;TIME:2153
;Filament used: 0.719423m
;Layer height: 0.1
;MINX:18.871
;MINY:15.698
;MINZ:0.2
;MAXX:204.302
;MAXY:201.133
;MAXZ:2
;Generated with Cura_SteamEngine master
M82 ;absolute extrusion mode
;Sliced at: Sun 06-11-2022 20:59:19
;Basic settings: Layer height: 0.1 Walls: 0.8 Fill: 30.0
G21 ;metric values
G90 ;absolute positioning
M82 ;set extruder to absolute mode
M107 ;start with the fan off
M117 Start heating ...
M104 S200
M117 Homing X/Y ...
G28 X0 Y0 ;move X/Y to min endstops
M117 Homing Z ...
G28 Z0 ;move Z to min endstops
G1 Z15.0 F100 ;move the platform down 15mm
M117 Heating ...
M109 S200
M117 Start cleaning ...
G92 E0 ;zero the extruded length
G1 F200 E10 ;extrude 10mm of feed stock
G92 E0 ;zero the extruded length again
M117 Intro line ...
G1 Z2.0 F3000 ; Move Z Axis up little to prevent scratching of Heat Bed
G1 X0.1 Y20 Z0.1 F5000.0 ; Move to start position
G1 X0.1 Y200.0 Z0.1 F1500.0 E15 ; Draw the first line
G1 X0.4 Y200.0 Z0.1 F5000.0 ; Move to side a little
G1 X0.4 Y20 Z0.3 F1500.0 E30 ; Draw the second line
G92 E0 ; Reset Extruder
G1 E-1 F500 ; Retract filiment by 1 mm
G1 Z2.0 F3000 ; Move Z Axis up little to prevent scratching of Heat Bed
G1 X5 Y20 Z0.3 F100 ; Move over to prevent blob squish
G1 F100
G92 E0 ; Reset Extruder
M117 Printing...

G92 E0
G92 E0
G1 F1800 E-7
;LAYER_COUNT:19
;LAYER:0
M107
G1 F300 Z0.4
G0 F3000 X189.226 Y17.37 Z0.4
;TYPE:SKIRT
G1 F300 Z0.2
G1 F1800 E0
G1 F1200 X189.722 Y16.871 E0.0234
G1 X190.148 Y16.499 E0.04221
G1 X190.622 Y16.191 E0.06101
G1 X191.135 Y15.953 E0.07982
G1 X191.676 Y15.79 E0.09861
G1 X192.235 Y15.704 E0.11743
G1 X192.8 Y15.698 E0.13622
G1 X193.361 Y15.772 E0.15504
G1 X193.905 Y15.924 E0.17383
G1 X194.423 Y16.152 E0.19265
G1 X194.903 Y16.45 E0.21144
G1 X195.338 Y16.814 E0.23031
G1 X195.899 Y17.356 E0.25625
G1 X202.712 Y24.169 E0.57671
G1 X203.177 Y24.647 E0.59889
G1 X203.542 Y25.079 E0.6177
G1 X203.842 Y25.558 E0.6365
G1 X204.071 Y26.075 E0.65531
G1 X204.226 Y26.619 E0.67412
G1 X204.302 Y27.179 E0.69292
G1 X204.298 Y27.744 E0.71171
G1 X204.215 Y28.303 E0.73051
G1 X204.054 Y28.845 E0.74931
G1 X203.818 Y29.359 E0.76813
G1 X203.511 Y29.834 E0.78694
G1 X203.131 Y30.272 E0.80622
G1 X202.491 Y30.908 E0.83623
G1 X27.522 Y199.565 E8.91915
G1 X26.998 Y200.056 E8.94304
G1 X26.559 Y200.412 E8.96184
G1 X26.075 Y200.703 E8.98062
G1 X25.554 Y200.923 E8.99943
G1 X25.007 Y201.067 E9.01824
G1 X24.446 Y201.133 E9.03703
G1 X23.88 Y201.119 E9.05586
G1 X23.323 Y201.025 E9.07465
G1 X22.784 Y200.854 E9.09346
G1 X22.275 Y200.608 E9.11226
G1 X21.805 Y200.293 E9.13108
G1 X21.399 Y199.935 E9.14908
G1 X21.002 Y199.546 E9.16757
G1 X20.456 Y199.001 E9.19323
G1 X19.997 Y198.53 E9.2151
G1 X19.632 Y198.098 E9.23391
G1 X19.332 Y197.619 E9.25271
G1 X19.102 Y197.103 E9.2715
G1 X18.947 Y196.559 E9.29031
G1 X18.871 Y195.999 E9.30911
G1 X18.874 Y195.433 E9.32793
G1 X18.956 Y194.874 E9.34673
G1 X19.117 Y194.332 E9.36553
G1 X19.353 Y193.818 E9.38434
G1 X19.832 Y193.126 E9.41233
G1 X19.971 Y192.971 E9.41926
G1 X20.439 Y192.473 E9.44199
G1 X189.226 Y17.37 E17.53112
G0 F3000 X189.51 Y17.652
G1 F1200 X190.006 Y17.153 E17.55452
G1 X190.411 Y16.802 E17.57235
G1 X190.864 Y16.515 E17.59018
G1 X191.355 Y16.298 E17.60804
G1 X191.872 Y16.157 E17.62586
G1 X192.405 Y16.094 E17.64371
G1 X192.941 Y16.111 E17.66155
G1 X193.468 Y16.208 E17.67937
G1 X193.976 Y16.381 E17.69722
G1 X194.452 Y16.629 E17.71507
G1 X195.06 Y17.102 E17.74069
G1 X195.666 Y17.687 E17.76871
G1 X202.425 Y24.448 E18.08668
G1 X202.89 Y24.926 E18.10886
G1 X203.235 Y25.337 E18.1267
G1 X203.514 Y25.795 E18.14454
G1 X203.722 Y26.289 E18.16237
G1 X203.855 Y26.809 E18.18022
G1 X203.909 Y27.342 E18.19804
G1 X203.883 Y27.878 E18.21589
G1 X203.778 Y28.404 E18.23373
G1 X203.595 Y28.908 E18.25156
G1 X203.34 Y29.38 E18.2694
G1 X202.849 Y29.988 E18.2954
G1 X202.213 Y30.62 E18.32522
G1 X27.249 Y199.273 E26.40793
G1 X26.725 Y199.764 E26.43181
G1 X26.307 Y200.1 E26.44965
G1 X25.844 Y200.371 E26.46749
G1 X25.346 Y200.57 E26.48533
G1 X24.824 Y200.693 E26.50317
G1 X24.29 Y200.737 E26.52099
G1 X23.754 Y200.701 E26.53885
G1 X23.231 Y200.586 E26.55666
G1 X22.73 Y200.394 E26.57451
G1 X22.263 Y200.13 E26.59235
G1 X21.812 Y199.774 E26.61146
G1 X21.679 Y199.648 E26.61756
G1 X21.284 Y199.264 E26.63588
G1 X20.743 Y198.722 E26.66135
G1 X20.284 Y198.251 E26.68322
G1 X19.939 Y197.84 E26.70107
G1 X19.659 Y197.382 E26.71893
G1 X19.451 Y196.888 E26.73675
G1 X19.318 Y196.369 E26.75457
G1 X19.263 Y195.835 E26.77243
G1 X19.289 Y195.299 E26.79028
G1 X19.394 Y194.773 E26.80812
G1 X19.575 Y194.269 E26.82593
G1 X19.83 Y193.797 E26.84377
G1 X20.135 Y193.387 E26.86077
G1 X20.263 Y193.245 E26.86713
G1 X20.727 Y192.751 E26.88967
G1 X189.51 Y17.652 E34.97861
G0 F3000 X189.793 Y17.934
G1 F1200 X190.289 Y17.435 E35.00201
G1 X190.673 Y17.106 E35.01883
G1 X191.104 Y16.841 E35.03566
G1 X191.571 Y16.647 E35.05248
G1 X192.062 Y16.53 E35.06926
G1 X192.567 Y16.491 E35.08611
G1 X193.07 Y16.532 E35.1029
G1 X193.562 Y16.652 E35.11974
G1 X194.028 Y16.848 E35.13655
G1 X194.457 Y17.115 E35.15336
G1 X194.782 Y17.39 E35.16752
G1 X195.383 Y17.97 E35.1953
G1 X202.139 Y24.727 E35.5131
G1 X202.604 Y25.205 E35.53528
G1 X202.927 Y25.594 E35.5521
G1 X203.184 Y26.029 E35.56891
G1 X203.37 Y26.499 E35.58572
G1 X203.479 Y26.993 E35.60254
G1 X203.509 Y27.497 E35.61934
G1 X203.46 Y28 E35.63615
G1 X203.332 Y28.489 E35.65296
G1 X203.128 Y28.952 E35.66979
G1 X202.854 Y29.377 E35.6866
G1 X202.567 Y29.704 E35.70107
G1 X201.936 Y30.332 E35.73068
G1 X26.975 Y198.981 E43.81323
G1 X26.451 Y199.472 E43.83711
G1 X26.056 Y199.788 E43.85394
G1 X25.616 Y200.037 E43.87075
G1 X25.143 Y200.214 E43.88755
G1 X24.647 Y200.314 E43.90438
G1 X24.142 Y200.335 E43.92119
G1 X23.64 Y200.276 E43.938
G1 X23.153 Y200.138 E43.95484
G1 X22.694 Y199.926 E43.97165
G1 X22.084 Y199.481 E43.99677
G1 X21.958 Y199.362 E44.00253
G1 X21.567 Y198.981 E44.02069
G1 X21.029 Y198.442 E44.04602
G1 X20.57 Y197.971 E44.06789
G1 X20.247 Y197.583 E44.08468
G1 X19.989 Y197.148 E44.1015
G1 X19.803 Y196.678 E44.11832
G1 X19.693 Y196.184 E44.13515
G1 X19.663 Y195.68 E44.15194
G1 X19.712 Y195.176 E44.16878
G1 X19.839 Y194.687 E44.18559
G1 X20.043 Y194.224 E44.20242
G1 X20.438 Y193.649 E44.22562
G1 X20.554 Y193.518 E44.23144
G1 X21.015 Y193.028 E44.25381
G1 X189.793 Y17.934 E52.34252
G1 F1800 E45.34252
G1 F300 Z0.4
;MESH:clock-minutehand.stl
G0 F3000 X192.125 Y29.158 Z0.4
;TYPE:WALL-INNER
G1 F300 Z0.2
G1 F1800 E52.34252
G1 F1200 X192.665 Y29.288 E52.36099
G1 X193.304 Y29.265 E52.38226
G1 X193.828 Y29.098 E52.40055
G1 X194.298 Y28.803 E52.41901
G1 X194.675 Y28.406 E52.43722
G1 X194.943 Y27.928 E52.45545
G1 X195.085 Y27.397 E52.47373
G1 X195.093 Y26.851 E52.49189
G1 X194.966 Y26.327 E52.50982
G1 X194.708 Y25.834 E52.52833
G1 X194.339 Y25.427 E52.5466
G1 X193.884 Y25.125 E52.56477
G1 X193.362 Y24.942 E52.58316
G1 X192.828 Y24.895 E52.60099
G1 X192.28 Y24.984 E52.61946
G1 X191.777 Y25.203 E52.6377
G1 X191.345 Y25.54 E52.65593
G1 X191.008 Y25.972 E52.67415
G1 X190.789 Y26.475 E52.6924
G1 X190.701 Y27.017 E52.71066
G1 X190.748 Y27.56 E52.72879
G1 X190.932 Y28.082 E52.7472
G1 X191.232 Y28.534 E52.76524
G1 X191.639 Y28.902 E52.78349
G1 X192.125 Y29.158 E52.80176
G0 F3000 X192.267 Y28.781
;TYPE:WALL-OUTER
G1 F1200 X192.705 Y28.886 E52.81674
G1 X193.235 Y28.867 E52.83438
G1 X193.658 Y28.732 E52.84915
G1 X194.043 Y28.491 E52.86426
G1 X194.351 Y28.167 E52.87912
G1 X194.57 Y27.776 E52.89403
G1 X194.686 Y27.342 E52.90897
G1 X194.692 Y26.896 E52.92381
G1 X194.589 Y26.469 E52.93842
G1 X194.377 Y26.065 E52.95359
G1 X194.076 Y25.733 E52.9685
G1 X193.704 Y25.486 E52.98335
G1 X193.277 Y25.336 E52.9984
G1 X192.843 Y25.298 E53.01289
G1 X192.394 Y25.371 E53.02802
G1 X191.983 Y25.55 E53.04293
G1 X191.63 Y25.825 E53.05781
G1 X191.355 Y26.178 E53.0727
G1 X191.176 Y26.589 E53.08761
G1 X191.104 Y27.032 E53.10253
G1 X191.142 Y27.475 E53.11732
G1 X191.293 Y27.902 E53.13239
G1 X191.538 Y28.271 E53.14712
G1 X191.87 Y28.572 E53.16202
G1 X192.267 Y28.781 E53.17695
G0 F3000 X192.461 Y28.827
G0 X192.358 Y29.255
G1 F1800 E46.17695
G1 F300 Z0.4
G0 F3000 X192.321 Y29.411 Z0.4
G0 X199.47 Y27.431
;TYPE:WALL-INNER
G1 F300 Z0.2
G1 F1800 E53.17695
G1 F1200 X24.27 Y196.31 E61.27052
G1 X23.69 Y195.73 E61.2978
G1 X192.569 Y20.53 E69.39138
G1 X199.47 Y27.431 E69.71598
G0 F3000 X200.041 Y27.436
;TYPE:WALL-OUTER
G1 F1200 X24.265 Y196.871 E77.83618
G1 X23.129 Y195.735 E77.88962
G1 X192.564 Y19.959 E86.00982
G1 X200.041 Y27.436 E86.36152
G0 F3000 X199.898 Y27.574
G0 X199.416 Y27.433
G0 X198.914 Y27.425
;TYPE:SKIN
G1 F1200 X24.274 Y195.764 E94.42922
G1 X24.236 Y195.726 E94.43101
G1 X192.575 Y21.086 E102.49871
G1 X198.914 Y27.425 E102.79687
G1 F1800 E95.79687
G1 F300 Z0.4
G0 F3000 X199.049 Y27.29 Z0.4
G0 X195.475 Y27.451
G1 F300 Z0.2
G1 F1800 E102.79687
G1 F1200 X195.483 Y26.808 E102.81826
G1 X195.334 Y26.189 E102.83944
G1 X195.03 Y25.609 E102.86122
G1 X194.595 Y25.129 E102.88276
G1 X194.059 Y24.774 E102.90415
G1 X193.445 Y24.558 E102.9258
G1 X192.814 Y24.503 E102.94686
G1 X192.169 Y24.607 E102.96859
G1 X191.576 Y24.865 E102.9901
G1 X191.068 Y25.263 E103.01157
G1 X190.67 Y25.771 E103.03303
G1 X190.412 Y26.364 E103.05454
G1 X190.309 Y27.002 E103.07603
G1 X190.364 Y27.643 E103.09743
G1 X190.581 Y28.257 E103.11909
G1 X190.934 Y28.791 E103.14038
G1 X191.414 Y29.224 E103.16188
G1 X191.986 Y29.526 E103.1834
G1 X192.626 Y29.68 E103.20529
G1 X193.372 Y29.653 E103.23012
G1 X193.994 Y29.455 E103.25183
G1 X194.547 Y29.107 E103.27356
G1 X194.991 Y28.64 E103.29499
G1 X195.307 Y28.076 E103.3165
G1 X195.475 Y27.451 E103.33802
G1 F1800 E96.33802
G1 F300 Z0.4
G0 F3000 X195.282 Y27.424 Z0.4
G0 X198.453 Y27.616
G1 F300 Z0.2
G1 F1800 E103.33802
G1 F1200 X192.381 Y21.544 E103.62363
G0 F3000 X192.103 Y21.832
G1 F1200 X198.165 Y27.894 E103.90877
G0 F3000 X197.878 Y28.172
G1 F1200 X194.859 Y25.153 E104.05077
G0 F3000 X194.667 Y24.962
G1 F1200 X191.826 Y22.12 E104.18443
G0 F3000 X191.548 Y22.408
G1 F1200 X193.541 Y24.401 E104.27817
G0 F3000 X192.904 Y24.33
G1 F1200 X191.27 Y22.696 E104.35503
G0 F3000 X190.993 Y22.984
G1 F1200 X192.396 Y24.388 E104.42105
G0 F3000 X191.948 Y24.505
G1 F1200 X190.715 Y23.273 E104.47902
G0 F3000 X190.437 Y23.56
G1 F1200 X191.554 Y24.677 E104.53156
G0 F3000 X191.223 Y24.912
G1 F1200 X190.16 Y23.848 E104.58158
G0 F3000 X189.882 Y24.137
G1 F1200 X190.913 Y25.168 E104.63008
G0 F3000 X190.665 Y25.485
G1 F1200 X189.605 Y24.424 E104.67996
G0 F3000 X189.327 Y24.713
G1 F1200 X190.446 Y25.832 E104.7326
G0 F3000 X190.275 Y26.226
G1 F1200 X189.049 Y25.001 E104.79024
G0 F3000 X188.772 Y25.288
G1 F1200 X190.177 Y26.693 E104.85633
G0 F3000 X190.148 Y27.23
G1 F1200 X188.494 Y25.577 E104.9341
G0 F3000 X188.216 Y25.865
G1 F1200 X190.27 Y27.918 E105.03069
G1 X190.34 Y27.988
G0 F3000 X190.734 Y27.85
G0 X192.197 Y29.289
G0 X192.089 Y29.737
G1 F1200 X194.133 Y31.781 E105.12684
G0 F3000 X194.421 Y31.503
G1 F1200 X192.772 Y29.855 E105.20438
G0 F3000 X193.318 Y29.835
G1 F1200 X194.709 Y31.226 E105.2698
G0 F3000 X194.997 Y30.948
G1 F1200 X193.765 Y29.716 E105.32775
G0 F3000 X194.17 Y29.556
G1 F1200 X195.285 Y30.67 E105.38018
G0 F3000 X195.573 Y30.393
G1 F1200 X194.518 Y29.337 E105.42982
G0 F3000 X194.822 Y29.076
G1 F1200 X195.861 Y30.115 E105.4787
G0 F3000 X196.15 Y29.838
G1 F1200 X195.098 Y28.787 E105.52815
G0 F3000 X195.311 Y28.434
G1 F1200 X196.437 Y29.56 E105.58112
G0 F3000 X196.725 Y29.282
G1 F1200 X195.498 Y28.055 E105.63883
G0 F3000 X195.618 Y27.609
G1 F1200 X197.014 Y29.005 E105.7045
G0 F3000 X197.301 Y28.727
G1 F1200 X195.658 Y27.084 E105.78178
G0 F3000 X195.578 Y26.438
G1 F1200 X197.589 Y28.449 E105.87637
G1 X197.659 Y28.519
G0 F3000 X197.911 Y28.78
G0 X194.165 Y32.391
G0 X193.845 Y32.059
G1 F1200 X187.939 Y26.153 E106.15417
G0 F3000 X187.661 Y26.441
G1 F1200 X193.557 Y32.336 E106.43148
G0 F3000 X193.269 Y32.614
G1 F1200 X187.384 Y26.729 E106.70829
G0 F3000 X187.106 Y27.017
G1 F1200 X192.981 Y32.892 E106.98463
G0 F3000 X192.692 Y33.169
G1 F1200 X186.828 Y27.305 E107.26045
G0 F3000 X186.551 Y27.593
G1 F1200 X192.405 Y33.447 E107.53581
G0 F3000 X192.117 Y33.725
G1 F1200 X186.273 Y27.881 E107.81069
G0 F3000 X185.995 Y28.169
G1 F1200 X191.828 Y34.002 E108.08506
G0 F3000 X191.541 Y34.28
G1 F1200 X185.718 Y28.457 E108.35895
G0 F3000 X185.44 Y28.745
G1 F1200 X191.253 Y34.558 E108.63238
G0 F3000 X190.964 Y34.835
G1 F1200 X185.162 Y29.033 E108.90529
G0 F3000 X184.885 Y29.321
G1 F1200 X190.677 Y35.113 E109.17773
G0 F3000 X190.389 Y35.391
G1 F1200 X184.607 Y29.609 E109.44969
G0 F3000 X184.33 Y29.897
G1 F1200 X190.1 Y35.668 E109.72112
G0 F3000 X189.812 Y35.946
G1 F1200 X184.052 Y30.185 E109.99208
G0 F3000 X183.774 Y30.473
G1 F1200 X189.525 Y36.224 E110.26259
G0 F3000 X189.236 Y36.501
G1 F1200 X183.497 Y30.761 E110.53256
G0 F3000 X183.219 Y31.049
G1 F1200 X188.948 Y36.779 E110.80205
G0 F3000 X188.66 Y37.056
G1 F1200 X182.941 Y31.338 E111.07103
G0 F3000 X182.664 Y31.626
G1 F1200 X188.372 Y37.334 E111.33952
G0 F3000 X188.084 Y37.612
G1 F1200 X182.386 Y31.913 E111.60756
G0 F3000 X182.108 Y32.202
G1 F1200 X187.796 Y37.889 E111.87508
G0 F3000 X187.508 Y38.167
G1 F1200 X181.831 Y32.49 E112.14211
G0 F3000 X181.553 Y32.777
G1 F1200 X187.22 Y38.445 E112.40869
G0 F3000 X186.932 Y38.722
G1 F1200 X181.276 Y33.066 E112.67473
G0 F3000 X180.998 Y33.354
G1 F1200 X186.644 Y39 E112.94031
G0 F3000 X186.356 Y39.278
G1 F1200 X180.72 Y33.642 E113.20541
G0 F3000 X180.443 Y33.93
G1 F1200 X186.068 Y39.555 E113.46999
G0 F3000 X185.78 Y39.833
G1 F1200 X180.165 Y34.218 E113.7341
G0 F3000 X179.887 Y34.506
G1 F1200 X185.492 Y40.111 E113.99774
G0 F3000 X185.203 Y40.388
G1 F1200 X179.61 Y34.794 E114.26084
G0 F3000 X179.332 Y35.082
G1 F1200 X184.916 Y40.666 E114.5235
G0 F3000 X184.628 Y40.944
G1 F1200 X179.054 Y35.37 E114.78568
G0 F3000 X178.777 Y35.658
G1 F1200 X184.339 Y41.221 E115.04732
G0 F3000 X184.052 Y41.499
G1 F1200 X178.499 Y35.946 E115.30852
G0 F3000 X178.221 Y36.234
G1 F1200 X183.764 Y41.777 E115.56925
G0 F3000 X183.475 Y42.054
G1 F1200 X177.944 Y36.522 E115.82943
G0 F3000 X177.666 Y36.81
G1 F1200 X183.188 Y42.332 E116.08917
G0 F3000 X182.9 Y42.61
G1 F1200 X177.388 Y37.098 E116.34844
G0 F3000 X177.111 Y37.386
G1 F1200 X182.611 Y42.887 E116.60716
G0 F3000 X182.323 Y43.165
G1 F1200 X176.833 Y37.674 E116.86542
G0 F3000 X176.556 Y37.963
G1 F1200 X182.035 Y43.442 E117.12314
G0 F3000 X181.747 Y43.72
G1 F1200 X176.278 Y38.25 E117.3804
G0 F3000 X176 Y38.538
G1 F1200 X181.459 Y43.998 E117.6372
G0 F3000 X181.171 Y44.275
G1 F1200 X175.723 Y38.827 E117.89346
G0 F3000 X175.445 Y39.115
G1 F1200 X180.883 Y44.553 E118.14925
G0 F3000 X180.595 Y44.831
G1 F1200 X175.167 Y39.402 E118.40459
G0 F3000 X174.89 Y39.691
G1 F1200 X180.307 Y45.108 E118.65939
G0 F3000 X180.019 Y45.386
G1 F1200 X174.612 Y39.979 E118.91371
G0 F3000 X174.334 Y40.266
G1 F1200 X179.731 Y45.664 E119.1676
G0 F3000 X179.443 Y45.941
G1 F1200 X174.057 Y40.555 E119.42094
G0 F3000 X173.779 Y40.843
G1 F1200 X179.155 Y46.219 E119.67381
G0 F3000 X178.867 Y46.497
G1 F1200 X173.501 Y41.13 E119.92623
G0 F3000 X173.224 Y41.419
G1 F1200 X178.579 Y46.774 E120.17811
G0 F3000 X178.291 Y47.052
G1 F1200 X172.946 Y41.707 E120.42953
G0 F3000 X172.668 Y41.995
G1 F1200 X178.003 Y47.33 E120.68047
G0 F3000 X177.715 Y47.607
G1 F1200 X172.391 Y42.283 E120.93089
G0 F3000 X172.113 Y42.571
G1 F1200 X177.427 Y47.885 E121.18085
G0 F3000 X177.139 Y48.163
G1 F1200 X171.835 Y42.859 E121.43033
G0 F3000 X171.558 Y43.147
G1 F1200 X176.85 Y48.44 E121.67927
G0 F3000 X176.563 Y48.718
G1 F1200 X171.28 Y43.435 E121.92777
G0 F3000 X171.002 Y43.723
G1 F1200 X176.275 Y48.996 E122.1758
G0 F3000 X175.986 Y49.273
G1 F1200 X170.725 Y44.011 E122.42328
G0 F3000 X170.447 Y44.299
G1 F1200 X175.699 Y49.551 E122.67032
G0 F3000 X175.41 Y49.828
G1 F1200 X170.17 Y44.588 E122.91679
G0 F3000 X169.892 Y44.875
G1 F1200 X175.122 Y50.106 E123.16282
G0 F3000 X174.834 Y50.384
G1 F1200 X169.614 Y45.163 E123.40838
G0 F3000 X169.337 Y45.452
G1 F1200 X174.546 Y50.661 E123.65339
G0 F3000 X174.258 Y50.939
G1 F1200 X169.059 Y45.739 E123.89796
G0 F3000 X168.781 Y46.027
G1 F1200 X173.97 Y51.217 E124.14206
G0 F3000 X173.682 Y51.494
