;FLAVOR:Marlin
;TIME:1778
;Filament used: 0.324378m
;Layer height: 0.1
;MINX:97.025
;MINY:74.346
;MINZ:0.1
;MAXX:122.974
;MAXY:145.665
;MAXZ:2.6
;Generated with Cura_SteamEngine master
M82 ;absolute extrusion mode
;Sliced at: Sun 27-11-2022 17:46:29
;Basic settings: Layer height: 0.1 Walls: 0.8 Fill: 100.0
G21 ;metric values
G90 ;absolute positioning
M82 ;set extruder to absolute mode
M107 ;start with the fan off
M117 Start heating ...
M104 S200
M117 Homing X/Y ...
G28 X0 Y0 ;move X/Y to min endstops
M117 Homing Z ...
G28 Z0 ;move Z to min endstops
G1 Z15.0 F50 ;move the platform down 15mm
M117 Heating ...
M109 S200
M117 Start cleaning ...
G92 E0 ;zero the extruded length
G1 F200 E10 ;extrude 10mm of feed stock
G92 E0 ;zero the extruded length again
M117 Intro line ...
G1 Z2.0 F3000 ; Move Z Axis up little to prevent scratching of Heat Bed
G1 X0.1 Y20 Z0.1 F5000.0 ; Move to start position
G1 X0.1 Y200.0 Z0.1 F1500.0 E15 ; Draw the first line
G1 X0.4 Y200.0 Z0.1 F5000.0 ; Move to side a little
G1 X0.4 Y20 Z0.3 F1500.0 E30 ; Draw the second line
G92 E0 ; Reset Extruder
G1 E-1 F500 ; Retract filiment by 1 mm
G1 Z2.0 F3000 ; Move Z Axis up little to prevent scratching of Heat Bed
G1 X5 Y20 Z0.3 F50 ; Move over to prevent blob squish
G1 F50
G92 E0 ; Reset Extruder
M117 Printing...

G92 E0
G92 E0
G1 F1800 E-7
;LAYER_COUNT:24
;LAYER:0
M107
G1 F300 Z0.3
G0 F1500 X100.055 Y79.006 Z0.3
;TYPE:SKIRT
G1 F300 Z0.1
G1 F1800 E0
G1 F900 X100.417 Y78.576 E0.00935
G1 X100.743 Y78.235 E0.01719
G1 X101.449 Y77.579 E0.03322
G1 X101.88 Y77.203 E0.04273
G1 X102.252 Y76.918 E0.05052
G1 X103.01 Y76.405 E0.06575
G1 X103.505 Y76.091 E0.07549
G1 X103.926 Y75.86 E0.08348
G1 X104.777 Y75.458 E0.09913
G1 X105.311 Y75.226 E0.10881
G1 X105.756 Y75.064 E0.11669
G1 X106.651 Y74.798 E0.13222
G1 X107.187 Y74.656 E0.14144
G1 X107.66 Y74.562 E0.14946
G1 X108.597 Y74.435 E0.16518
G1 X108.735 Y74.419 E0.16749
G1 X109.264 Y74.366 E0.17633
G1 X109.674 Y74.346 E0.18316
G1 X110.502 Y74.363 E0.19693
G1 X111.15 Y74.396 E0.20772
G1 X111.626 Y74.45 E0.21569
G1 X112.56 Y74.612 E0.23146
G1 X113.121 Y74.727 E0.24098
G1 X113.576 Y74.851 E0.24882
G1 X114.609 Y75.2 E0.26695
G1 X115.44 Y75.542 E0.2819
G1 X116.249 Y75.96 E0.29704
G1 X116.769 Y76.25 E0.30694
G1 X117.168 Y76.506 E0.31483
G1 X117.941 Y77.07 E0.33074
G1 X118.373 Y77.405 E0.33983
G1 X118.73 Y77.721 E0.34776
G1 X119.421 Y78.41 E0.36399
G1 X119.805 Y78.817 E0.37329
G1 X120.106 Y79.181 E0.38115
G1 X120.661 Y79.937 E0.39674
G1 X120.74 Y80.048 E0.39901
G1 X121.031 Y80.474 E0.40759
G1 X121.31 Y80.943 E0.41666
G1 X121.608 Y81.527 E0.42757
G1 X121.914 Y82.165 E0.43934
G1 X122.094 Y82.607 E0.44727
G1 X122.39 Y83.48 E0.4626
G1 X122.432 Y83.61 E0.46487
G1 X122.589 Y84.131 E0.47392
G1 X122.714 Y84.676 E0.48322
G1 X122.808 Y85.235 E0.49265
G1 X122.918 Y86.01 E0.50567
G1 X122.956 Y86.488 E0.51364
G1 X122.974 Y87.383 E0.52853
G1 X122.969 Y87.967 E0.53824
G1 X122.934 Y88.441 E0.54614
G1 X122.804 Y89.42 E0.56257
G1 X122.707 Y90.018 E0.57264
G1 X122.662 Y90.246 E0.57651
G1 X122.353 Y91.613 E0.59981
G1 X122.344 Y91.677 E0.60089
G1 X122.199 Y92.296 E0.61146
G1 X121.647 Y94.973 E0.65692
G1 X121.182 Y97.622 E0.70164
G1 X120.783 Y100.341 E0.74734
G1 X120.471 Y102.981 E0.79155
G1 X120.227 Y105.698 E0.83692
G1 X120.059 Y108.436 E0.88254
G1 X119.97 Y111.142 E0.92756
G1 X119.958 Y113.849 E0.97258
G1 X120.022 Y116.558 E1.01764
G1 X120.165 Y119.296 E1.06324
G1 X120.38 Y121.965 E1.10777
G1 X120.68 Y124.72 E1.15386
G1 X120.924 Y126.557 E1.18467
G1 X120.992 Y127.207 E1.19554
G1 X121.004 Y127.658 E1.20305
G1 X121.004 Y135.116 E1.32707
G1 X120.994 Y135.817 E1.33873
G1 X120.915 Y136.551 E1.35101
G1 X120.75 Y137.264 E1.36318
G1 X119.859 Y140.74 E1.42285
G1 X119.719 Y141.316 E1.43271
G1 X119.369 Y142.612 E1.45504
G1 X119.183 Y143.146 E1.46444
G1 X118.924 Y143.648 E1.47383
G1 X118.596 Y144.109 E1.48324
G1 X118.039 Y144.664 E1.49632
G1 X117.946 Y144.74 E1.49832
G1 X117.484 Y145.066 E1.50772
G1 X116.981 Y145.324 E1.51712
G1 X116.446 Y145.508 E1.52653
G1 X115.891 Y145.615 E1.53593
G1 X115.499 Y145.642 E1.54246
G1 X114.366 Y145.665 E1.56131
G1 X105.247 Y145.665 E1.71296
G1 X104.566 Y145.655 E1.72428
G1 X104.003 Y145.606 E1.73368
G1 X103.452 Y145.479 E1.74309
G1 X102.925 Y145.276 E1.75248
G1 X102.25 Y144.874 E1.76554
G1 X102.128 Y144.784 E1.76806
G1 X101.698 Y144.417 E1.77747
G1 X101.324 Y143.993 E1.78687
G1 X101.014 Y143.521 E1.79626
G1 X100.773 Y143.009 E1.80567
G1 X100.645 Y142.622 E1.81245
G1 X100.348 Y141.533 E1.83122
G1 X100.11 Y140.594 E1.84733
G1 X99.304 Y137.438 E1.9015
G1 X99.127 Y136.708 E1.91399
G1 X99.017 Y135.91 E1.92739
G1 X99.01 Y135.703 E1.93083
G1 X99.004 Y135.2 E1.9392
G1 X99.004 Y127.974 E2.05937
G1 X99.015 Y127.257 E2.07129
G1 X99.047 Y126.811 E2.07873
G1 X99.185 Y125.735 E2.09677
G1 X99.286 Y125.028 E2.10864
G1 X99.589 Y122.363 E2.15325
G1 X99.82 Y119.646 E2.1986
G1 X99.975 Y116.908 E2.2442
G1 X100.051 Y114.237 E2.28864
G1 X100.051 Y111.493 E2.33427
G1 X99.975 Y108.818 E2.37877
G1 X99.821 Y106.084 E2.42431
G1 X99.588 Y103.345 E2.47003
G1 X99.287 Y100.689 E2.51448
G1 X98.902 Y97.98 E2.55998
G1 X98.445 Y95.315 E2.60495
G1 X97.92 Y92.69 E2.64947
G1 X97.524 Y91.005 E2.67825
G1 X97.487 Y90.778 E2.68208
G1 X97.358 Y90.225 E2.69152
G1 X97.23 Y89.639 E2.7015
G1 X97.157 Y89.169 E2.70941
G1 X97.065 Y88.216 E2.72533
G1 X97.027 Y87.654 E2.7347
G1 X97.025 Y87.178 E2.74261
G1 X97.077 Y86.256 E2.75797
G1 X97.125 Y85.699 E2.76727
G1 X97.197 Y85.219 E2.77534
G1 X97.401 Y84.261 E2.79163
G1 X97.529 Y83.737 E2.8006
G1 X97.67 Y83.287 E2.80844
G1 X98.012 Y82.385 E2.82448
G1 X98.232 Y81.856 E2.83401
G1 X98.44 Y81.433 E2.84185
G1 X98.899 Y80.625 E2.8573
G1 X99.189 Y80.146 E2.86661
G1 X99.468 Y79.747 E2.87471
G1 X100.055 Y79.006 E2.89043
G0 F1500 X100.368 Y79.255
G1 F900 X100.722 Y78.835 E2.89957
G1 X101.016 Y78.528 E2.90664
G1 X101.819 Y77.784 E2.92484
G1 X102.476 Y77.25 E2.93892
G1 X103.234 Y76.737 E2.95414
G1 X103.718 Y76.43 E2.96367
G1 X104.097 Y76.222 E2.97086
G1 X104.948 Y75.82 E2.98651
G1 X105.469 Y75.593 E2.99596
G1 X105.87 Y75.447 E3.00306
G1 X106.765 Y75.181 E3.01859
G1 X107.288 Y75.043 E3.02758
G1 X107.713 Y74.959 E3.03479
G1 X108.65 Y74.832 E3.05051
G1 X108.775 Y74.817 E3.05261
G1 X109.304 Y74.764 E3.06145
G1 X110.022 Y74.747 E3.07339
G1 X110.533 Y74.765 E3.0819
G1 X111.129 Y74.796 E3.09182
G1 X111.557 Y74.844 E3.09898
G1 X112.491 Y75.006 E3.11475
G1 X113.039 Y75.118 E3.12405
G1 X113.449 Y75.23 E3.13112
G1 X114.35 Y75.533 E3.14693
G1 X114.87 Y75.726 E3.15615
G1 X115.257 Y75.898 E3.16319
G1 X116.066 Y76.316 E3.17834
G1 X116.573 Y76.598 E3.18798
G1 X116.932 Y76.829 E3.19508
G1 X117.705 Y77.393 E3.211
G1 X118.126 Y77.72 E3.21986
G1 X118.448 Y78.005 E3.22701
G1 X119.139 Y78.694 E3.24324
G1 X119.512 Y79.09 E3.25229
G1 X119.784 Y79.418 E3.25937
G1 X120.41 Y80.273 E3.277
G1 X120.701 Y80.699 E3.28558
G1 X120.958 Y81.134 E3.29398
G1 X121.251 Y81.708 E3.30469
G1 X121.554 Y82.338 E3.31632
G1 X121.715 Y82.735 E3.32344
G1 X122.049 Y83.725 E3.34082
G1 X122.206 Y84.246 E3.34987
G1 X122.321 Y84.75 E3.35847
G1 X122.413 Y85.3 E3.36774
G1 X122.522 Y86.066 E3.38061
G1 X122.556 Y86.496 E3.38778
G1 X122.575 Y87.511 E3.40466
G1 X122.538 Y88.388 E3.41926
G1 X122.408 Y89.367 E3.43568
G1 X122.312 Y89.952 E3.44554
G1 X122.272 Y90.157 E3.44902
G1 X121.972 Y91.483 E3.47162
G1 X121.954 Y91.585 E3.47335
G1 X121.811 Y92.195 E3.48377
G1 X121.255 Y94.894 E3.52959
G1 X120.787 Y97.56 E3.57461
G1 X120.389 Y100.269 E3.62014
G1 X120.072 Y102.951 E3.66505
G1 X119.824 Y105.709 E3.71111
G1 X119.66 Y108.398 E3.75591
G1 X119.57 Y111.126 E3.8013
G1 X119.558 Y113.857 E3.84672
G1 X119.623 Y116.588 E3.89214
G1 X119.765 Y119.313 E3.93752
G1 X119.981 Y122.004 E3.98242
G1 X120.278 Y124.73 E4.02802
G1 X120.523 Y126.573 E4.05894
G1 X120.592 Y127.219 E4.06974
G1 X120.604 Y127.658 E4.07705
G1 X120.604 Y135.11 E4.20097
G1 X120.594 Y135.811 E4.21263
G1 X120.523 Y136.472 E4.22369
G1 X120.361 Y137.17 E4.2356
G1 X119.461 Y140.683 E4.29591
G1 X119.331 Y141.217 E4.30505
G1 X118.983 Y142.508 E4.32729
G1 X118.805 Y143.013 E4.33619
G1 X118.553 Y143.487 E4.34512
G1 X118.234 Y143.918 E4.35404
G1 X117.786 Y144.355 E4.36445
G1 X117.693 Y144.431 E4.36644
G1 X117.254 Y144.738 E4.37535
G1 X116.773 Y144.977 E4.38428
G1 X116.263 Y145.142 E4.3932
G1 X115.49 Y145.242 E4.40616
G1 X114.366 Y145.265 E4.42486
G1 X105.253 Y145.265 E4.57641
G1 X104.572 Y145.255 E4.58773
G1 X104.038 Y145.207 E4.59665
G1 X103.517 Y145.08 E4.60557
G1 X103.02 Y144.878 E4.61449
G1 X102.488 Y144.552 E4.62486
G1 X102.366 Y144.462 E4.62739
G1 X101.959 Y144.112 E4.63631
G1 X101.609 Y143.706 E4.64523
G1 X101.323 Y143.253 E4.65414
G1 X101.031 Y142.516 E4.66732
G1 X100.736 Y141.434 E4.68597
G1 X99.692 Y137.343 E4.75618
G1 X99.515 Y136.613 E4.76868
G1 X99.416 Y135.896 E4.78071
G1 X99.41 Y135.698 E4.78401
G1 X99.404 Y135.195 E4.79237
G1 X99.404 Y127.98 E4.91236
G1 X99.415 Y127.263 E4.92428
G1 X99.444 Y126.862 E4.93097
G1 X99.581 Y125.792 E4.94891
G1 X99.68 Y125.098 E4.96057
G1 X99.991 Y122.363 E5.00634
G1 X100.22 Y119.669 E5.05131
G1 X100.373 Y116.976 E5.09616
G1 X100.451 Y114.212 E5.14215
G1 X100.451 Y111.518 E5.18695
G1 X100.373 Y108.748 E5.23303
G1 X100.221 Y106.063 E5.27776
G1 X99.989 Y103.338 E5.32324
G1 X99.681 Y100.619 E5.36874
G1 X99.299 Y97.933 E5.41386
G1 X98.837 Y95.241 E5.45928
G1 X98.311 Y92.61 E5.5039
G1 X97.913 Y90.914 E5.53287
G1 X97.88 Y90.704 E5.53641
G1 X97.749 Y90.139 E5.54605
G1 X97.621 Y89.553 E5.55603
G1 X97.555 Y89.131 E5.56313
G1 X97.453 Y88.058 E5.58106
G1 X97.425 Y87.2 E5.59533
G1 X97.485 Y86.163 E5.61261
G1 X97.588 Y85.302 E5.62703
G1 X97.792 Y84.344 E5.64332
G1 X97.917 Y83.834 E5.65205
G1 X98.044 Y83.429 E5.65911
G1 X98.386 Y82.527 E5.67515
G1 X98.6 Y82.011 E5.68444
G1 X98.788 Y81.631 E5.69149
G1 X99.305 Y80.724 E5.70885
G1 X99.781 Y79.996 E5.72332
G1 X100.368 Y79.255 E5.73904
G0 F1500 X100.682 Y79.503
G1 F900 X101.027 Y79.094 E5.74794
G1 X101.288 Y78.821 E5.75422
G1 X101.994 Y78.165 E5.77024
G1 X102.403 Y77.809 E5.77926
G1 X102.7 Y77.581 E5.78549
G1 X103.458 Y77.068 E5.80071
G1 X103.931 Y76.769 E5.81001
G1 X104.268 Y76.584 E5.81641
G1 X105.119 Y76.182 E5.83206
G1 X105.628 Y75.96 E5.84129
G1 X105.984 Y75.831 E5.84759
G1 X106.879 Y75.565 E5.86312
G1 X107.389 Y75.43 E5.87189
G1 X107.767 Y75.355 E5.8783
G1 X108.704 Y75.228 E5.89403
G1 X108.815 Y75.215 E5.89588
G1 X109.344 Y75.162 E5.90473
G1 X109.672 Y75.146 E5.91019
G1 X110.47 Y75.162 E5.92346
G1 X111.108 Y75.195 E5.93408
G1 X111.489 Y75.238 E5.94046
G1 X112.423 Y75.4 E5.95623
G1 X112.957 Y75.51 E5.96529
G1 X113.321 Y75.609 E5.97157
G1 X114.222 Y75.912 E5.98737
G1 X114.729 Y76.1 E5.99637
G1 X115.073 Y76.253 E6.00263
G1 X115.882 Y76.671 E6.01777
G1 X116.377 Y76.947 E6.0272
G1 X116.696 Y77.152 E6.0335
G1 X117.469 Y77.716 E6.04941
G1 X117.879 Y78.035 E6.05805
G1 X118.165 Y78.288 E6.0644
G1 X118.856 Y78.977 E6.08063
G1 X119.22 Y79.363 E6.08945
G1 X119.462 Y79.654 E6.09575
G1 X120.017 Y80.41 E6.11135
G1 X120.37 Y80.925 E6.12173
G1 X120.653 Y81.412 E6.1311
G1 X120.928 Y81.956 E6.14123
G1 X121.193 Y82.51 E6.15145
G1 X121.337 Y82.863 E6.15779
G1 X121.633 Y83.736 E6.17312
G1 X121.823 Y84.362 E6.18399
G1 X121.94 Y84.892 E6.19302
G1 X122.03 Y85.44 E6.20226
G1 X122.126 Y86.122 E6.21371
G1 X122.156 Y86.504 E6.22008
G1 X122.175 Y87.506 E6.23675
G1 X122.141 Y88.335 E6.25055
G1 X121.996 Y89.417 E6.2687
G1 X121.882 Y90.069 E6.27971
G1 X121.574 Y91.433 E6.30296
G1 X121.565 Y91.493 E6.30397
G1 X121.416 Y92.128 E6.31482
G1 X120.864 Y94.81 E6.36036
G1 X120.391 Y97.505 E6.40586
G1 X119.995 Y100.2 E6.45116
G1 X119.671 Y102.94 E6.49704
G1 X119.428 Y105.647 E6.54224
G1 X119.259 Y108.397 E6.58806
G1 X119.17 Y111.112 E6.63323
G1 X119.158 Y113.864 E6.679
G1 X119.223 Y116.584 E6.72425
G1 X119.366 Y119.33 E6.76997
G1 X119.587 Y122.082 E6.81589
G1 X119.881 Y124.782 E6.86105
G1 X120.127 Y126.63 E6.89206
G1 X120.193 Y127.231 E6.90211
G1 X120.204 Y127.658 E6.90922
G1 X120.204 Y135.105 E7.03306
G1 X120.194 Y135.806 E7.04472
G1 X120.131 Y136.393 E7.05454
G1 X119.972 Y137.076 E7.0662
G1 X119.069 Y140.604 E7.12676
G1 X118.944 Y141.119 E7.13557
G1 X118.597 Y142.403 E7.15769
G1 X118.427 Y142.879 E7.1661
G1 X118.184 Y143.322 E7.1745
G1 X117.874 Y143.722 E7.18292
G1 X117.44 Y144.121 E7.19272
G1 X117.024 Y144.409 E7.20114
G1 X116.569 Y144.628 E7.20953
G1 X116.084 Y144.772 E7.21795
G1 X115.482 Y144.842 E7.22803
G1 X114.366 Y144.865 E7.24659
G1 X105.259 Y144.865 E7.39804
G1 X104.578 Y144.855 E7.40937
G1 X104.075 Y144.807 E7.41777
G1 X103.585 Y144.681 E7.42618
G1 X103.121 Y144.48 E7.43459
G1 X102.603 Y144.14 E7.4449
G1 X102.221 Y143.809 E7.4533
G1 X101.897 Y143.421 E7.46171
G1 X101.637 Y142.988 E7.47011
G1 X101.417 Y142.41 E7.48039
G1 X101.123 Y141.335 E7.49893
G1 X100.887 Y140.402 E7.51493
G1 X100.081 Y137.249 E7.56905
G1 X99.904 Y136.519 E7.58154
G1 X99.816 Y135.881 E7.59225
G1 X99.81 Y135.693 E7.59538
G1 X99.804 Y135.19 E7.60375
G1 X99.804 Y127.986 E7.72355
G1 X99.815 Y127.269 E7.73547
G1 X99.841 Y126.912 E7.74143
G1 X99.977 Y125.848 E7.75927
G1 X100.08 Y125.128 E7.77136
G1 X100.387 Y122.43 E7.81652
G1 X100.617 Y119.725 E7.86167
G1 X100.773 Y116.976 E7.90746
G1 X100.851 Y114.223 E7.95326
G1 X100.851 Y111.506 E7.99844
G1 X100.773 Y108.751 E8.04427
G1 X100.618 Y106.006 E8.09
G1 X100.392 Y103.342 E8.13446
G1 X100.076 Y100.555 E8.1811
G1 X99.695 Y97.875 E8.22612
G1 X99.231 Y95.173 E8.27171
G1 X98.696 Y92.495 E8.31713
G1 X98.303 Y90.822 E8.34571
G1 X98.272 Y90.621 E8.34909
G1 X98.14 Y90.054 E8.35877
G1 X98.012 Y89.468 E8.36875
G1 X97.953 Y89.092 E8.37507
G1 X97.852 Y88.033 E8.39277
G1 X97.824 Y87.223 E8.40624
G1 X97.883 Y86.199 E8.4233
G1 X97.979 Y85.386 E8.43692
G1 X98.183 Y84.428 E8.4532
G1 X98.305 Y83.931 E8.46172
G1 X98.418 Y83.571 E8.46799
G1 X98.76 Y82.669 E8.48403
G1 X98.969 Y82.167 E8.49308
G1 X99.136 Y81.828 E8.49936
G1 X99.646 Y80.933 E8.51649
G1 X100.095 Y80.244 E8.53017
G1 X100.682 Y79.503 E8.54589
G1 F1800 E1.54589
G1 F300 Z0.3
G0 F1500 X104.877 Y83.337 Z0.3
;TYPE:SUPPORT
G1 F300 Z0.1
G1 F1800 E8.54589
G1 F900 X105.599 Y82.551 E8.56364
G1 X106.451 Y81.888 E8.58159
G1 X107.395 Y81.377 E8.59944
G1 X108.413 Y81.028 E8.61734
G1 X109.462 Y80.854 E8.63502
G1 X110.545 Y80.854 E8.65303
G1 X111.594 Y81.028 E8.67071
G1 X112.612 Y81.377 E8.68861
G1 X113.556 Y81.888 E8.70646
G1 X114.411 Y82.554 E8.72449
G1 X115.127 Y83.333 E8.74208
G1 X115.718 Y84.236 E8.76003
G1 X116.147 Y85.214 E8.77779
G1 X116.414 Y86.267 E8.79585
G1 X116.502 Y87.328 E8.81356
G1 X116.414 Y88.389 E8.83127
G1 X116.147 Y89.442 E8.84933
G1 X115.718 Y90.42 E8.86709
G1 X115.127 Y91.323 E8.88504
G1 X114.411 Y92.102 E8.90263
G1 X113.556 Y92.768 E8.92066
G1 X112.612 Y93.279 E8.93851
G1 X111.594 Y93.628 E8.9564
G1 X110.544 Y93.802 E8.9741
G1 X109.463 Y93.802 E8.99208
G1 X108.413 Y93.628 E9.00978
G1 X107.395 Y93.279 E9.02768
G1 X106.451 Y92.768 E9.04553
G1 X105.599 Y92.105 E9.06348
G1 X104.873 Y91.315 E9.08133
G1 X104.29 Y90.422 E9.09906
G1 X103.861 Y89.445 E9.11681
G1 X103.593 Y88.389 E9.13492
G1 X103.505 Y87.328 E9.15263
G1 X103.593 Y86.267 E9.17033
G1 X103.861 Y85.211 E9.18845
G1 X104.289 Y84.237 E9.20614
G1 X104.877 Y83.337 E9.22402
G0 F1500 X105.763 Y82.677
G1 F900 X114.244 Y82.677 E9.36506
G0 F1500 X114.681 Y83.143
G1 F900 X114.681 Y91.514 E9.50427
G0 F1500 X115.309 Y90.678
G1 F900 X104.695 Y90.678 E9.68078
G1 F1800 E2.68078
G1 F300 Z0.3
G0 F1500 X104.013 Y89.232 Z0.3
G1 F300 Z0.1
G1 F1800 E9.68078
G1 F900 X104.013 Y85.423 E9.74413
G1 X104.034 Y85.344
G1 X115.974 Y85.344 E9.94269
G1 F1800 E2.94269
G1 F300 Z0.3
G0 F1500 X116.245 Y88.011 Z0.3
G1 F300 Z0.1
G1 F1800 E9.94269
G1 F900 X103.761 Y88.011 E10.1503
G1 F1800 E3.1503
G1 F300 Z0.3
G0 F1500 X106.68 Y92.664 Z0.3
G1 F300 Z0.1
G1 F1800 E10.1503
G1 F900 X106.68 Y81.991 E10.32779
G1 F1800 E3.32779
G1 F300 Z0.3
G0 F1500 X109.347 Y81.075 Z0.3
G1 F300 Z0.1
G1 F1800 E10.32779
G1 F900 X109.347 Y93.58 E10.53575
G0 F1500 X108.203 Y93.345
G1 F900 X111.803 Y93.345 E10.59562
G0 F1500 X112.014 Y93.274
G1 F900 X112.014 Y81.383 E10.79337
G1 F1800 E3.79337
G1 F300 Z0.3
G0 F1500 X114.494 Y131.328 Z0.3
G1 F300 Z0.1
G1 F1800 E10.79337
G1 F900 X114.494 Y140.163 E10.9403
G1 X115.197 Y140.866 E10.95683
