;FLAVOR:Marlin
;TIME:21097
;Filament used: 14.9959m
;Layer height: 0.2
;MINX:48.008
;MINY:48.025
;MINZ:0.2
;MAXX:171.99
;MAXY:171.99
;MAXZ:22.2
;Generated with Cura_SteamEngine master
M82 ;absolute extrusion mode
;Sliced at: Sat 22-10-2022 21:47:45
;Basic settings: Layer height: 0.2 Walls: 0.8 Fill: 20.0
G21 ;metric values
G90 ;absolute positioning
M82 ;set extruder to absolute mode
M107 ;start with the fan off
M117 Start heating ...
M104 S200
M117 Homing X/Y ...
G28 X0 Y0 ;move X/Y to min endstops
M117 Homing Z ...
G28 Z0 ;move Z to min endstops
G1 Z15.0 F100 ;move the platform down 15mm
M117 Heating ...
M109 S200
M117 Start cleaning ...
G92 E0 ;zero the extruded length
G1 F200 E10 ;extrude 10mm of feed stock
G92 E0 ;zero the extruded length again
M117 Intro line ...
G1 Z2.0 F3000 ; Move Z Axis up little to prevent scratching of Heat Bed
G1 X0.1 Y20 Z0.2 F5000.0 ; Move to start position
G1 X0.1 Y200.0 Z0.2 F1500.0 E15 ; Draw the first line
G1 X0.4 Y200.0 Z0.2 F5000.0 ; Move to side a little
G1 X0.4 Y20 Z0.3 F1500.0 E30 ; Draw the second line
G92 E0 ; Reset Extruder
G1 E-1 F500 ; Retract filiment by 1 mm
G1 Z2.0 F3000 ; Move Z Axis up little to prevent scratching of Heat Bed
G1 X5 Y20 Z0.3 F100 ; Move over to prevent blob squish
G1 F100
G92 E0 ; Reset Extruder
M117 Printing...

G92 E0
G92 E0
G1 F1800 E-7
;LAYER_COUNT:110
;LAYER:0
M107
G1 F300 Z0.4
G0 F3000 X66.179 Y66.166 Z0.4
;TYPE:SKIRT
G1 F300 Z0.2
G1 F1800 E0
G1 F1200 X66.671 Y65.673 E0.02317
G1 X67.349 Y65.028 E0.05429
G1 X68.639 Y63.832 E0.1128
G1 X68.74 Y63.742 E0.1173
G1 X69.712 Y62.9 E0.16007
G1 X70.943 Y61.869 E0.21348
G1 X71.043 Y61.788 E0.21776
G1 X72.121 Y60.943 E0.26331
G1 X73.26 Y60.081 E0.31082
G1 X73.357 Y60.01 E0.31482
G1 X74.608 Y59.121 E0.36587
G1 X75.766 Y58.333 E0.41245
G1 X76.536 Y57.824 E0.44315
G1 X76.958 Y57.561 E0.45969
G1 X78.372 Y56.697 E0.51481
G1 X79.156 Y56.235 E0.54507
G1 X79.61 Y55.981 E0.56237
G1 X80.894 Y55.282 E0.611
G1 X82.146 Y54.629 E0.65796
G1 X83.653 Y53.901 E0.71363
G1 X84.829 Y53.358 E0.75671
G1 X84.947 Y53.306 E0.761
G1 X86.636 Y52.593 E0.82198
G1 X87.426 Y52.274 E0.85031
G1 X88.11 Y52.016 E0.87463
G1 X89.932 Y51.355 E0.93909
G1 X91.078 Y50.981 E0.97919
G1 X92.414 Y50.569 E1.02569
G1 X93.188 Y50.34 E1.05253
G1 X94.017 Y50.118 E1.08108
G1 X95.569 Y49.724 E1.13434
G1 X95.995 Y49.621 E1.14891
G1 X97.109 Y49.378 E1.18684
G1 X98.483 Y49.101 E1.23345
G1 X99.329 Y48.943 E1.26208
G1 X100.025 Y48.83 E1.28553
G1 X101.904 Y48.549 E1.34872
G1 X102.037 Y48.531 E1.35319
G1 X103.224 Y48.395 E1.39292
G1 X104.653 Y48.252 E1.44069
G1 X105.388 Y48.189 E1.46523
G1 X106.138 Y48.142 E1.49022
G1 X107.77 Y48.061 E1.54457
G1 X108.398 Y48.037 E1.56547
G1 X109.284 Y48.026 E1.59494
G1 X110.714 Y48.025 E1.6425
G1 X111.642 Y48.038 E1.67337
G1 X112.267 Y48.062 E1.69417
G1 X113.916 Y48.144 E1.74909
G1 X114.691 Y48.194 E1.77492
G1 X115.435 Y48.26 E1.79976
G1 X116.802 Y48.397 E1.84546
G1 X118.074 Y48.545 E1.88805
G1 X118.375 Y48.588 E1.89816
G1 X120.034 Y48.838 E1.95396
G1 X120.661 Y48.94 E1.97509
G1 X121.568 Y49.11 E2.00578
G1 X122.948 Y49.39 E2.05262
G1 X124.105 Y49.643 E2.09201
G1 X124.467 Y49.732 E2.10441
G1 X126.03 Y50.129 E2.15804
G1 X126.708 Y50.31 E2.18138
G1 X127.629 Y50.581 E2.21331
G1 X128.921 Y50.98 E2.25829
G1 X130.067 Y51.354 E2.29838
G1 X131.941 Y52.034 E2.36469
G1 X132.657 Y52.306 E2.39016
G1 X133.416 Y52.614 E2.41741
G1 X135.052 Y53.305 E2.47648
G1 X135.173 Y53.359 E2.48088
G1 X136.343 Y53.899 E2.52374
G1 X137.742 Y54.572 E2.57538
G1 X139.085 Y55.272 E2.62575
G1 X140.333 Y55.951 E2.673
G1 X141.174 Y56.426 E2.70513
G1 X141.606 Y56.682 E2.72183
G1 X142.949 Y57.504 E2.7742
G1 X143.755 Y58.011 E2.80587
G1 X144.119 Y58.252 E2.82039
G1 X145.389 Y59.119 E2.87154
G1 X146.742 Y60.081 E2.92675
G1 X147.912 Y60.968 E2.97559
G1 X148.92 Y61.758 E3.01818
G1 X149.021 Y61.84 E3.02251
G1 X150.399 Y62.993 E3.08227
G1 X151.213 Y63.7 E3.11813
G1 X151.541 Y63.999 E3.13289
G1 X152.694 Y65.069 E3.18521
G1 X153.356 Y65.699 E3.2156
G1 X153.803 Y66.147 E3.23665
G1 X154.941 Y67.315 E3.29089
G1 X155.51 Y67.916 E3.31842
G1 X155.999 Y68.457 E3.34267
G1 X156.887 Y69.464 E3.38733
G1 X157.685 Y70.396 E3.42814
G1 X157.773 Y70.503 E3.43275
G1 X158.956 Y71.985 E3.49582
G1 X159.477 Y72.658 E3.52412
G1 X159.885 Y73.212 E3.54701
G1 X160.716 Y74.368 E3.59436
G1 X161.328 Y75.248 E3.63001
G1 X161.621 Y75.691 E3.64768
G1 X162.49 Y77.036 E3.70094
G1 X162.895 Y77.679 E3.72621
G1 X163.28 Y78.328 E3.75131
G1 X164.1 Y79.747 E3.80582
G1 X164.479 Y80.427 E3.83171
G1 X164.808 Y81.052 E3.8552
G1 X165.456 Y82.316 E3.90245
G1 X165.969 Y83.357 E3.94105
G1 X166.142 Y83.728 E3.95466
G1 X166.826 Y85.245 E4.01001
G1 X167.157 Y86.01 E4.03773
G1 X167.411 Y86.635 E4.06017
G1 X167.969 Y88.055 E4.11092
G1 X168.287 Y88.898 E4.14088
G1 X168.49 Y89.482 E4.16145
G1 X168.981 Y90.944 E4.21274
G1 X169.309 Y91.972 E4.24863
G1 X169.438 Y92.41 E4.26382
G1 X169.892 Y94.028 E4.31971
G1 X170.058 Y94.65 E4.34112
G1 X170.278 Y95.558 E4.3722
G1 X170.626 Y97.085 E4.42429
G1 X170.745 Y97.642 E4.44323
G1 X170.924 Y98.583 E4.47509
G1 X171.198 Y100.139 E4.52764
G1 X171.274 Y100.61 E4.54351
G1 X171.421 Y101.662 E4.57884
G1 X171.615 Y103.218 E4.63099
G1 X171.668 Y103.684 E4.64659
G1 X171.76 Y104.712 E4.68092
G1 X171.869 Y106.181 E4.72991
G1 X171.919 Y107.012 E4.7576
G1 X171.944 Y107.687 E4.78007
G1 X171.984 Y109.321 E4.83443
G1 X171.99 Y109.712 E4.84744
G1 X171.978 Y110.967 E4.88918
G1 X171.943 Y112.368 E4.93579
G1 X171.915 Y113.108 E4.96042
G1 X171.867 Y113.888 E4.98641
G1 X171.756 Y115.362 E5.03558
G1 X171.669 Y116.333 E5.068
G1 X171.612 Y116.836 E5.08484
G1 X171.414 Y118.412 E5.13767
G1 X171.262 Y119.496 E5.17408
G1 X171.191 Y119.923 E5.18847
G1 X170.915 Y121.487 E5.2413
G1 X170.727 Y122.469 E5.27455
G1 X170.619 Y122.968 E5.29153
G1 X170.266 Y124.513 E5.34424
G1 X170.034 Y125.464 E5.3768
G1 X169.88 Y126.034 E5.39644
G1 X169.426 Y127.646 E5.45214
G1 X169.283 Y128.133 E5.46902
G1 X168.963 Y129.13 E5.50385
G1 X168.48 Y130.567 E5.55427
G1 X168.288 Y131.117 E5.57365
G1 X167.95 Y132.014 E5.60553
G1 X167.397 Y133.419 E5.65575
G1 X167.118 Y134.105 E5.68038
G1 X166.812 Y134.803 E5.70573
G1 X166.125 Y136.326 E5.7613
G1 X165.97 Y136.656 E5.77342
G1 X165.428 Y137.758 E5.81427
G1 X164.788 Y139.004 E5.86086
G1 X164.436 Y139.67 E5.88591
G1 X164.075 Y140.316 E5.91053
G1 X163.254 Y141.737 E5.96511
G1 X162.913 Y142.307 E5.9872
G1 X162.467 Y143.017 E6.01509
G1 X161.605 Y144.352 E6.06794
G1 X161.327 Y144.772 E6.0847
G1 X160.68 Y145.699 E6.1223
G1 X159.861 Y146.837 E6.16893
G1 X159.416 Y147.44 E6.19386
G1 X158.923 Y148.074 E6.22057
G1 X157.781 Y149.504 E6.28143
G1 X157.694 Y149.609 E6.28597
G1 X156.837 Y150.609 E6.32977
G1 X155.95 Y151.615 E6.37438
G1 X155.466 Y152.15 E6.39838
G1 X154.886 Y152.761 E6.4264
G1 X153.778 Y153.896 E6.47915
G1 X153.359 Y154.315 E6.49886
G1 X152.659 Y154.981 E6.531
G1 X151.509 Y156.048 E6.58317
G1 X151.139 Y156.382 E6.59975
G1 X150.347 Y157.067 E6.63458
G1 X148.986 Y158.206 E6.69361
G1 X148.884 Y158.288 E6.69796
G1 X147.906 Y159.053 E6.73926
G1 X146.695 Y159.97 E6.78978
G1 X146.594 Y160.044 E6.79395
G1 X145.336 Y160.935 E6.84522
G1 X144.19 Y161.716 E6.89134
G1 X143.797 Y161.977 E6.90704
G1 X142.884 Y162.552 E6.94292
G1 X141.594 Y163.341 E6.99322
G1 X141.486 Y163.405 E6.99739
G1 X140.04 Y164.227 E7.05271
G1 X138.886 Y164.855 E7.09641
G1 X138.777 Y164.912 E7.1005
G1 X137.327 Y165.644 E7.15453
G1 X136.194 Y166.19 E7.19636
G1 X136.079 Y166.243 E7.20057
G1 X134.457 Y166.962 E7.25958
G1 X133.271 Y167.461 E7.30238
G1 X132.437 Y167.798 E7.33229
G1 X132.002 Y167.96 E7.34773
G1 X130.445 Y168.526 E7.40284
G1 X129.469 Y168.864 E7.43719
G1 X129.178 Y168.957 E7.44735
G1 X127.451 Y169.488 E7.50744
G1 X126.583 Y169.741 E7.53751
G1 X126.143 Y169.859 E7.55267
G1 X124.529 Y170.269 E7.60805
G1 X123.542 Y170.503 E7.64179
G1 X123.123 Y170.591 E7.65603
G1 X121.474 Y170.923 E7.71198
G1 X120.551 Y171.095 E7.74321
G1 X120.054 Y171.174 E7.75994
G1 X118.434 Y171.418 E7.81443
G1 X117.468 Y171.549 E7.84686
G1 X117.084 Y171.59 E7.8597
G1 X115.361 Y171.762 E7.91729
G1 X114.408 Y171.843 E7.9491
G1 X113.985 Y171.868 E7.9632
G1 X112.245 Y171.955 E8.02114
G1 X111.33 Y171.986 E8.05159
G1 X110.989 Y171.99 E8.06293
G1 X109.209 Y171.99 E8.12214
G1 X108.229 Y171.975 E8.15474
G1 X107.798 Y171.957 E8.16908
G1 X106.117 Y171.873 E8.22506
G1 X105.156 Y171.811 E8.25709
G1 X104.751 Y171.775 E8.27062
G1 X103.068 Y171.606 E8.32688
G1 X102.094 Y171.493 E8.35949
G1 X101.617 Y171.427 E8.3755
G1 X100.025 Y171.187 E8.42905
G1 X99.01 Y171.018 E8.46328
G1 X98.658 Y170.952 E8.47519
G1 X96.954 Y170.607 E8.53301
G1 X96.135 Y170.432 E8.56087
G1 X95.582 Y170.297 E8.5798
G1 X93.947 Y169.882 E8.63591
G1 X93.004 Y169.627 E8.6684
G1 X92.68 Y169.53 E8.67965
G1 X91.001 Y169.012 E8.73809
G1 X90.054 Y168.704 E8.77121
G1 X89.661 Y168.565 E8.78507
G1 X88.126 Y168.007 E8.8394
G1 X87.266 Y167.682 E8.86997
G1 X86.771 Y167.481 E8.88774
G1 X85.471 Y166.933 E8.93467
G1 X83.92 Y166.244 E8.99111
G1 X82.675 Y165.646 E9.03705
G1 X81.227 Y164.914 E9.09102
G1 X81.121 Y164.859 E9.09499
G1 X79.874 Y164.179 E9.14223
G1 X78.523 Y163.41 E9.19393
G1 X77.073 Y162.526 E9.25042
G1 X76.122 Y161.924 E9.28785
G1 X75.778 Y161.695 E9.3016
G1 X74.604 Y160.894 E9.34887
G1 X73.406 Y160.044 E9.39772
G1 X73.306 Y159.971 E9.40184
G1 X72.045 Y159.015 E9.45447
G1 X71.117 Y158.289 E9.49366
G1 X71.015 Y158.206 E9.49803
G1 X69.643 Y157.057 E9.55756
G1 X68.74 Y156.274 E9.59731
G1 X68.642 Y156.186 E9.60169
G1 X67.311 Y154.953 E9.66203
G1 X66.601 Y154.275 E9.69469
G1 X66.139 Y153.811 E9.71646
G1 X65.144 Y152.79 E9.76388
G1 X64.422 Y152.028 E9.7988
G1 X64.047 Y151.613 E9.8174
G1 X63.057 Y150.489 E9.86722
G1 X62.363 Y149.678 E9.90272
G1 X62.103 Y149.361 E9.91636
G1 X61.035 Y148.021 E9.97335
G1 X60.596 Y147.455 E9.99717
G1 X60.07 Y146.742 E10.02664
G1 X59.148 Y145.46 E10.07916
G1 X58.903 Y145.107 E10.09345
G1 X58.282 Y144.177 E10.13065
G1 X57.362 Y142.752 E10.18706
G1 X57.29 Y142.637 E10.19158
G1 X56.604 Y141.49 E10.23603
G1 X55.87 Y140.218 E10.28487
G1 X55.7 Y139.913 E10.29649
G1 X55.115 Y138.814 E10.3379
G1 X54.378 Y137.375 E10.39167
G1 X54.32 Y137.258 E10.39601
G1 X53.738 Y136.023 E10.44142
G1 X53.172 Y134.769 E10.48718
G1 X53.122 Y134.653 E10.49138
G1 X52.446 Y133.018 E10.55023
G1 X52.016 Y131.919 E10.58948
G1 X51.646 Y130.931 E10.62457
G1 X51.527 Y130.587 E10.63668
G1 X50.99 Y128.989 E10.69275
G1 X50.471 Y127.275 E10.75231
G1 X50.116 Y126.014 E10.79588
G1 X49.857 Y125.035 E10.82956
G1 X49.781 Y124.719 E10.84037
G1 X49.386 Y122.987 E10.89946
G1 X49.19 Y122.058 E10.93104
G1 X49.111 Y121.628 E10.94558
G1 X48.82 Y119.975 E11.0014
G1 X48.665 Y119.004 E11.03411
G1 X48.613 Y118.627 E11.04677
G1 X48.404 Y116.95 E11.10297
G1 X48.291 Y115.927 E11.13721
G1 X48.258 Y115.533 E11.15036
G1 X48.133 Y113.858 E11.20622
G1 X48.077 Y112.943 E11.23671
G1 X48.061 Y112.506 E11.25126
G1 X48.017 Y110.736 E11.31015
G1 X48.008 Y109.795 E11.34145
G1 X48.016 Y109.293 E11.35814
G1 X48.057 Y107.635 E11.41331
G1 X48.094 Y106.746 E11.4429
G1 X48.126 Y106.23 E11.4601
G1 X48.246 Y104.645 E11.51296
G1 X48.337 Y103.628 E11.54692
G1 X48.389 Y103.169 E11.56229
G1 X48.593 Y101.551 E11.61653
G1 X48.734 Y100.542 E11.65041
G1 X48.797 Y100.17 E11.66296
G1 X49.094 Y98.484 E11.7199
G1 X49.263 Y97.6 E11.74984
G1 X49.362 Y97.139 E11.76552
G1 X49.749 Y95.436 E11.82361
G1 X49.967 Y94.545 E11.85412
G1 X50.088 Y94.098 E11.86952
G1 X50.47 Y92.743 E11.91634
G1 X50.989 Y91.029 E11.97591
G1 X51.493 Y89.529 E12.02854
G1 X51.768 Y88.745 E12.05617
G1 X51.972 Y88.206 E12.07534
G1 X52.472 Y86.929 E12.12095
G1 X53.122 Y85.362 E12.17738
G1 X53.171 Y85.249 E12.18147
G1 X53.767 Y83.93 E12.22961
G1 X54.358 Y82.681 E12.27557
G1 X55.115 Y81.202 E12.33083
G1 X55.697 Y80.107 E12.37208
G1 X55.889 Y79.763 E12.38518
G1 X56.637 Y78.47 E12.43486
G1 X57.292 Y77.378 E12.47722
G1 X57.36 Y77.268 E12.48152
G1 X58.279 Y75.843 E12.53791
G1 X58.949 Y74.841 E12.578
G1 X59.177 Y74.515 E12.59124
G1 X60.097 Y73.239 E12.64356
G1 X60.669 Y72.466 E12.67554
G1 X61.063 Y71.961 E12.69684
G1 X62.134 Y70.617 E12.754
G1 X62.388 Y70.308 E12.76731
G1 X63.147 Y69.425 E12.80603
G1 X64.109 Y68.336 E12.85436
G1 X64.495 Y67.911 E12.87346
G1 X65.126 Y67.245 E12.90397
G1 X66.179 Y66.166 E12.95412
G0 F3000 X66.462 Y66.449
G1 F1200 X66.947 Y65.963 E12.97695
G1 X67.621 Y65.321 E13.00791
G1 X68.911 Y64.125 E13.06642
G1 X69.002 Y64.044 E13.07047
G1 X69.969 Y63.207 E13.11301
G1 X71.2 Y62.176 E13.16642
G1 X71.29 Y62.103 E13.17027
G1 X72.363 Y61.262 E13.21562
G1 X73.589 Y60.336 E13.26672
G1 X74.899 Y59.406 E13.32015
G1 X75.986 Y58.666 E13.36389
G1 X76.748 Y58.163 E13.39426
G1 X77.166 Y57.902 E13.41065
G1 X78.575 Y57.041 E13.46557
G1 X79.275 Y56.627 E13.49262
G1 X79.801 Y56.332 E13.51267
G1 X81.079 Y55.637 E13.56106
G1 X82.331 Y54.984 E13.60803
G1 X82.433 Y54.933 E13.61182
G1 X83.883 Y54.235 E13.66534
G1 X84.996 Y53.722 E13.7061
G1 X85.102 Y53.675 E13.70996
G1 X86.786 Y52.964 E13.77076
G1 X87.567 Y52.648 E13.79878
G1 X88.246 Y52.391 E13.82293
G1 X89.799 Y51.827 E13.87788
G1 X90.159 Y51.701 E13.89057
G1 X91.256 Y51.344 E13.92894
G1 X92.528 Y50.953 E13.9732
G1 X93.396 Y50.697 E14.0033
G1 X94.115 Y50.506 E14.02804
G1 X95.664 Y50.113 E14.08119
G1 X96.081 Y50.012 E14.09546
G1 X97.188 Y49.77 E14.13315
G1 X98.557 Y49.494 E14.1796
G1 X99.394 Y49.338 E14.20792
G1 X100.085 Y49.226 E14.2312
G1 X101.964 Y48.945 E14.29439
G1 X102.083 Y48.929 E14.29839
G1 X103.263 Y48.793 E14.33789
G1 X104.688 Y48.651 E14.38552
G1 X105.413 Y48.588 E14.40973
G1 X106.158 Y48.541 E14.43456
G1 X107.786 Y48.461 E14.48877
G1 X108.404 Y48.437 E14.50934
G1 X109.284 Y48.426 E14.53861
G1 X110.708 Y48.425 E14.58597
G1 X111.636 Y48.438 E14.61684
G1 X112.247 Y48.461 E14.63718
G1 X113.891 Y48.543 E14.69192
G1 X114.656 Y48.593 E14.71742
G1 X115.395 Y48.658 E14.7421
G1 X116.756 Y48.794 E14.78759
G1 X118.017 Y48.941 E14.82981
G1 X118.316 Y48.984 E14.83986
G1 X119.97 Y49.233 E14.89549
G1 X120.687 Y49.351 E14.91966
G1 X121.489 Y49.502 E14.94681
G1 X122.863 Y49.78 E14.99343
G1 X124.01 Y50.031 E15.03248
G1 X124.368 Y50.12 E15.04475
G1 X125.927 Y50.516 E15.09825
G1 X126.605 Y50.697 E15.12159
G1 X127.511 Y50.964 E15.15301
G1 X128.798 Y51.361 E15.1978
G1 X129.933 Y51.731 E15.23751
G1 X130.223 Y51.834 E15.24774
G1 X131.799 Y52.408 E15.30353
G1 X132.507 Y52.677 E15.32872
G1 X133.261 Y52.983 E15.35579
G1 X134.897 Y53.674 E15.41485
G1 X135.005 Y53.722 E15.41878
G1 X136.17 Y54.26 E15.46146
G1 X137.569 Y54.933 E15.5131
G1 X137.675 Y54.986 E15.51704
G1 X138.956 Y55.656 E15.56512
G1 X140.137 Y56.3 E15.60986
G1 X140.971 Y56.771 E15.64172
G1 X141.397 Y57.023 E15.65818
G1 X142.736 Y57.843 E15.71041
G1 X143.616 Y58.398 E15.74501
G1 X143.894 Y58.583 E15.75612
G1 X145.157 Y59.445 E15.80698
G1 X146.5 Y60.4 E15.86179
G1 X147.715 Y61.322 E15.91251
G1 X148.765 Y62.146 E15.95691
G1 X150.137 Y63.295 E16.01643
G1 X150.944 Y63.996 E16.05198
G1 X151.269 Y64.293 E16.06663
G1 X152.418 Y65.359 E16.11876
G1 X153.08 Y65.989 E16.14915
G1 X153.516 Y66.426 E16.16968
G1 X154.651 Y67.59 E16.22376
G1 X155.214 Y68.185 E16.251
G1 X155.699 Y68.721 E16.27504
G1 X156.584 Y69.725 E16.31956
G1 X157.382 Y70.657 E16.36037
G1 X157.461 Y70.752 E16.36448
G1 X158.64 Y72.23 E16.42736
G1 X159.155 Y72.895 E16.45533
G1 X159.561 Y73.446 E16.4781
G1 X160.388 Y74.597 E16.52524
G1 X161.049 Y75.55 E16.56381
G1 X161.285 Y75.908 E16.57807
G1 X162.151 Y77.249 E16.63117
G1 X162.556 Y77.892 E16.65644
G1 X162.934 Y78.528 E16.68105
G1 X163.751 Y79.943 E16.73539
G1 X164.125 Y80.614 E16.76095
G1 X164.452 Y81.234 E16.78426
G1 X165.097 Y82.493 E16.83131
G1 X165.649 Y83.616 E16.87293
G1 X165.777 Y83.892 E16.88305
G1 X166.46 Y85.405 E16.93826
G1 X166.787 Y86.16 E16.96563
G1 X167.039 Y86.781 E16.98792
G1 X167.594 Y88.196 E17.03847
G1 X167.912 Y89.039 E17.06844
G1 X168.111 Y89.61 E17.08855
G1 X168.6 Y91.065 E17.1396
G1 X168.925 Y92.085 E17.17521
G1 X169.053 Y92.519 E17.19026
G1 X169.506 Y94.132 E17.24598
G1 X169.669 Y94.744 E17.26705
G1 X169.888 Y95.647 E17.29795
G1 X170.235 Y97.17 E17.3499
G1 X170.353 Y97.717 E17.36852
G1 X170.53 Y98.653 E17.4002
G1 X170.804 Y100.203 E17.45255
G1 X170.878 Y100.665 E17.46811
