;FLAVOR:Marlin
;TIME:3717
;Filament used: 0.711087m
;Layer height: 0.1
;MINX:83.144
;MINY:88.576
;MINZ:0.1
;MAXX:137.06
;MAXY:132.892
;MAXZ:4
;Generated with Cura_SteamEngine master
M82 ;absolute extrusion mode
;Sliced at: Sun 20-11-2022 19:06:57
;Basic settings: Layer height: 0.1 Walls: 0.8 Fill: 100.0
G21 ;metric values
G90 ;absolute positioning
M82 ;set extruder to absolute mode
M107 ;start with the fan off
M117 Start heating ...
M104 S200
M117 Homing X/Y ...
G28 X0 Y0 ;move X/Y to min endstops
M117 Homing Z ...
G28 Z0 ;move Z to min endstops
G1 Z15.0 F50 ;move the platform down 15mm
M117 Heating ...
M109 S200
M117 Start cleaning ...
G92 E0 ;zero the extruded length
G1 F200 E10 ;extrude 10mm of feed stock
G92 E0 ;zero the extruded length again
M117 Intro line ...
G1 Z2.0 F3000 ; Move Z Axis up little to prevent scratching of Heat Bed
G1 X0.1 Y20 Z0.1 F5000.0 ; Move to start position
G1 X0.1 Y200.0 Z0.1 F1500.0 E15 ; Draw the first line
G1 X0.4 Y200.0 Z0.1 F5000.0 ; Move to side a little
G1 X0.4 Y20 Z0.3 F1500.0 E30 ; Draw the second line
G92 E0 ; Reset Extruder
G1 E-1 F500 ; Retract filiment by 1 mm
G1 Z2.0 F3000 ; Move Z Axis up little to prevent scratching of Heat Bed
G1 X5 Y20 Z0.3 F50 ; Move over to prevent blob squish
G1 F50
G92 E0 ; Reset Extruder
M117 Printing...

G92 E0
G92 E0
G1 F1800 E-7
;LAYER_COUNT:38
;LAYER:0
M107
G1 F300 Z0.3
G0 F1500 X85.094 Y93.757 Z0.3
;TYPE:SKIRT
G1 F300 Z0.1
G1 F1800 E0
G1 F900 X85.559 Y93.436 E0.0094
G1 X86.276 Y93.103 E0.02254
G1 X87.461 Y92.69 E0.04341
G1 X87.825 Y92.569 E0.04979
G1 X90.336 Y91.652 E0.09425
G1 X92.868 Y90.647 E0.13955
G1 X96.395 Y89.106 E0.20356
G1 X96.676 Y88.978 E0.20869
G1 X97.206 Y88.78 E0.2181
G1 X97.899 Y88.64 E0.22986
G1 X98.617 Y88.581 E0.24184
G1 X98.93 Y88.578 E0.24705
G1 X104.846 Y88.579 E0.34543
G1 X105.512 Y88.587 E0.35651
G1 X105.996 Y88.601 E0.36456
G1 X108.685 Y88.65 E0.40928
G1 X111.976 Y88.608 E0.46402
G1 X112.973 Y88.58 E0.4806
G1 X113.526 Y88.58 E0.4898
G1 X114.298 Y88.592 E0.50264
G1 X117.127 Y88.675 E0.54971
G1 X119.866 Y88.677 E0.59526
G1 X123.509 Y88.576 E0.65586
G1 X124.034 Y88.576 E0.66459
G1 X124.738 Y88.587 E0.6763
G1 X125.302 Y88.636 E0.68572
G1 X125.852 Y88.764 E0.69511
G1 X126.556 Y89.057 E0.70779
G1 X126.915 Y89.248 E0.71455
G1 X128.761 Y90.277 E0.7497
G1 X131.183 Y91.539 E0.79512
G1 X133.578 Y92.704 E0.83941
G1 X134.746 Y93.251 E0.86086
G1 X135.24 Y93.526 E0.87026
G1 X135.622 Y93.81 E0.87818
G1 X136.029 Y94.202 E0.88757
G1 X136.378 Y94.647 E0.89698
G1 X136.66 Y95.137 E0.90638
G1 X136.87 Y95.662 E0.91578
G1 X137.004 Y96.211 E0.92518
G1 X137.06 Y96.774 E0.93459
G1 X137.047 Y97.217 E0.94196
G1 X136.94 Y98.491 E0.96322
G1 X136.887 Y99.035 E0.97231
G1 X136.702 Y101.742 E1.01743
G1 X136.637 Y103.601 E1.04837
G1 X136.576 Y104.991 E1.07151
G1 X136.512 Y105.553 E1.08091
G1 X136.371 Y106.113 E1.09052
G1 X136.182 Y106.645 E1.0999
G1 X135.818 Y107.302 E1.1124
G1 X135.271 Y108.101 E1.1285
G1 X132.109 Y112.551 E1.21928
G1 X131.033 Y114.021 E1.24958
G1 X129.428 Y116.28 E1.29566
G1 X128.445 Y117.725 E1.32472
G1 X128.195 Y118.075 E1.33188
G1 X127.773 Y118.651 E1.34375
G1 X126.049 Y120.931 E1.39129
G1 X124.481 Y123.134 E1.43626
G1 X122.496 Y126.098 E1.49558
G1 X122.147 Y126.591 E1.50563
G1 X121.739 Y127.151 E1.51715
G1 X121.375 Y127.584 E1.52656
G1 X120.783 Y128.085 E1.53945
G1 X120.162 Y128.44 E1.55135
G1 X119.07 Y128.941 E1.57133
G1 X116.628 Y130.105 E1.61632
G1 X114.16 Y131.367 E1.66241
G1 X112.674 Y132.181 E1.69059
G1 X112.186 Y132.438 E1.69976
G1 X111.668 Y132.666 E1.70918
G1 X111.124 Y132.818 E1.71857
G1 X110.563 Y132.892 E1.72798
G1 X109.998 Y132.886 E1.73738
G1 X109.439 Y132.8 E1.74678
G1 X108.898 Y132.637 E1.75618
G1 X108.385 Y132.399 E1.76558
G1 X107.928 Y132.111 E1.77456
G1 X105.597 Y130.606 E1.82071
G1 X103.295 Y129.21 E1.86548
G1 X100.053 Y127.387 E1.92733
G1 X99.413 Y127.044 E1.93941
G1 X98.935 Y126.742 E1.94881
G1 X98.464 Y126.336 E1.95915
G1 X98.224 Y126.094 E1.96482
G1 X97.831 Y125.632 E1.97491
G1 X97.547 Y125.242 E1.98293
G1 X94.179 Y120.495 E2.07972
G1 X93.16 Y119.014 E2.10962
G1 X91.555 Y116.751 E2.15576
G1 X90.694 Y115.592 E2.17977
G1 X90.332 Y115.082 E2.19017
G1 X89.857 Y114.392 E2.2041
G1 X89.763 Y114.248 E2.20696
G1 X88.208 Y111.921 E2.2535
G1 X86.656 Y109.737 E2.29806
G1 X84.611 Y107.02 E2.35461
G1 X84.282 Y106.558 E2.36404
G1 X83.847 Y105.927 E2.37679
G1 X83.56 Y105.44 E2.38619
G1 X83.344 Y104.917 E2.3956
G1 X83.205 Y104.369 E2.405
G1 X83.144 Y103.807 E2.4144
G1 X83.18 Y102.986 E2.42807
G1 X83.361 Y100.975 E2.46165
G1 X83.528 Y98.24 E2.50722
G1 X83.539 Y97.916 E2.51261
G1 X83.597 Y96.691 E2.533
G1 X83.664 Y96.129 E2.54241
G1 X83.809 Y95.583 E2.55181
G1 X84.03 Y95.063 E2.56121
G1 X84.322 Y94.578 E2.57062
G1 X84.679 Y94.14 E2.58002
G1 X85.094 Y93.757 E2.58941
G0 F1500 X85.475 Y93.969
G1 F900 X85.931 Y93.686 E2.59833
G1 X86.408 Y93.481 E2.60697
G1 X87.587 Y93.07 E2.62773
G1 X87.921 Y92.959 E2.63358
G1 X90.504 Y92.016 E2.67931
G1 X93.032 Y91.012 E2.72455
G1 X96.572 Y89.466 E2.78879
G1 X96.843 Y89.342 E2.79374
G1 X97.346 Y89.156 E2.80266
G1 X97.943 Y89.038 E2.81278
G1 X98.62 Y88.981 E2.82408
G1 X98.933 Y88.978 E2.82929
G1 X104.837 Y88.979 E2.92747
G1 X105.51 Y88.987 E2.93866
G1 X105.976 Y89.001 E2.94642
G1 X108.683 Y89.05 E2.99144
G1 X111.984 Y89.008 E3.04634
G1 X112.973 Y88.98 E3.0628
G1 X113.521 Y88.98 E3.07191
G1 X114.287 Y88.992 E3.08465
G1 X117.116 Y89.075 E3.13172
G1 X119.842 Y89.077 E3.17705
G1 X122.53 Y89.003 E3.22177
G1 X123.509 Y88.976 E3.23805
G1 X124.028 Y88.976 E3.24669
G1 X124.732 Y88.987 E3.25839
G1 X125.266 Y89.036 E3.26731
G1 X125.787 Y89.163 E3.27623
G1 X126.368 Y89.41 E3.28673
G1 X126.72 Y89.598 E3.29337
G1 X128.56 Y90.624 E3.3284
G1 X131.002 Y91.896 E3.37419
G1 X133.365 Y93.045 E3.41789
G1 X134.577 Y93.613 E3.44015
G1 X135.044 Y93.876 E3.44906
G1 X135.366 Y94.117 E3.45575
G1 X135.751 Y94.49 E3.46466
G1 X136.077 Y94.917 E3.4736
G1 X136.335 Y95.386 E3.4825
G1 X136.521 Y95.889 E3.49142
G1 X136.63 Y96.414 E3.50033
G1 X136.648 Y97.183 E3.51313
G1 X136.542 Y98.452 E3.5343
G1 X136.488 Y99.002 E3.54349
G1 X136.302 Y101.731 E3.58898
G1 X136.238 Y103.584 E3.61982
G1 X136.177 Y104.974 E3.64295
G1 X136.113 Y105.506 E3.65186
G1 X135.986 Y106.006 E3.66044
G1 X135.804 Y106.51 E3.66936
G1 X135.488 Y107.076 E3.68014
G1 X134.945 Y107.869 E3.69612
G1 X131.786 Y112.314 E3.78681
G1 X130.74 Y113.743 E3.81626
G1 X129.114 Y116.031 E3.86294
G1 X128.12 Y117.493 E3.89234
G1 X127.873 Y117.838 E3.89939
G1 X127.454 Y118.409 E3.91117
G1 X125.732 Y120.687 E3.95866
G1 X124.138 Y122.925 E4.00435
G1 X122.109 Y125.954 E4.06498
G1 X121.824 Y126.356 E4.07318
G1 X121.416 Y126.916 E4.0847
G1 X121.068 Y127.325 E4.09363
G1 X120.555 Y127.756 E4.10477
G1 X119.995 Y128.077 E4.11551
G1 X118.886 Y128.586 E4.1358
G1 X116.438 Y129.752 E4.18089
G1 X113.979 Y131.01 E4.22683
G1 X112.487 Y131.827 E4.25511
G1 X111.999 Y132.084 E4.26429
G1 X111.508 Y132.298 E4.27319
G1 X110.99 Y132.437 E4.28211
G1 X110.457 Y132.496 E4.29103
G1 X109.921 Y132.477 E4.29995
G1 X109.394 Y132.377 E4.30887
G1 X108.887 Y132.201 E4.3178
G1 X108.337 Y131.903 E4.3282
G1 X108.113 Y131.755 E4.33266
G1 X105.816 Y130.271 E4.37814
G1 X103.483 Y128.857 E4.42351
G1 X100.24 Y127.033 E4.48538
G1 X99.602 Y126.691 E4.49742
G1 X99.15 Y126.403 E4.50634
G1 X98.748 Y126.054 E4.51519
G1 X98.508 Y125.812 E4.52086
G1 X98.154 Y125.397 E4.52993
G1 X97.873 Y125.01 E4.53788
G1 X94.509 Y120.268 E4.63457
G1 X93.486 Y118.782 E4.66457
G1 X91.877 Y116.513 E4.71083
G1 X90.97 Y115.291 E4.73614
G1 X90.661 Y114.855 E4.74502
G1 X90.192 Y114.174 E4.75878
G1 X90.071 Y113.988 E4.76247
G1 X88.562 Y111.73 E4.80763
G1 X86.974 Y109.494 E4.85324
G1 X84.931 Y106.78 E4.90973
G1 X84.581 Y106.288 E4.91977
G1 X84.176 Y105.7 E4.93165
G1 X83.906 Y105.237 E4.94056
G1 X83.707 Y104.739 E4.94948
G1 X83.585 Y104.217 E4.95839
G1 X83.541 Y103.682 E4.96732
G1 X83.579 Y103.016 E4.97841
G1 X83.761 Y101 E5.01208
G1 X83.927 Y98.279 E5.05741
G1 X83.939 Y97.935 E5.06313
G1 X83.997 Y96.71 E5.08353
G1 X84.062 Y96.177 E5.09246
G1 X84.206 Y95.661 E5.10137
G1 X84.424 Y95.171 E5.11029
G1 X84.714 Y94.719 E5.11922
G1 X85.066 Y94.316 E5.12812
G1 X85.475 Y93.969 E5.13704
G0 F1500 X85.453 Y94.501
G1 F900 X85.854 Y94.194 E5.14543
G1 X86.299 Y93.953 E5.15385
G1 X86.539 Y93.858 E5.15814
G1 X87.713 Y93.449 E5.17882
G1 X88.09 Y93.324 E5.18542
G1 X90.641 Y92.392 E5.23059
G1 X93.161 Y91.392 E5.27568
G1 X96.732 Y89.833 E5.34047
G1 X97.009 Y89.706 E5.34554
G1 X97.484 Y89.532 E5.35395
G1 X97.987 Y89.435 E5.36247
G1 X98.624 Y89.381 E5.3731
G1 X98.937 Y89.378 E5.37831
G1 X104.827 Y89.379 E5.47626
G1 X105.508 Y89.387 E5.48759
G1 X105.958 Y89.401 E5.49507
G1 X108.681 Y89.45 E5.54036
G1 X111.952 Y89.408 E5.59477
G1 X112.878 Y89.381 E5.61017
G1 X113.515 Y89.38 E5.62077
G1 X114.275 Y89.391 E5.63341
G1 X117.138 Y89.475 E5.68104
G1 X119.852 Y89.477 E5.72617
G1 X123.509 Y89.376 E5.78701
G1 X124.022 Y89.376 E5.79554
G1 X124.726 Y89.387 E5.80725
G1 X125.229 Y89.435 E5.81565
G1 X125.719 Y89.562 E5.82407
G1 X126.18 Y89.763 E5.83244
G1 X126.525 Y89.947 E5.83894
G1 X128.387 Y90.985 E5.87439
G1 X130.792 Y92.238 E5.91949
G1 X133.219 Y93.418 E5.96437
G1 X134.407 Y93.975 E5.98619
G1 X134.846 Y94.225 E5.99459
G1 X135.11 Y94.425 E6.0001
G1 X135.471 Y94.778 E6.00849
G1 X135.773 Y95.184 E6.01691
G1 X136.006 Y95.632 E6.02531
G1 X136.167 Y96.112 E6.03373
G1 X136.249 Y96.61 E6.04212
G1 X136.25 Y97.15 E6.0511
G1 X136.144 Y98.413 E6.07218
G1 X136.089 Y98.971 E6.0815
G1 X135.902 Y101.718 E6.12729
G1 X135.838 Y103.566 E6.15804
G1 X135.777 Y104.956 E6.18118
G1 X135.663 Y105.672 E6.19324
G1 X135.6 Y105.899 E6.19715
G1 X135.427 Y106.374 E6.20556
G1 X135.158 Y106.85 E6.21465
G1 X134.619 Y107.637 E6.23052
G1 X131.463 Y112.078 E6.32112
G1 X130.387 Y113.548 E6.35141
G1 X128.814 Y115.762 E6.39658
G1 X127.836 Y117.201 E6.42551
G1 X127.55 Y117.602 E6.43371
G1 X127.134 Y118.168 E6.44539
G1 X125.419 Y120.437 E6.49269
G1 X123.824 Y122.677 E6.53842
G1 X121.783 Y125.722 E6.59938
G1 X121.5 Y126.12 E6.6075
G1 X121.092 Y126.68 E6.61902
G1 X120.763 Y127.064 E6.62743
G1 X120.314 Y127.436 E6.63713
G1 X119.828 Y127.713 E6.64643
G1 X118.76 Y128.203 E6.66597
G1 X116.262 Y129.393 E6.71199
G1 X113.784 Y130.661 E6.75828
G1 X112.301 Y131.473 E6.7864
G1 X111.813 Y131.73 E6.79557
G1 X111.349 Y131.93 E6.80397
G1 X110.858 Y132.054 E6.81239
G1 X110.355 Y132.099 E6.82079
G1 X109.85 Y132.064 E6.82921
G1 X109.358 Y131.95 E6.83761
G1 X108.889 Y131.76 E6.84602
G1 X108.334 Y131.421 E6.85684
G1 X106.019 Y129.926 E6.90267
G1 X103.686 Y128.511 E6.94804
G1 X100.462 Y126.699 E7.00955
G1 X99.791 Y126.339 E7.02221
G1 X99.366 Y126.065 E7.03062
G1 X98.792 Y125.53 E7.04367
G1 X98.223 Y124.811 E7.05892
G1 X94.864 Y120.079 E7.15542
G1 X93.787 Y118.514 E7.18701
G1 X92.218 Y116.302 E7.23211
G1 X91.296 Y115.059 E7.25785
G1 X90.99 Y114.627 E7.26665
G1 X90.528 Y113.956 E7.2802
G1 X90.407 Y113.77 E7.28389
G1 X88.893 Y111.505 E7.3292
G1 X87.287 Y109.244 E7.37532
G1 X85.25 Y106.539 E7.43163
G1 X84.934 Y106.095 E7.4407
G1 X84.506 Y105.473 E7.45325
G1 X84.253 Y105.035 E7.46166
G1 X84.072 Y104.563 E7.47007
G1 X83.967 Y104.069 E7.47847
G1 X83.95 Y103.418 E7.4893
G1 X83.982 Y102.998 E7.4963
G1 X84.16 Y101.026 E7.52923
G1 X84.328 Y98.281 E7.57497
G1 X84.339 Y97.954 E7.58041
G1 X84.397 Y96.729 E7.6008
G1 X84.46 Y96.227 E7.60922
G1 X84.602 Y95.742 E7.61762
G1 X84.819 Y95.285 E7.62603
G1 X85.105 Y94.868 E7.63444
G1 X85.453 Y94.501 E7.64285
G1 F1800 E0.64285
G1 F300 Z0.3
;MESH:GeodesicDome-5Angle-Red.stl
G0 F1500 X90.754 Y98.922 Z0.3
;TYPE:WALL-INNER
G1 F300 Z0.1
G1 F1800 E7.64285
G1 F900 X105.761 Y120.067 E8.07406
G1 X108.627 Y120.067 E8.12172
G1 X107.685 Y122.966 E8.17241
G1 X110.322 Y124.883 E8.22663
G1 X112.958 Y122.966 E8.28083
G1 X112.016 Y120.067 E8.33152
G1 X114.885 Y120.067 E8.37923
G1 X129.9 Y98.922 E8.81052
G1 X129.564 Y98.273 E8.82267
G1 X91.09 Y98.273 E9.46249
G1 X90.754 Y98.922 E9.47465
G0 F1500 X91.221 Y98.889
;TYPE:WALL-OUTER
G1 F900 X105.968 Y119.667 E9.89837
G1 X114.678 Y119.667 E10.04322
G1 X129.433 Y98.889 E10.46702
G1 X129.321 Y98.673 E10.47107
G1 X91.333 Y98.673 E11.10281
G1 X91.221 Y98.889 E11.10686
G0 F1500 X91.336 Y99.052
G0 X90.978 Y99.305
G1 F1800 E4.10686
G0 F1500 X106.07 Y120.244
G0 X108.37 Y120.254
G0 X107.97 Y121.501
G0 X108.038 Y122.973
G1 F1800 E11.10686
G0 F1500 X108.155 Y122.813
G1 F900 X110.322 Y124.388 E11.15141
G1 X112.488 Y122.813 E11.19594
G1 X111.66 Y120.267 E11.24047
G1 X108.983 Y120.267 E11.28498
G1 X108.155 Y122.813 E11.32951
G0 F1500 X108.316 Y122.93
G0 X108.057 Y123.286
G1 F1800 E4.32951
G1 F300 Z0.3
G0 F1500 X108.022 Y123.334 Z0.3
G0 X128.607 Y109.537
;TYPE:WALL-INNER
G1 F300 Z0.1
G1 F1800 E11.32951
G1 F900 X126.797 Y108.251 E11.36643
G1 X126.463 Y108.06 E11.37283
G1 X126.067 Y107.93 E11.37976
G1 X125.66 Y107.878 E11.38659
G1 X125.254 Y107.907 E11.39335
G1 X124.855 Y108.014 E11.40022
G1 X124.486 Y108.2 E11.4071
G1 X124.16 Y108.452 E11.41395
G1 X123.909 Y108.74 E11.4203
G1 X122.309 Y110.993 E11.46626
G1 X122.098 Y111.377 E11.47354
G1 X121.968 Y111.828 E11.48135
G1 X121.941 Y112.298 E11.48918
G1 X122.02 Y112.762 E11.497
G1 X122.199 Y113.198 E11.50484
G1 X122.473 Y113.583 E11.5127
G1 X122.798 Y113.874 E11.51996
G1 X124.619 Y115.167 E11.5571
G1 X124.444 Y115.412 E11.5621
G1 X122.625 Y114.12 E11.59004
G1 X122.243 Y113.907 E11.5964
G1 X121.789 Y113.777 E11.60426
G1 X121.313 Y113.75 E11.61219
G1 X120.849 Y113.83 E11.62002
G1 X120.418 Y114.009 E11.62778
G1 X120.035 Y114.282 E11.6356
G1 X119.743 Y114.607 E11.64286
G1 X116.23 Y119.554 E11.74377
G1 X116.019 Y119.937 E11.75104
G1 X115.888 Y120.389 E11.75886
G1 X115.862 Y120.86 E11.76671
G1 X115.941 Y121.323 E11.77452
G1 X116.12 Y121.759 E11.78236
G1 X116.393 Y122.144 E11.79021
G1 X116.719 Y122.436 E11.79749
G1 X118.539 Y123.728 E11.8346
G1 X118.366 Y123.972 E11.83958
G1 X116.545 Y122.68 E11.8674
G1 X116.162 Y122.468 E11.87376
G1 X115.711 Y122.338 E11.88156
G1 X115.234 Y122.311 E11.88951
G1 X114.77 Y122.392 E11.89734
G1 X114.339 Y122.571 E11.9051
G1 X113.956 Y122.843 E11.91291
G1 X113.664 Y123.168 E11.92018
G1 X110.322 Y127.875 E12.01618
G1 X105.694 Y121.354 E12.14916
G1 X105.443 Y121.066 E12.15551
G1 X105.117 Y120.814 E12.16237
G1 X104.749 Y120.629 E12.16922
G1 X104.351 Y120.521 E12.17607
G1 X103.94 Y120.491 E12.18293
G1 X103.529 Y120.543 E12.18982
G1 X103.14 Y120.675 E12.19665
G1 X102.807 Y120.864 E12.20302
G1 X100.994 Y122.151 E12.23999
G1 X98.216 Y118.236 E12.31982
G1 X100.029 Y116.95 E12.35679
G1 X100.318 Y116.699 E12.36315
G1 X100.571 Y116.373 E12.37002
G1 X100.755 Y116.003 E12.37689
G1 X100.862 Y115.606 E12.38373
G1 X100.892 Y115.196 E12.39056
G1 X100.84 Y114.785 E12.39745
G1 X100.709 Y114.396 E12.40428
G1 X100.52 Y114.063 E12.41065
G1 X98.92 Y111.809 E12.45661
G1 X98.628 Y111.483 E12.46389
G1 X98.244 Y111.212 E12.47171
G1 X97.81 Y111.031 E12.47953
G1 X97.344 Y110.952 E12.48739
G1 X96.873 Y110.979 E12.49523
G1 X96.422 Y111.109 E12.50304
G1 X96.04 Y111.32 E12.5103
G1 X94.219 Y112.612 E12.54743
G1 X94.045 Y112.367 E12.55243
G1 X95.869 Y111.073 E12.58039
G1 X96.192 Y110.784 E12.5867
G1 X96.463 Y110.4 E12.59452
G1 X96.644 Y109.966 E12.60234
G1 X96.723 Y109.5 E12.6102
G1 X96.696 Y109.029 E12.61804
G1 X96.566 Y108.578 E12.62585
G1 X96.355 Y108.196 E12.63311
G1 X92.843 Y103.247 E12.73403
G1 X92.551 Y102.921 E12.7413
G1 X92.167 Y102.649 E12.74913
G1 X91.733 Y102.468 E12.75695
G1 X91.267 Y102.389 E12.76481
G1 X90.796 Y102.416 E12.77266
G1 X90.345 Y102.546 E12.78046
G1 X89.962 Y102.758 E12.78774
G1 X88.142 Y104.05 E12.82486
G1 X87.968 Y103.804 E12.82987
G1 X89.789 Y102.513 E12.85778
G1 X90.114 Y102.222 E12.86411
G1 X90.386 Y101.838 E12.87194
G1 X90.567 Y101.403 E12.87978
G1 X90.646 Y100.937 E12.88764
G1 X90.619 Y100.467 E12.89546
G1 X90.489 Y100.015 E12.90329
G1 X90.278 Y99.633 E12.91054
G1 X88.745 Y97.473 E12.95459
G1 X97.515 Y97.473 E13.10044
G1 X97.95 Y97.423 E13.10772
G1 X98.394 Y97.267 E13.11555
G1 X98.793 Y97.016 E13.12338
G1 X99.124 Y96.683 E13.13119
G1 X99.375 Y96.285 E13.13902
G1 X99.53 Y95.839 E13.14687
G1 X99.579 Y95.392 E13.15435
G1 X99.579 Y93.178 E13.19117
G1 X104.379 Y93.178 E13.27099
G1 X104.379 Y95.411 E13.30813
