;FLAVOR:Marlin
;TIME:2825
;Filament used: 0.542143m
;Layer height: 0.1
;MINX:82.948
;MINY:86.701
;MINZ:0.1
;MAXX:137.373
;MAXY:132.894
;MAXZ:4
;Generated with Cura_SteamEngine master
M82 ;absolute extrusion mode
;Sliced at: Mon 07-03-2022 21:58:21
;Basic settings: Layer height: 0.1 Walls: 0.8 Fill: 20
G21 ;metric values
G90 ;absolute positioning
M82 ;set extruder to absolute mode
M107 ;start with the fan off
M117 Start heating ...
M104 S200
M117 Homing X/Y ...
G28 X0 Y0 ;move X/Y to min endstops
M117 Homing Z ...
G28 Z0 ;move Z to min endstops
G1 Z15.0 F50 ;move the platform down 15mm
M117 Heating ...
M109 S200
M117 Start cleaning ...
G92 E0 ;zero the extruded length
G1 F200 E10 ;extrude 10mm of feed stock
G92 E0 ;zero the extruded length again
M117 Intro line ...
G1 Z2.0 F3000 ; Move Z Axis up little to prevent scratching of Heat Bed
G1 X0.1 Y20 Z0.1 F5000.0 ; Move to start position
G1 X0.1 Y200.0 Z0.1 F1500.0 E15 ; Draw the first line
G1 X0.4 Y200.0 Z0.1 F5000.0 ; Move to side a little
G1 X0.4 Y20 Z0.3 F1500.0 E30 ; Draw the second line
G92 E0 ; Reset Extruder
G1 E-1 F500 ; Retract filiment by 1 mm
G1 Z2.0 F3000 ; Move Z Axis up little to prevent scratching of Heat Bed
G1 X5 Y20 Z0.3 F50 ; Move over to prevent blob squish
G1 F50
G92 E0 ; Reset Extruder
M117 Printing...

G92 E0
G92 E0
G1 F1800 E-7
;LAYER_COUNT:38
;LAYER:0
M107
G1 F300 Z0.3
G0 F1500 X85.069 Y94.053 Z0.3
;TYPE:SKIRT
G1 F300 Z0.1
G1 F1800 E0
G1 F900 X85.495 Y93.682 E0.00939
G1 X86.063 Y93.324 E0.02056
G1 X86.556 Y93.069 E0.02979
G1 X88.117 Y92.291 E0.0588
G1 X90.482 Y91.026 E0.1034
G1 X92.856 Y89.669 E0.14887
G1 X94.235 Y88.828 E0.17573
G1 X94.639 Y88.592 E0.18351
G1 X95.146 Y88.342 E0.19292
G1 X95.64 Y88.172 E0.2016
G1 X96.284 Y88.023 E0.2126
G1 X96.593 Y87.978 E0.21779
G1 X97.28 Y87.938 E0.22923
G1 X97.547 Y87.945 E0.23368
G1 X100.318 Y87.983 E0.27976
G1 X103.057 Y87.943 E0.32532
G1 X105.733 Y87.828 E0.36986
G1 X108.464 Y87.633 E0.41539
G1 X111.133 Y87.367 E0.46
G1 X114.573 Y86.913 E0.5177
G1 X115.712 Y86.743 E0.53685
G1 X116.441 Y86.701 E0.549
G1 X119.218 Y86.796 E0.5952
G1 X121.91 Y86.814 E0.63997
G1 X123.522 Y86.773 E0.66679
G1 X123.723 Y86.782 E0.67014
G1 X124.927 Y86.753 E0.69016
G1 X125.492 Y86.779 E0.69957
G1 X126.047 Y86.885 E0.70897
G1 X126.582 Y87.068 E0.71837
G1 X127.086 Y87.324 E0.72777
G1 X127.505 Y87.614 E0.73624
G1 X129.821 Y89.446 E0.78535
G1 X131.96 Y91.042 E0.82974
G1 X134.224 Y92.631 E0.87573
G1 X135.596 Y93.548 E0.90318
G1 X136.043 Y93.894 E0.91258
G1 X136.436 Y94.3 E0.92197
G1 X136.768 Y94.758 E0.93138
G1 X137.032 Y95.258 E0.94078
G1 X137.224 Y95.79 E0.95019
G1 X137.338 Y96.343 E0.95958
G1 X137.373 Y96.908 E0.96899
G1 X137.359 Y97.205 E0.97394
G1 X137.272 Y98.248 E0.99134
G1 X137.193 Y99.056 E1.00485
G1 X137.009 Y101.708 E1.04905
G1 X136.864 Y105.808 E1.11728
G1 X136.81 Y106.335 E1.12609
G1 X136.681 Y106.919 E1.13604
G1 X136.485 Y107.513 E1.14644
G1 X136.191 Y108.118 E1.15762
G1 X136.014 Y108.419 E1.16343
G1 X135.391 Y109.375 E1.18241
G1 X133.893 Y111.744 E1.22902
G1 X132.537 Y114.03 E1.27322
G1 X131.208 Y116.42 E1.3187
G1 X129.725 Y119.294 E1.37248
G1 X129.547 Y119.654 E1.37916
G1 X129.193 Y120.238 E1.39052
G1 X128.713 Y120.896 E1.40406
G1 X127.11 Y123.162 E1.45022
G1 X125.611 Y125.416 E1.49524
G1 X125.129 Y126.19 E1.5104
G1 X124.468 Y127.218 E1.53073
G1 X124.129 Y127.671 E1.54014
G1 X123.73 Y128.072 E1.54954
G1 X123.278 Y128.412 E1.55895
G1 X122.783 Y128.685 E1.56835
G1 X122.174 Y128.913 E1.57916
G1 X119.907 Y129.634 E1.61873
G1 X117.354 Y130.527 E1.6637
G1 X114.781 Y131.508 E1.7095
G1 X112.728 Y132.352 E1.74641
G1 X112.195 Y132.578 E1.75604
G1 X111.661 Y132.761 E1.76543
G1 X111.105 Y132.867 E1.77484
G1 X110.541 Y132.894 E1.78423
G1 X109.978 Y132.841 E1.79363
G1 X109.428 Y132.709 E1.80304
G1 X108.903 Y132.501 E1.81243
G1 X108.611 Y132.346 E1.81793
G1 X107.639 Y131.775 E1.83668
G1 X107.022 Y131.401 E1.84867
G1 X104.632 Y130.042 E1.8944
G1 X102.256 Y128.777 E1.93916
G1 X99.767 Y127.551 E1.9853
G1 X99.246 Y127.272 E1.99513
G1 X99.018 Y127.132 E1.99958
G1 X98.434 Y126.695 E2.01171
G1 X98.202 Y126.486 E2.0169
G1 X97.74 Y125.993 E2.02814
G1 X97.454 Y125.63 E2.03582
G1 X96.655 Y124.582 E2.05774
G1 X94.957 Y122.481 E2.10266
G1 X93.181 Y120.406 E2.14809
G1 X91.368 Y118.405 E2.19299
G1 X89.371 Y116.324 E2.24095
G1 X89.171 Y116.12 E2.2457
G1 X88.744 Y115.607 E2.2568
G1 X88.321 Y115.001 E2.26909
G1 X87.577 Y113.903 E2.29115
G1 X86.01 Y111.725 E2.33577
G1 X84.359 Y109.562 E2.38102
G1 X83.771 Y108.804 E2.39698
G1 X83.456 Y108.334 E2.40639
G1 X83.211 Y107.825 E2.41578
G1 X83.041 Y107.286 E2.42518
G1 X82.948 Y106.728 E2.43459
G1 X82.952 Y105.935 E2.44778
G1 X83.031 Y105.18 E2.4604
G1 X83.045 Y105.063 E2.46236
G1 X83.205 Y103.873 E2.48233
G1 X83.53 Y101.181 E2.52742
G1 X83.78 Y98.467 E2.57275
G1 X83.821 Y97.822 E2.58349
G1 X83.916 Y96.572 E2.60434
G1 X83.998 Y96.013 E2.61374
G1 X84.159 Y95.471 E2.62314
G1 X84.394 Y94.957 E2.63254
G1 X84.7 Y94.481 E2.64195
G1 X85.069 Y94.053 E2.65135
G0 F1500 X85.452 Y94.239
G1 F900 X85.87 Y93.904 E2.66025
G1 X86.683 Y93.453 E2.67572
G1 X88.291 Y92.651 E2.7056
G1 X90.702 Y91.362 E2.75106
G1 X93.072 Y90.007 E2.79646
G1 X94.437 Y89.174 E2.82306
G1 X94.841 Y88.938 E2.83084
G1 X95.559 Y88.617 E2.84392
G1 X95.762 Y88.552 E2.84746
G1 X96.341 Y88.419 E2.85734
G1 X96.65 Y88.374 E2.86254
G1 X97.269 Y88.337 E2.87285
G1 X97.57 Y88.345 E2.87785
G1 X100.319 Y88.383 E2.92358
G1 X103.047 Y88.344 E2.96895
G1 X105.776 Y88.226 E3.01437
G1 X108.499 Y88.032 E3.05977
G1 X111.196 Y87.763 E3.10484
G1 X114.62 Y87.311 E3.16228
G1 X115.771 Y87.139 E3.18163
G1 X116.428 Y87.101 E3.19258
G1 X119.203 Y87.196 E3.23875
G1 X121.918 Y87.214 E3.28391
G1 X123.532 Y87.173 E3.31075
G1 X123.721 Y87.183 E3.3139
G1 X124.937 Y87.153 E3.33413
G1 X125.472 Y87.18 E3.34304
G1 X125.998 Y87.286 E3.35196
G1 X126.502 Y87.469 E3.36088
G1 X126.973 Y87.725 E3.36979
G1 X127.257 Y87.928 E3.3756
G1 X129.557 Y89.747 E3.42437
G1 X131.736 Y91.373 E3.46958
G1 X133.984 Y92.95 E3.51525
G1 X135.374 Y93.88 E3.54306
G1 X135.796 Y94.211 E3.55198
G1 X136.165 Y94.6 E3.56089
G1 X136.471 Y95.04 E3.56981
G1 X136.709 Y95.521 E3.57873
G1 X136.873 Y96.031 E3.58764
G1 X136.959 Y96.561 E3.59657
G1 X136.961 Y97.172 E3.60673
G1 X136.874 Y98.209 E3.62404
G1 X136.794 Y99.025 E3.63767
G1 X136.608 Y101.695 E3.68218
G1 X136.464 Y105.794 E3.75039
G1 X136.405 Y106.328 E3.75932
G1 X136.293 Y106.824 E3.76778
G1 X136.116 Y107.358 E3.77714
G1 X135.838 Y107.93 E3.78771
G1 X135.679 Y108.201 E3.79294
G1 X135.027 Y109.202 E3.8128
G1 X133.554 Y111.531 E3.85863
G1 X132.186 Y113.838 E3.90324
G1 X130.854 Y116.234 E3.94882
G1 X129.366 Y119.117 E4.00278
G1 X129.188 Y119.477 E4.00946
G1 X128.87 Y120.002 E4.01966
G1 X128.356 Y120.707 E4.03417
G1 X126.794 Y122.915 E4.07915
G1 X125.256 Y125.228 E4.12535
G1 X124.792 Y125.974 E4.13996
G1 X124.131 Y127.002 E4.16028
G1 X123.808 Y127.43 E4.1692
G1 X123.425 Y127.806 E4.17812
G1 X122.991 Y128.12 E4.18703
G1 X122.515 Y128.367 E4.19595
G1 X122.02 Y128.543 E4.20469
G1 X119.76 Y129.262 E4.24413
G1 X117.216 Y130.151 E4.28894
G1 X114.634 Y131.135 E4.33489
G1 X112.572 Y131.983 E4.37197
G1 X112.039 Y132.209 E4.3816
G1 X111.531 Y132.381 E4.39052
G1 X111.004 Y132.476 E4.39942
G1 X110.467 Y132.491 E4.40836
G1 X109.935 Y132.427 E4.41727
G1 X109.418 Y132.283 E4.42619
G1 X108.813 Y132.001 E4.43729
G1 X107.846 Y131.433 E4.45594
G1 X107.205 Y131.044 E4.46841
G1 X104.839 Y129.699 E4.51367
G1 X102.429 Y128.416 E4.55908
G1 X99.948 Y127.194 E4.60507
G1 X99.455 Y126.931 E4.61436
G1 X99.227 Y126.791 E4.61881
G1 X98.701 Y126.398 E4.62973
G1 X98.469 Y126.189 E4.63492
G1 X98.054 Y125.745 E4.64503
G1 X97.772 Y125.388 E4.6526
G1 X96.969 Y124.334 E4.67463
G1 X95.256 Y122.215 E4.71994
G1 X93.483 Y120.143 E4.7653
G1 X91.653 Y118.123 E4.81062
G1 X89.66 Y116.047 E4.85848
G1 X89.456 Y115.84 E4.86332
G1 X89.072 Y115.378 E4.87331
G1 X88.652 Y114.777 E4.8855
G1 X87.905 Y113.674 E4.90765
G1 X86.314 Y111.464 E4.95294
G1 X84.677 Y109.319 E4.99781
G1 X84.087 Y108.559 E5.01381
G1 X83.79 Y108.112 E5.02274
G1 X83.563 Y107.626 E5.03166
G1 X83.411 Y107.112 E5.04057
G1 X83.337 Y106.581 E5.04949
G1 X83.35 Y105.976 E5.05955
G1 X83.441 Y105.116 E5.07393
G1 X83.601 Y103.926 E5.0939
G1 X83.926 Y101.229 E5.13908
G1 X84.179 Y98.495 E5.18474
G1 X84.219 Y97.852 E5.19545
G1 X84.314 Y96.602 E5.2163
G1 X84.395 Y96.072 E5.22521
G1 X84.553 Y95.56 E5.23412
G1 X84.786 Y95.076 E5.24306
G1 X85.087 Y94.633 E5.25196
G1 X85.452 Y94.239 E5.2609
G0 F1500 X85.474 Y94.793
G1 F900 X85.832 Y94.436 E5.2693
G1 X86.431 Y94.034 E5.2813
G1 X86.912 Y93.785 E5.29031
G1 X88.479 Y93.004 E5.31942
G1 X90.898 Y91.711 E5.36504
G1 X93.258 Y90.361 E5.41025
G1 X94.639 Y89.519 E5.43715
G1 X95.043 Y89.283 E5.44493
G1 X95.681 Y88.998 E5.45655
G1 X95.884 Y88.933 E5.4601
G1 X96.399 Y88.814 E5.46889
G1 X96.708 Y88.769 E5.47408
G1 X97.258 Y88.737 E5.48324
G1 X97.554 Y88.745 E5.48817
G1 X100.319 Y88.783 E5.53415
G1 X103.069 Y88.743 E5.57989
G1 X105.788 Y88.626 E5.62515
G1 X108.531 Y88.431 E5.67088
G1 X111.223 Y88.162 E5.71587
G1 X114.683 Y87.706 E5.77391
G1 X115.831 Y87.534 E5.79321
G1 X116.414 Y87.501 E5.80293
G1 X119.186 Y87.596 E5.84905
G1 X121.925 Y87.614 E5.8946
G1 X123.542 Y87.573 E5.9215
G1 X123.723 Y87.583 E5.92452
G1 X124.946 Y87.553 E5.94486
G1 X125.451 Y87.581 E5.95327
G1 X125.945 Y87.687 E5.96167
G1 X126.416 Y87.871 E5.97008
G1 X127.009 Y88.242 E5.98172
G1 X129.332 Y90.079 E6.03097
G1 X131.496 Y91.694 E6.07587
G1 X133.763 Y93.285 E6.12193
G1 X135.151 Y94.213 E6.1497
G1 X135.548 Y94.526 E6.1581
G1 X135.891 Y94.898 E6.16652
G1 X136.17 Y95.319 E6.17492
G1 X136.38 Y95.779 E6.18333
G1 X136.515 Y96.266 E6.19173
G1 X136.571 Y96.769 E6.20015
G1 X136.562 Y97.139 E6.2063
G1 X136.476 Y98.169 E6.22349
G1 X136.396 Y98.989 E6.23719
G1 X136.208 Y101.684 E6.28212
G1 X136.064 Y105.78 E6.35028
G1 X135.963 Y106.493 E6.36225
G1 X135.905 Y106.728 E6.36628
G1 X135.747 Y107.203 E6.3746
G1 X135.486 Y107.742 E6.38456
G1 X135.343 Y107.983 E6.38922
G1 X134.715 Y108.947 E6.40836
G1 X133.215 Y111.319 E6.45503
G1 X131.842 Y113.634 E6.49979
G1 X130.5 Y116.047 E6.54571
G1 X129.008 Y118.939 E6.59982
G1 X128.83 Y119.299 E6.6065
G1 X128.547 Y119.766 E6.61558
G1 X128.06 Y120.434 E6.62933
G1 X126.427 Y122.743 E6.67636
G1 X124.951 Y124.962 E6.72068
G1 X124.456 Y125.758 E6.73627
G1 X123.795 Y126.786 E6.7566
G1 X123.488 Y127.188 E6.76501
G1 X123.123 Y127.537 E6.77341
G1 X122.707 Y127.824 E6.78181
G1 X122.099 Y128.096 E6.79289
G1 X119.675 Y128.868 E6.83519
G1 X117.058 Y129.783 E6.8813
G1 X114.488 Y130.763 E6.92704
G1 X112.416 Y131.615 E6.9643
G1 X111.883 Y131.841 E6.97392
G1 X111.404 Y132.001 E6.98232
G1 X110.905 Y132.084 E6.99073
G1 X110.399 Y132.086 E6.99915
G1 X109.9 Y132.01 E7.00754
G1 X109.418 Y131.855 E7.01596
G1 X109.015 Y131.655 E7.02345
G1 X108.054 Y131.091 E7.04198
G1 X107.432 Y130.713 E7.05408
G1 X105.018 Y129.341 E7.10026
G1 X102.615 Y128.062 E7.14553
G1 X100.128 Y126.837 E7.19163
G1 X99.665 Y126.59 E7.20036
G1 X99.437 Y126.45 E7.20481
G1 X98.969 Y126.101 E7.21451
G1 X98.737 Y125.892 E7.21971
G1 X98.368 Y125.497 E7.2287
G1 X98.09 Y125.145 E7.23616
G1 X97.282 Y124.085 E7.25832
G1 X95.569 Y121.966 E7.30363
G1 X93.767 Y119.86 E7.34973
G1 X91.979 Y117.886 E7.39402
G1 X89.948 Y115.77 E7.4428
G1 X89.741 Y115.559 E7.44771
G1 X89.4 Y115.149 E7.45658
G1 X88.983 Y114.552 E7.46869
G1 X88.229 Y113.438 E7.49106
G1 X86.646 Y111.24 E7.53611
G1 X84.995 Y109.076 E7.58137
G1 X84.403 Y108.314 E7.59742
G1 X84.125 Y107.891 E7.60584
G1 X83.917 Y107.43 E7.61425
G1 X83.785 Y106.942 E7.62266
G1 X83.731 Y106.439 E7.63107
G1 X83.747 Y106.018 E7.63807
G1 X83.826 Y105.263 E7.6507
G1 X83.992 Y104.022 E7.67152
G1 X84.328 Y101.238 E7.71815
G1 X84.576 Y98.557 E7.76293
G1 X84.618 Y97.882 E7.77418
G1 X84.713 Y96.632 E7.79502
G1 X84.791 Y96.133 E7.80342
G1 X84.947 Y95.652 E7.81183
G1 X85.176 Y95.202 E7.82023
G1 X85.474 Y94.793 E7.82865
G1 F1800 E0.82865
G1 F300 Z0.3
G0 F1500 X87.269 Y105.122 Z0.3
;TYPE:SUPPORT
G1 F300 Z0.1
G1 F1800 E7.82865
G1 F900 X88.135 Y106.174 E7.85131
G1 X88.954 Y106.284 E7.86505
G1 X88.73 Y106.547 E7.87079
G1 X87.139 Y106.196 E7.89789
G1 X87.269 Y105.122 E7.91588
G1 F1800 E0.91588
G1 F300 Z0.3
G0 F1500 X90.499 Y104.671 Z0.3
G1 F300 Z0.1
G1 F1800 E7.91588
G1 F900 X90.511 Y105.044 E7.92209
G1 X90.189 Y105.271 E7.92864
G1 X90.267 Y104.836 E7.93599
G1 X90.499 Y104.671 E7.94072
G1 F1800 E0.94072
G1 F300 Z0.3
G0 F1500 X94.101 Y110.418 Z0.3
G1 F300 Z0.1
G1 F1800 E7.94072
G1 F900 X94.676 Y110.537 E7.95049
G1 X94.435 Y110.708 E7.9554
G1 X93.884 Y110.622 E7.96467
G1 X94.101 Y110.418 E7.96963
G1 F1800 E0.96963
G1 F300 Z0.3
G0 F1500 X92.604 Y111.625 Z0.3
G1 F300 Z0.1
G1 F1800 E7.96963
G1 F900 X92.469 Y112.276 E7.98068
G1 X93.026 Y113.196 E7.99857
G1 X92.221 Y113.139 E8.01199
G1 X92.239 Y111.883 E8.03288
G1 X92.604 Y111.625 E8.04031
G1 F1800 E1.04031
G1 F300 Z0.3
G0 F1500 X97.04 Y116.457 Z0.3
G1 F300 Z0.1
G1 F1800 E8.04031
G1 F900 X97.509 Y116.326 E8.04841
G1 X97.757 Y116.334 E8.05254
G1 X97.921 Y116.45 E8.05588
G1 X97.087 Y117.042 E8.07289
G1 X96.978 Y117.676 E8.08358
G1 X96.678 Y117.106 E8.0943
G1 X96.757 Y116.858 E8.09862
G1 X97.04 Y116.457 E8.10679
G1 F1800 E1.10679
G1 F300 Z0.3
G0 F1500 X101.091 Y123.46 Z0.3
G1 F300 Z0.1
G1 F1800 E8.10679
G1 F900 X101.714 Y123.567 E8.1173
G1 X102.621 Y122.923 E8.1358
G1 X102.599 Y123.337 E8.14269
G1 X102.298 Y123.709 E8.15065
G1 X102.124 Y123.823 E8.15411
G1 X101.411 Y123.685 E8.16619
G1 X101.091 Y123.46 E8.17269
G1 F1800 E1.17269
G1 F300 Z0.3
G0 F1500 X118.334 Y122.207 Z0.3
G1 F300 Z0.1
G1 F1800 E8.17269
G1 F900 X118.692 Y122.084 E8.17899
G1 X118.997 Y122.299 E8.18519
G1 X118.56 Y122.367 E8.19255
G1 X118.334 Y122.207 E8.19715
G1 F1800 E1.19715
G1 F300 Z0.3
G0 F1500 X119.825 Y125.093 Z0.3
G1 F300 Z0.1
G1 F1800 E8.19715
G1 F900 X120.525 Y123.936 E8.21964
G1 X120.39 Y123.284 E8.23071
G1 X120.776 Y123.551 E8.23852
G1 X120.777 Y123.932 E8.24486
G1 X120.887 Y124.865 E8.26048
G1 X120.118 Y125.029 E8.27355
G1 X119.825 Y125.093 E8.27854
G1 F1800 E1.27854
G1 F300 Z0.3
G0 F1500 X124.568 Y118.198 Z0.3
G1 F300 Z0.1
G1 F1800 E8.27854
G1 F900 X124.191 Y117.926 E8.28627
G1 X124.861 Y117.836 E8.29752
G1 X125.623 Y116.911 E8.31745
G1 X125.749 Y117.753 E8.3316
G1 X124.568 Y118.198 E8.35259
G1 F1800 E1.35259
G1 F300 Z0.3
G0 F1500 X122.811 Y116.942 Z0.3
G1 F300 Z0.1
G1 F1800 E8.35259
G1 F900 X122.497 Y116.718 E8.35901
G1 X122.475 Y116.316 E8.3657
G1 X122.73 Y116.497 E8.3709
G1 X122.811 Y116.942 E8.37842
G1 F1800 E1.37842
G1 F300 Z0.3
G0 F1500 X125.349 Y117.495 Z0.3
G1 F300 Z0.1
G1 F1800 E8.37842
G1 F900 X125.349 Y117.733 E8.38238
G1 F1800 E1.38238
G1 F300 Z0.3
G0 F1500 X127.308 Y112.147 Z0.3
G1 F300 Z0.1
G1 F1800 E8.38238
G1 F900 X127.013 Y111.724 E8.39096
G1 X126.905 Y111.376 E8.39702
G1 X126.951 Y111.277 E8.39883
G1 X127.837 Y111.906 E8.4169
G1 X128.465 Y111.798 E8.4275
G1 X128.031 Y112.268 E8.43814
G1 X127.77 Y112.278 E8.44248
G1 X127.308 Y112.147 E8.45047
G1 F1800 E1.45047
G1 F300 Z0.3
G0 F1500 X132.573 Y106.003 Z0.3
G1 F300 Z0.1
G1 F1800 E8.45047
G1 F900 X132.466 Y105.382 E8.46095
G1 X131.563 Y104.741 E8.47936
G1 X131.955 Y104.625 E8.48616
G1 X132.402 Y104.782 E8.49404
G1 X132.578 Y104.917 E8.49773
G1 X132.679 Y105.629 E8.50969
G1 X132.573 Y106.003 E8.51615
G1 F1800 E1.51615
G1 F300 Z0.3
G0 F1500 X127.715 Y112.014 Z0.3
G1 F300 Z0.1
G1 F1800 E8.51615
G1 F900 X127.427 Y112.014 E8.52094
G1 F1800 E1.52094
G1 F300 Z0.3
G0 F1500 X124.241 Y94.506 Z0.3
G1 F300 Z0.1
G1 F1800 E8.52094
G1 F900 X123.883 Y94.275 E8.52803
G1 X123.883 Y93.843 E8.53521
G1 X124.241 Y94.192 E8.54353
G1 X124.241 Y94.506 E8.54875
G1 F1800 E1.54875
G1 F300 Z0.3
G0 F1500 X123.883 Y92.146 Z0.3
G1 F300 Z0.1
G1 F1800 E8.54875
G1 F900 X123.883 Y91.628 E8.55736
G1 X124.986 Y90.998 E8.57849
G1 X125.479 Y91.572 E8.59107
G1 X124.432 Y91.591 E8.60848
G1 X123.883 Y92.146 E8.62147
G1 F1800 E1.62147
G1 F300 Z0.3
G0 F1500 X117.399 Y92.147 Z0.3
G1 F300 Z0.1
G1 F1800 E8.62147
G1 F900 X116.852 Y91.59 E8.63445
G1 X115.698 Y91.571 E8.65364
G1 X116.32 Y90.949 E8.66827
G1 X117.399 Y91.708 E8.69021
G1 X117.399 Y92.147 E8.69751
G1 F1800 E1.69751
G1 F300 Z0.3
G0 F1500 X117.399 Y93.846 Z0.3
G1 F300 Z0.1
