;FLAVOR:Marlin
;TIME:4027
;Filament used: 0.787313m
;Layer height: 0.1
;MINX:82.713
;MINY:83.532
;MINZ:0.1
;MAXX:137.951
;MAXY:137.937
;MAXZ:4
;Generated with Cura_SteamEngine master
M82 ;absolute extrusion mode
;Sliced at: Sun 20-11-2022 19:06:18
;Basic settings: Layer height: 0.1 Walls: 0.8 Fill: 100.0
G21 ;metric values
G90 ;absolute positioning
M82 ;set extruder to absolute mode
M107 ;start with the fan off
M117 Start heating ...
M104 S200
M117 Homing X/Y ...
G28 X0 Y0 ;move X/Y to min endstops
M117 Homing Z ...
G28 Z0 ;move Z to min endstops
G1 Z15.0 F50 ;move the platform down 15mm
M117 Heating ...
M109 S200
M117 Start cleaning ...
G92 E0 ;zero the extruded length
G1 F200 E10 ;extrude 10mm of feed stock
G92 E0 ;zero the extruded length again
M117 Intro line ...
G1 Z2.0 F3000 ; Move Z Axis up little to prevent scratching of Heat Bed
G1 X0.1 Y20 Z0.1 F5000.0 ; Move to start position
G1 X0.1 Y200.0 Z0.1 F1500.0 E15 ; Draw the first line
G1 X0.4 Y200.0 Z0.1 F5000.0 ; Move to side a little
G1 X0.4 Y20 Z0.3 F1500.0 E30 ; Draw the second line
G92 E0 ; Reset Extruder
G1 E-1 F500 ; Retract filiment by 1 mm
G1 Z2.0 F3000 ; Move Z Axis up little to prevent scratching of Heat Bed
G1 X5 Y20 Z0.3 F50 ; Move over to prevent blob squish
G1 F50
G92 E0 ; Reset Extruder
M117 Printing...

G92 E0
G92 E0
G1 F1800 E-7
;LAYER_COUNT:38
;LAYER:0
M107
G1 F300 Z0.3
G0 F1500 X83.779 Y89.114 Z0.3
;TYPE:SKIRT
G1 F300 Z0.1
G1 F1800 E0
G1 F900 X84.192 Y88.728 E0.0094
G1 X84.655 Y88.404 E0.0188
G1 X85.159 Y88.149 E0.02819
G1 X85.856 Y87.907 E0.04046
G1 X87.846 Y87.29 E0.07511
G1 X90.387 Y86.423 E0.11976
G1 X92.961 Y85.465 E0.16543
G1 X95.476 Y84.443 E0.21058
G1 X96.041 Y84.197 E0.22083
G1 X96.745 Y83.903 E0.23351
G1 X97.371 Y83.7 E0.24446
G1 X97.554 Y83.657 E0.24759
G1 X98.112 Y83.567 E0.25698
G1 X98.396 Y83.552 E0.26171
G1 X99.401 Y83.534 E0.27843
G1 X104.847 Y83.535 E0.369
G1 X105.512 Y83.543 E0.38006
G1 X105.997 Y83.557 E0.38813
G1 X108.686 Y83.606 E0.43285
G1 X111.977 Y83.564 E0.48759
G1 X112.974 Y83.536 E0.50417
G1 X113.527 Y83.536 E0.51337
G1 X114.299 Y83.548 E0.52621
G1 X117.128 Y83.631 E0.57328
G1 X119.867 Y83.633 E0.61883
G1 X123.51 Y83.532 E0.67943
G1 X124.036 Y83.532 E0.68818
G1 X124.739 Y83.543 E0.69987
G1 X125.302 Y83.592 E0.70927
G1 X125.853 Y83.72 E0.71868
G1 X126.47 Y83.968 E0.72974
G1 X127.42 Y84.445 E0.74741
G1 X128.121 Y84.81 E0.76056
G1 X130.559 Y85.996 E0.80564
G1 X133.053 Y87.122 E0.85115
G1 X135.476 Y88.136 E0.89483
G1 X135.741 Y88.258 E0.89968
G1 X136.227 Y88.546 E0.90908
G1 X136.668 Y88.9 E0.91848
G1 X137.055 Y89.312 E0.92788
G1 X137.38 Y89.775 E0.93729
G1 X137.636 Y90.279 E0.94669
G1 X137.819 Y90.814 E0.95609
G1 X137.925 Y91.369 E0.96549
G1 X137.951 Y91.934 E0.9749
G1 X137.875 Y92.617 E0.98632
G1 X137.635 Y93.823 E1.00677
G1 X137.605 Y94.01 E1.00992
G1 X137.335 Y95.369 E1.03297
G1 X136.887 Y98.007 E1.07746
G1 X136.5 Y100.738 E1.12333
G1 X136.31 Y102.522 E1.15317
G1 X136.111 Y104.252 E1.18213
G1 X136.007 Y104.808 E1.19154
G1 X135.829 Y105.336 E1.2008
G1 X135.645 Y105.732 E1.20806
G1 X135.104 Y106.744 E1.22715
G1 X132.319 Y111.711 E1.32185
G1 X131.886 Y112.445 E1.33602
G1 X130.835 Y114.173 E1.36965
G1 X129.498 Y116.518 E1.41455
G1 X128.211 Y118.932 E1.46004
G1 X128.021 Y119.309 E1.46706
G1 X127.566 Y120.178 E1.48337
G1 X127.26 Y120.725 E1.4938
G1 X126.846 Y121.435 E1.50746
G1 X125.421 Y123.809 E1.55351
G1 X124.092 Y126.174 E1.59862
G1 X122.441 Y129.319 E1.65769
G1 X122.169 Y129.811 E1.66704
G1 X121.766 Y130.508 E1.68043
G1 X121.449 Y130.976 E1.68983
G1 X121.069 Y131.394 E1.69923
G1 X120.446 Y131.882 E1.71239
G1 X119.487 Y132.489 E1.73126
G1 X119.277 Y132.617 E1.73535
G1 X117.009 Y134.095 E1.78037
G1 X114.757 Y135.655 E1.82593
G1 X112.921 Y137.008 E1.86386
G1 X112.66 Y137.195 E1.8692
G1 X112.178 Y137.491 E1.8786
G1 X111.659 Y137.716 E1.88801
G1 X111.114 Y137.865 E1.89741
G1 X110.553 Y137.937 E1.90681
G1 X109.988 Y137.928 E1.91621
G1 X109.43 Y137.84 E1.92561
G1 X108.889 Y137.675 E1.93501
G1 X108.378 Y137.434 E1.94441
G1 X107.905 Y137.124 E1.95381
G1 X107.646 Y136.909 E1.95941
G1 X106.735 Y136.084 E1.97985
G1 X104.666 Y134.259 E2.02573
G1 X102.551 Y132.499 E2.07149
G1 X100.44 Y130.841 E2.11613
G1 X99.299 Y129.984 E2.13986
G1 X98.853 Y129.652 E2.1491
G1 X98.425 Y129.283 E2.1585
G1 X98.082 Y128.896 E2.1671
G1 X97.943 Y128.717 E2.17087
G1 X97.643 Y128.273 E2.17978
G1 X97.275 Y127.639 E2.19197
G1 X94.553 Y122.783 E2.28455
G1 X94.159 Y122.063 E2.2982
G1 X93.542 Y120.872 E2.32051
G1 X92.258 Y118.479 E2.36567
G1 X90.905 Y116.12 E2.41089
G1 X90.515 Y115.486 E2.42327
G1 X90.474 Y115.407 E2.42475
G1 X89.588 Y113.931 E2.45338
G1 X89.319 Y113.455 E2.46247
G1 X88.959 Y112.791 E2.47503
G1 X87.6 Y110.192 E2.52381
G1 X86.287 Y107.849 E2.56847
G1 X84.408 Y104.706 E2.62937
G1 X84.161 Y104.266 E2.63776
G1 X83.823 Y103.644 E2.64953
G1 X83.589 Y103.129 E2.65894
G1 X83.43 Y102.587 E2.66833
G1 X83.339 Y101.804 E2.68144
G1 X83.337 Y101.685 E2.68342
G1 X83.253 Y98.915 E2.72951
G1 X83.094 Y96.214 E2.7745
G1 X82.852 Y93.445 E2.82073
G1 X82.73 Y92.237 E2.84092
G1 X82.713 Y91.672 E2.85032
G1 X82.776 Y91.11 E2.85972
G1 X82.918 Y90.563 E2.86912
G1 X83.135 Y90.041 E2.87852
G1 X83.424 Y89.555 E2.88793
G1 X83.779 Y89.114 E2.89734
G0 F1500 X84.187 Y89.268
G1 F900 X84.597 Y88.922 E2.90626
G1 X85.053 Y88.64 E2.91518
G1 X85.596 Y88.413 E2.92497
G1 X86.028 Y88.272 E2.93252
G1 X87.978 Y87.667 E2.96648
G1 X90.519 Y86.801 E3.01112
G1 X93.115 Y85.834 E3.05719
G1 X95.591 Y84.828 E3.10164
G1 X96.195 Y84.566 E3.11258
G1 X96.899 Y84.272 E3.12527
G1 X97.463 Y84.089 E3.13513
G1 X97.646 Y84.046 E3.13826
G1 X98.403 Y83.952 E3.15094
G1 X99.401 Y83.934 E3.16754
G1 X104.838 Y83.935 E3.25796
G1 X105.51 Y83.943 E3.26914
G1 X105.977 Y83.957 E3.27691
G1 X108.684 Y84.006 E3.32193
G1 X111.985 Y83.964 E3.37683
G1 X112.974 Y83.936 E3.39329
G1 X113.522 Y83.936 E3.4024
G1 X114.288 Y83.948 E3.41514
G1 X117.117 Y84.031 E3.46221
G1 X119.843 Y84.033 E3.50754
G1 X122.531 Y83.959 E3.55226
G1 X123.51 Y83.932 E3.56855
G1 X124.029 Y83.932 E3.57718
G1 X124.732 Y83.943 E3.58887
G1 X125.266 Y83.992 E3.59779
G1 X125.787 Y84.119 E3.60671
G1 X126.29 Y84.325 E3.61574
G1 X127.235 Y84.8 E3.63333
G1 X127.94 Y85.167 E3.64655
G1 X130.398 Y86.363 E3.69201
G1 X132.87 Y87.479 E3.73711
G1 X135.322 Y88.505 E3.78132
G1 X135.562 Y88.616 E3.78571
G1 X136.022 Y88.891 E3.79463
G1 X136.437 Y89.231 E3.80355
G1 X136.796 Y89.629 E3.81246
G1 X137.093 Y90.076 E3.82139
G1 X137.319 Y90.562 E3.8303
G1 X137.471 Y91.077 E3.83923
G1 X137.545 Y91.608 E3.84815
G1 X137.539 Y92.144 E3.85706
G1 X137.483 Y92.539 E3.8637
G1 X137.225 Y93.836 E3.88569
G1 X137.213 Y93.932 E3.8873
G1 X136.942 Y95.295 E3.91041
G1 X136.49 Y97.956 E3.95529
G1 X136.106 Y100.667 E4.00083
G1 X135.912 Y102.476 E4.03108
G1 X135.713 Y104.206 E4.06004
G1 X135.613 Y104.733 E4.06896
G1 X135.292 Y105.543 E4.08345
G1 X134.755 Y106.548 E4.1024
G1 X131.974 Y111.508 E4.19697
G1 X131.544 Y112.237 E4.21104
G1 X130.488 Y113.973 E4.24484
G1 X129.155 Y116.311 E4.28959
G1 X127.85 Y118.759 E4.33573
G1 X127.666 Y119.124 E4.34252
G1 X127.161 Y120.086 E4.36059
G1 X126.915 Y120.523 E4.36893
G1 X126.527 Y121.189 E4.38175
G1 X125.072 Y123.613 E4.42877
G1 X123.732 Y125.999 E4.47427
G1 X122.875 Y127.63 E4.50491
G1 X122.087 Y129.134 E4.53315
G1 X121.791 Y129.666 E4.54328
G1 X121.42 Y130.307 E4.55559
G1 X121.117 Y130.75 E4.56452
G1 X120.752 Y131.143 E4.57344
G1 X120.232 Y131.544 E4.58436
G1 X119.279 Y132.148 E4.60312
G1 X119.057 Y132.283 E4.60744
G1 X116.768 Y133.775 E4.65288
G1 X114.521 Y135.332 E4.69834
G1 X112.688 Y136.682 E4.7362
G1 X112.427 Y136.869 E4.74154
G1 X111.969 Y137.148 E4.75046
G1 X111.474 Y137.356 E4.75939
G1 X110.955 Y137.488 E4.76829
G1 X110.421 Y137.542 E4.77722
G1 X109.885 Y137.515 E4.78614
G1 X109.36 Y137.41 E4.79505
G1 X108.855 Y137.227 E4.80398
G1 X108.384 Y136.972 E4.81289
G1 X107.914 Y136.612 E4.82273
G1 X106.999 Y135.784 E4.84325
G1 X104.903 Y133.935 E4.88974
G1 X102.808 Y132.192 E4.93506
G1 X100.698 Y130.535 E4.97967
G1 X99.539 Y129.664 E5.00378
G1 X99.092 Y129.331 E5.01305
G1 X98.687 Y128.98 E5.02197
G1 X98.259 Y128.472 E5.03301
G1 X97.989 Y128.072 E5.04104
G1 X97.624 Y127.443 E5.05313
G1 X94.905 Y122.594 E5.14558
G1 X94.563 Y121.969 E5.15743
G1 X94.514 Y121.879 E5.15914
G1 X93.897 Y120.688 E5.18144
G1 X92.615 Y118.297 E5.22656
G1 X91.255 Y115.927 E5.272
G1 X90.855 Y115.276 E5.28471
G1 X90.813 Y115.194 E5.28624
G1 X89.877 Y113.633 E5.31651
G1 X89.644 Y113.216 E5.32445
G1 X89.31 Y112.6 E5.33611
G1 X89.234 Y112.45 E5.3389
G1 X87.975 Y110.045 E5.38405
G1 X86.62 Y107.628 E5.43013
G1 X84.757 Y104.51 E5.49053
G1 X84.513 Y104.075 E5.49882
G1 X84.175 Y103.453 E5.5106
G1 X83.955 Y102.964 E5.51951
G1 X83.809 Y102.448 E5.52843
G1 X83.739 Y101.797 E5.53932
G1 X83.736 Y101.626 E5.54216
G1 X83.653 Y98.914 E5.58729
G1 X83.491 Y96.156 E5.63323
G1 X83.255 Y93.458 E5.67827
G1 X83.128 Y92.197 E5.69935
G1 X83.114 Y91.661 E5.70826
G1 X83.18 Y91.128 E5.7172
G1 X83.324 Y90.612 E5.7261
G1 X83.544 Y90.123 E5.73502
G1 X83.834 Y89.671 E5.74395
G1 X84.187 Y89.268 E5.75286
G0 F1500 X84.243 Y89.798
G1 F900 X84.595 Y89.435 E5.76127
G1 X84.999 Y89.132 E5.76967
G1 X85.446 Y88.896 E5.77808
G1 X86.103 Y88.668 E5.78964
G1 X88.056 Y88.063 E5.82364
G1 X90.683 Y87.167 E5.8698
G1 X93.239 Y86.215 E5.91516
G1 X95.773 Y85.186 E5.96064
G1 X96.349 Y84.935 E5.97109
G1 X97.053 Y84.641 E5.98378
G1 X97.554 Y84.479 E5.99253
G1 X97.737 Y84.436 E5.99566
G1 X98.411 Y84.352 E6.00696
G1 X99.401 Y84.334 E6.02342
G1 X104.828 Y84.335 E6.11367
G1 X105.508 Y84.343 E6.12498
G1 X105.956 Y84.357 E6.13244
G1 X108.682 Y84.406 E6.17778
G1 X111.953 Y84.364 E6.23218
G1 X112.879 Y84.337 E6.24759
G1 X113.516 Y84.336 E6.25818
G1 X114.276 Y84.347 E6.27082
G1 X117.139 Y84.431 E6.31845
G1 X119.853 Y84.433 E6.36358
G1 X123.51 Y84.332 E6.42442
G1 X124.023 Y84.332 E6.43296
G1 X124.726 Y84.343 E6.44465
G1 X125.229 Y84.391 E6.45305
G1 X125.719 Y84.518 E6.46147
G1 X126.111 Y84.683 E6.46854
G1 X127.05 Y85.154 E6.48601
G1 X127.759 Y85.523 E6.4993
G1 X130.237 Y86.729 E6.54513
G1 X132.729 Y87.854 E6.5906
G1 X135.167 Y88.874 E6.63455
G1 X135.383 Y88.974 E6.63851
G1 X135.816 Y89.235 E6.64692
G1 X136.202 Y89.561 E6.65532
G1 X136.533 Y89.944 E6.66374
G1 X136.798 Y90.374 E6.67214
G1 X136.993 Y90.84 E6.68054
G1 X137.112 Y91.332 E6.68896
G1 X137.152 Y91.836 E6.69737
G1 X137.09 Y92.461 E6.70781
G1 X136.827 Y93.782 E6.73021
G1 X136.821 Y93.854 E6.73141
G1 X136.549 Y95.222 E6.75461
G1 X136.087 Y97.94 E6.80046
G1 X135.711 Y100.6 E6.84513
G1 X135.515 Y102.431 E6.87576
G1 X135.316 Y104.161 E6.90472
G1 X135.219 Y104.657 E6.91312
G1 X134.939 Y105.355 E6.92563
G1 X134.406 Y106.353 E6.94444
G1 X131.629 Y111.305 E7.03886
G1 X131.202 Y112.029 E7.05284
G1 X130.158 Y113.747 E7.08627
G1 X128.798 Y116.131 E7.13191
G1 X127.497 Y118.571 E7.1779
G1 X127.312 Y118.938 E7.18473
G1 X126.812 Y119.89 E7.20262
G1 X126.569 Y120.322 E7.21086
G1 X126.181 Y120.988 E7.22368
G1 X124.739 Y123.391 E7.27028
G1 X123.365 Y125.836 E7.31692
G1 X121.693 Y129.021 E7.37674
G1 X121.445 Y129.466 E7.38522
G1 X121.074 Y130.107 E7.39753
G1 X120.787 Y130.523 E7.40594
G1 X120.438 Y130.889 E7.41435
G1 X120.018 Y131.207 E7.42311
G1 X119.071 Y131.806 E7.44174
G1 X118.86 Y131.935 E7.44586
G1 X116.545 Y133.444 E7.49181
G1 X114.285 Y135.008 E7.53752
G1 X112.455 Y136.357 E7.57533
G1 X112.194 Y136.544 E7.58067
G1 X111.761 Y136.805 E7.58907
G1 X111.292 Y136.995 E7.59749
G1 X110.799 Y137.108 E7.6059
G1 X110.295 Y137.143 E7.6143
G1 X109.792 Y137.097 E7.6227
G1 X109.301 Y136.973 E7.63112
G1 X108.837 Y136.773 E7.63953
G1 X108.41 Y136.503 E7.64793
G1 X108.183 Y136.315 E7.65283
G1 X107.264 Y135.484 E7.67343
G1 X105.178 Y133.644 E7.71969
G1 X103.066 Y131.886 E7.76539
G1 X100.897 Y130.184 E7.81124
G1 X99.78 Y129.344 E7.83448
G1 X99.331 Y129.01 E7.84379
G1 X98.95 Y128.677 E7.8522
G1 X98.575 Y128.227 E7.86194
G1 X98.335 Y127.871 E7.86908
G1 X97.973 Y127.247 E7.88108
G1 X95.258 Y122.405 E7.9734
G1 X94.87 Y121.695 E7.98685
G1 X94.274 Y120.545 E8.00839
G1 X92.956 Y118.088 E8.05476
G1 X91.592 Y115.709 E8.10037
G1 X91.196 Y115.066 E8.11292
G1 X91.163 Y115.001 E8.11414
G1 X90.274 Y113.52 E8.14286
G1 X90.017 Y113.064 E8.15157
G1 X89.662 Y112.409 E8.16396
G1 X88.32 Y109.843 E8.21211
G1 X86.978 Y107.448 E8.25777
G1 X85.105 Y104.314 E8.31849
G1 X84.864 Y103.884 E8.32668
G1 X84.526 Y103.262 E8.33846
G1 X84.321 Y102.8 E8.34686
G1 X84.191 Y102.311 E8.35528
G1 X84.138 Y101.79 E8.36398
G1 X84.135 Y101.619 E8.36683
G1 X84.05 Y98.832 E8.4132
G1 X83.893 Y96.166 E8.45761
G1 X83.649 Y93.375 E8.5042
G1 X83.526 Y92.157 E8.52456
G1 X83.515 Y91.651 E8.53298
G1 X83.584 Y91.15 E8.54139
G1 X83.731 Y90.667 E8.54978
G1 X83.953 Y90.212 E8.5582
G1 X84.243 Y89.798 E8.56661
G1 F1800 E1.56661
G1 F300 Z0.3
;MESH:GeodesicDome-6Angle-Blue.stl
G0 F1500 X89.088 Y93.229 Z0.3
;TYPE:WALL-INNER
G1 F300 Z0.1
G1 F1800 E8.56661
G1 F900 X106.852 Y124.896 E9.17043
G1 X109.017 Y124.896 E9.20644
G1 X107.936 Y126.768 E9.24239
G1 X109.133 Y128.84 E9.28218
G1 X111.525 Y128.84 E9.32196
G1 X112.722 Y126.768 E9.36175
G1 X111.641 Y124.896 E9.3977
G1 X113.806 Y124.896 E9.43371
G1 X131.573 Y93.229 E10.03756
G1 X89.088 Y93.229 E10.74409
G0 F1500 X89.771 Y93.629
;TYPE:WALL-OUTER
G1 F900 X107.086 Y124.496 E11.33265
G1 X113.572 Y124.496 E11.44052
G1 X130.89 Y93.629 E12.02911
G1 X89.771 Y93.629 E12.71292
G0 F1500 X89.868 Y93.803
G0 X89.485 Y94.017
G1 F1800 E5.71292
G0 F1500 X107.007 Y124.63
G0 X108.687 Y125.087
G0 X108.226 Y126.668
G1 F1800 E12.71292
G0 F1500 X108.398 Y126.768
G1 F900 X109.364 Y128.44 E12.74503
G1 X111.294 Y128.44 E12.77713
G1 X112.26 Y126.768 E12.80924
G1 X111.294 Y125.096 E12.84135
G1 X109.364 Y125.096 E12.87345
G1 X108.398 Y126.768 E12.90556
G0 F1500 X108.498 Y126.941
G0 X108.116 Y127.161
G1 F1800 E5.90556
G1 F300 Z0.3
G0 F1500 X108.065 Y127.19 Z0.3
G0 X128.697 Y108.764
;TYPE:WALL-INNER
G1 F300 Z0.1
G1 F1800 E12.90556
G1 F900 X126.755 Y107.676 E12.94258
G1 X126.359 Y107.506 E12.94975
G1 X125.9 Y107.423 E12.95751
G1 X125.434 Y107.443 E12.96526
G1 X124.986 Y107.566 E12.97299
G1 X124.576 Y107.781 E12.98069
G1 X124.221 Y108.083 E12.98844
G1 X123.959 Y108.433 E12.99571
G1 X120.611 Y114.402 E13.10952
G1 X120.449 Y114.809 E13.11681
G1 X120.376 Y115.269 E13.12455
G1 X120.407 Y115.735 E13.13232
G1 X120.537 Y116.177 E13.13998
G1 X120.762 Y116.583 E13.1477
G1 X121.072 Y116.93 E13.15544
G1 X121.421 Y117.181 E13.16259
G1 X123.363 Y118.271 E13.19962
G1 X123.216 Y118.532 E13.2046
G1 X121.274 Y117.442 E13.23235
G1 X120.877 Y117.274 E13.2386
G1 X120.421 Y117.191 E13.2463
G1 X119.955 Y117.211 E13.25406
G1 X119.509 Y117.332 E13.26175
G1 X119.098 Y117.547 E13.26946
G1 X118.743 Y117.849 E13.27721
G1 X118.481 Y118.199 E13.28448
G1 X115.472 Y123.562 E13.38675
G1 X115.311 Y123.969 E13.39403
G1 X115.239 Y124.428 E13.40175
G1 X115.269 Y124.89 E13.40945
G1 X115.399 Y125.335 E13.41716
G1 X115.625 Y125.741 E13.42489
G1 X115.932 Y126.088 E13.43259
G1 X116.283 Y126.339 E13.43977
G1 X118.229 Y127.43 E13.47687
G1 X118.083 Y127.692 E13.48186
G1 X116.136 Y126.6 E13.50968
G1 X115.735 Y126.431 E13.51598
G1 X115.279 Y126.35 E13.52368
G1 X114.821 Y126.368 E13.53131
G1 X114.373 Y126.489 E13.53902
G1 X113.961 Y126.704 E13.54675
G1 X113.608 Y127.005 E13.55447
G1 X113.345 Y127.353 E13.56172
G1 X110.329 Y132.73 E13.66425
G1 X105.843 Y124.732 E13.81675
G1 X105.575 Y124.38 E13.82411
G1 X105.224 Y124.086 E13.83172
G1 X104.815 Y123.871 E13.8394
G1 X104.367 Y123.752 E13.84711
G1 X103.904 Y123.734 E13.85482
G1 X103.45 Y123.818 E13.8625
G1 X103.055 Y123.984 E13.86962
G1 X101.111 Y125.074 E13.90669
G1 X98.764 Y120.888 E13.98649
G1 X100.707 Y119.798 E14.02354
G1 X101.056 Y119.548 E14.03068
G1 X101.364 Y119.202 E14.03839
G1 X101.59 Y118.796 E14.04611
G1 X101.72 Y118.351 E14.05382
G1 X101.751 Y117.889 E14.06152
G1 X101.678 Y117.426 E14.06932
G1 X101.519 Y117.024 E14.07651
G1 X98.167 Y111.048 E14.19046
G1 X97.901 Y110.696 E14.19779
G1 X97.551 Y110.397 E14.20545
G1 X97.14 Y110.182 E14.21316
G1 X96.689 Y110.06 E14.22093
G1 X96.228 Y110.04 E14.22861
G1 X95.769 Y110.123 E14.23636
G1 X95.373 Y110.293 E14.24353
G1 X93.431 Y111.382 E14.28056
G1 X93.284 Y111.12 E14.28555
