;FLAVOR:Marlin
;TIME:3137
;Filament used: 0.622217m
;Layer height: 0.1
;MINX:82.38
;MINY:81.789
;MINZ:0.1
;MAXX:137.617
;MAXY:137.93
;MAXZ:4
;Generated with Cura_SteamEngine master
M82 ;absolute extrusion mode
;Sliced at: Mon 07-03-2022 21:59:02
;Basic settings: Layer height: 0.1 Walls: 0.8 Fill: 20
G21 ;metric values
G90 ;absolute positioning
M82 ;set extruder to absolute mode
M107 ;start with the fan off
M117 Start heating ...
M104 S200
M117 Homing X/Y ...
G28 X0 Y0 ;move X/Y to min endstops
M117 Homing Z ...
G28 Z0 ;move Z to min endstops
G1 Z15.0 F50 ;move the platform down 15mm
M117 Heating ...
M109 S200
M117 Start cleaning ...
G92 E0 ;zero the extruded length
G1 F200 E10 ;extrude 10mm of feed stock
G92 E0 ;zero the extruded length again
M117 Intro line ...
G1 Z2.0 F3000 ; Move Z Axis up little to prevent scratching of Heat Bed
G1 X0.1 Y20 Z0.1 F5000.0 ; Move to start position
G1 X0.1 Y200.0 Z0.1 F1500.0 E15 ; Draw the first line
G1 X0.4 Y200.0 Z0.1 F5000.0 ; Move to side a little
G1 X0.4 Y20 Z0.3 F1500.0 E30 ; Draw the second line
G92 E0 ; Reset Extruder
G1 E-1 F500 ; Retract filiment by 1 mm
G1 Z2.0 F3000 ; Move Z Axis up little to prevent scratching of Heat Bed
G1 X5 Y20 Z0.3 F50 ; Move over to prevent blob squish
G1 F50
G92 E0 ; Reset Extruder
M117 Printing...

G92 E0
G92 E0
G1 F1800 E-7
;LAYER_COUNT:38
;LAYER:0
M107
G1 F300 Z0.3
G0 F1500 X83.441 Y89.114 Z0.3
;TYPE:SKIRT
G1 F300 Z0.1
G1 F1800 E0
G1 F900 X83.854 Y88.727 E0.00941
G1 X84.317 Y88.402 E0.01882
G1 X84.718 Y88.191 E0.02636
G1 X85.829 Y87.685 E0.04666
G1 X86.345 Y87.458 E0.05603
G1 X88.773 Y86.31 E0.1007
G1 X91.219 Y85.067 E0.14632
G1 X93.612 Y83.763 E0.19164
G1 X94.12 Y83.48 E0.20132
G1 X94.71 Y83.221 E0.21203
G1 X95.279 Y83.046 E0.22193
G1 X95.832 Y82.932 E0.23132
G1 X96.484 Y82.894 E0.24218
G1 X96.687 Y82.895 E0.24556
G1 X97.471 Y82.922 E0.2586
G1 X100.906 Y82.981 E0.31574
G1 X103.704 Y82.941 E0.36227
G1 X106.375 Y82.828 E0.40673
G1 X109.082 Y82.636 E0.45186
G1 X111.803 Y82.366 E0.49733
G1 X114.523 Y82.018 E0.54294
G1 X115.271 Y81.907 E0.55551
G1 X115.489 Y81.881 E0.55916
G1 X116.015 Y81.853 E0.56792
G1 X116.691 Y81.862 E0.57917
G1 X118.188 Y81.903 E0.60407
G1 X120.868 Y81.899 E0.64864
G1 X123.631 Y81.805 E0.69461
G1 X124.265 Y81.789 E0.70516
G1 X124.83 Y81.815 E0.71457
G1 X125.385 Y81.92 E0.72396
G1 X125.92 Y82.102 E0.73336
G1 X126.425 Y82.358 E0.74277
G1 X126.712 Y82.548 E0.7485
G1 X127.311 Y82.982 E0.7608
G1 X129.575 Y84.571 E0.8068
G1 X131.873 Y86.086 E0.85257
G1 X134.152 Y87.5 E0.89717
G1 X135.651 Y88.382 E0.9261
G1 X136.117 Y88.702 E0.9355
G1 X136.532 Y89.085 E0.94489
G1 X136.89 Y89.523 E0.9543
G1 X137.183 Y90.007 E0.96371
G1 X137.404 Y90.527 E0.9731
G1 X137.55 Y91.073 E0.9825
G1 X137.617 Y91.634 E0.9919
G1 X137.582 Y92.395 E1.00456
G1 X137.448 Y93.046 E1.01562
G1 X136.866 Y95.762 E1.06181
G1 X136.373 Y98.421 E1.10678
G1 X135.957 Y101.093 E1.15175
G1 X135.612 Y103.801 E1.19715
G1 X135.436 Y105.505 E1.22564
G1 X135.373 Y106.168 E1.23672
G1 X135.28 Y106.725 E1.24611
G1 X135.058 Y107.409 E1.25807
G1 X134.838 Y107.91 E1.26717
G1 X134.357 Y108.857 E1.28483
G1 X134.063 Y109.413 E1.29529
G1 X132.854 Y111.873 E1.34087
G1 X131.73 Y114.331 E1.38582
G1 X130.672 Y116.829 E1.43094
G1 X129.48 Y119.904 E1.48578
G1 X129.216 Y120.456 E1.49596
G1 X128.765 Y121.238 E1.51097
G1 X128.249 Y122.106 E1.52776
G1 X126.939 Y124.457 E1.57252
G1 X125.263 Y127.714 E1.63343
G1 X125.071 Y128.058 E1.63998
G1 X124.756 Y128.527 E1.64938
G1 X124.378 Y128.947 E1.65878
G1 X123.944 Y129.31 E1.66819
G1 X123.688 Y129.481 E1.67331
G1 X123.134 Y129.819 E1.6841
G1 X121.84 Y130.583 E1.70909
G1 X119.5 Y132.057 E1.75508
G1 X117.289 Y133.538 E1.79934
G1 X115.05 Y135.132 E1.84504
G1 X112.848 Y136.796 E1.89094
G1 X112.406 Y137.131 E1.90016
G1 X111.932 Y137.438 E1.90956
G1 X111.419 Y137.676 E1.91896
G1 X110.878 Y137.839 E1.92836
G1 X110.319 Y137.924 E1.93776
G1 X109.754 Y137.93 E1.94716
G1 X109.193 Y137.855 E1.95657
G1 X108.649 Y137.703 E1.96596
G1 X108.132 Y137.475 E1.97536
G1 X107.651 Y137.176 E1.98478
G1 X107.229 Y136.824 E1.99392
G1 X106.249 Y135.884 E2.0165
G1 X104.281 Y134.047 E2.06127
G1 X102.231 Y132.241 E2.1067
G1 X100.119 Y130.484 E2.15239
G1 X97.992 Y128.814 E2.19736
G1 X96.845 Y127.951 E2.22123
G1 X96.419 Y127.58 E2.23063
G1 X95.946 Y127.027 E2.24273
G1 X95.641 Y126.584 E2.25167
G1 X95.063 Y125.635 E2.27015
G1 X93.571 Y123.263 E2.31675
G1 X92.087 Y121.045 E2.36113
G1 X90.52 Y118.842 E2.40609
G1 X88.846 Y116.623 E2.45232
G1 X88.335 Y115.976 E2.46603
G1 X88.161 Y115.745 E2.47084
G1 X87.859 Y115.279 E2.48007
G1 X87.558 Y114.737 E2.49038
G1 X86.796 Y113.323 E2.5171
G1 X85.442 Y110.974 E2.56218
G1 X84.002 Y108.63 E2.60793
G1 X83.882 Y108.443 E2.61163
G1 X83.57 Y107.942 E2.62144
G1 X83.305 Y107.442 E2.63085
G1 X83.114 Y106.91 E2.64025
G1 X83 Y106.356 E2.64966
G1 X82.965 Y105.792 E2.65906
G1 X82.974 Y104.821 E2.67521
G1 X82.994 Y104.027 E2.68842
G1 X82.984 Y101.319 E2.73345
G1 X82.898 Y98.614 E2.77846
G1 X82.735 Y95.901 E2.82366
G1 X82.5 Y93.238 E2.86811
G1 X82.398 Y92.238 E2.88483
G1 X82.38 Y91.673 E2.89423
G1 X82.442 Y91.111 E2.90363
G1 X82.583 Y90.563 E2.91304
G1 X82.8 Y90.041 E2.92244
G1 X83.088 Y89.555 E2.93184
G1 X83.441 Y89.114 E2.94123
G0 F1500 X83.85 Y89.267
G1 F900 X84.259 Y88.92 E2.95015
G1 X84.884 Y88.555 E2.96219
G1 X85.99 Y88.051 E2.9824
G1 X86.528 Y87.815 E2.99217
G1 X88.961 Y86.664 E3.03693
G1 X91.398 Y85.425 E3.0824
G1 X93.777 Y84.129 E3.12745
G1 X94.309 Y83.832 E3.13758
G1 X94.84 Y83.599 E3.14723
G1 X95.387 Y83.431 E3.15674
G1 X95.913 Y83.324 E3.16567
G1 X96.49 Y83.293 E3.17528
G1 X96.673 Y83.295 E3.17832
G1 X97.457 Y83.322 E3.19137
G1 X100.821 Y83.381 E3.24732
G1 X103.691 Y83.342 E3.29505
G1 X106.42 Y83.226 E3.34048
G1 X109.149 Y83.032 E3.38597
G1 X111.826 Y82.767 E3.43071
G1 X114.546 Y82.419 E3.47631
G1 X115.207 Y82.319 E3.48743
G1 X116.01 Y82.253 E3.50083
G1 X116.68 Y82.262 E3.51197
G1 X118.177 Y82.303 E3.53688
G1 X120.881 Y82.299 E3.58184
G1 X123.641 Y82.205 E3.62777
G1 X124.275 Y82.189 E3.63832
G1 X124.811 Y82.216 E3.64724
G1 X125.337 Y82.321 E3.65616
G1 X125.841 Y82.504 E3.66508
G1 X126.477 Y82.872 E3.6773
G1 X127.101 Y83.324 E3.69011
G1 X129.347 Y84.9 E3.73574
G1 X131.631 Y86.406 E3.78124
G1 X133.938 Y87.837 E3.82639
G1 X135.448 Y88.726 E3.85553
G1 X135.889 Y89.032 E3.86445
G1 X136.279 Y89.4 E3.87337
G1 X136.61 Y89.821 E3.88228
G1 X136.875 Y90.288 E3.8912
G1 X137.068 Y90.788 E3.90012
G1 X137.185 Y91.312 E3.90905
G1 X137.222 Y91.847 E3.91796
G1 X137.183 Y92.359 E3.9265
G1 X137.046 Y93.013 E3.93762
G1 X136.475 Y95.676 E3.98291
G1 X135.977 Y98.366 E4.0284
G1 X135.559 Y101.054 E4.07364
G1 X135.215 Y103.754 E4.11891
G1 X135.038 Y105.464 E4.1475
G1 X134.975 Y106.13 E4.15862
G1 X134.814 Y106.906 E4.1718
G1 X134.598 Y107.476 E4.18194
G1 X134.481 Y107.729 E4.18657
G1 X134.003 Y108.67 E4.20413
G1 X133.715 Y109.215 E4.21438
G1 X132.475 Y111.737 E4.26111
G1 X131.375 Y114.144 E4.30512
G1 X130.3 Y116.682 E4.35096
G1 X129.107 Y119.76 E4.40586
G1 X128.869 Y120.256 E4.41501
G1 X128.421 Y121.034 E4.42994
G1 X127.906 Y121.902 E4.44672
G1 X126.58 Y124.281 E4.49201
G1 X124.907 Y127.531 E4.5528
G1 X124.724 Y127.859 E4.55905
G1 X124.423 Y128.303 E4.56797
G1 X124.06 Y128.697 E4.57688
G1 X123.479 Y129.14 E4.58903
G1 X122.931 Y129.475 E4.59971
G1 X121.588 Y130.268 E4.62565
G1 X119.31 Y131.703 E4.67042
G1 X117.057 Y133.212 E4.71552
G1 X114.8 Y134.819 E4.76159
G1 X112.599 Y136.483 E4.80748
G1 X112.166 Y136.811 E4.81651
G1 X111.715 Y137.101 E4.82543
G1 X111.225 Y137.321 E4.83436
G1 X110.709 Y137.466 E4.84327
G1 X110.177 Y137.533 E4.85219
G1 X109.641 Y137.519 E4.86111
G1 X109.113 Y137.426 E4.87002
G1 X108.604 Y137.256 E4.87895
G1 X108.126 Y137.012 E4.88787
G1 X107.506 Y136.535 E4.90088
G1 X106.526 Y135.595 E4.92346
G1 X104.536 Y133.738 E4.96873
G1 X102.485 Y131.932 E5.01418
G1 X100.376 Y130.177 E5.0598
G1 X98.265 Y128.519 E5.10444
G1 X97.086 Y127.632 E5.12898
G1 X96.507 Y127.087 E5.1422
G1 X96.145 Y126.619 E5.15204
G1 X95.983 Y126.376 E5.1569
G1 X95.402 Y125.422 E5.17548
G1 X93.925 Y123.075 E5.22159
G1 X92.401 Y120.797 E5.26717
G1 X90.833 Y118.592 E5.31217
G1 X89.175 Y116.394 E5.35795
G1 X88.654 Y115.735 E5.37192
G1 X88.208 Y115.085 E5.38503
G1 X87.91 Y114.547 E5.39526
G1 X87.137 Y113.112 E5.42237
G1 X85.787 Y110.77 E5.46732
G1 X84.346 Y108.426 E5.51308
G1 X84.221 Y108.231 E5.51693
G1 X83.909 Y107.73 E5.52675
G1 X83.66 Y107.255 E5.53567
G1 X83.485 Y106.748 E5.54458
G1 X83.387 Y106.221 E5.5535
G1 X83.365 Y105.795 E5.56059
G1 X83.374 Y104.831 E5.57663
G1 X83.394 Y104.036 E5.58985
G1 X83.384 Y101.306 E5.63525
G1 X83.297 Y98.574 E5.68071
G1 X83.135 Y95.88 E5.72559
G1 X82.899 Y93.203 E5.77028
G1 X82.796 Y92.197 E5.7871
G1 X82.781 Y91.661 E5.79602
G1 X82.846 Y91.129 E5.80493
G1 X82.99 Y90.612 E5.81385
G1 X83.208 Y90.122 E5.82277
G1 X83.497 Y89.671 E5.83168
G1 X83.85 Y89.267 E5.8406
G0 F1500 X83.907 Y89.797
G1 F900 X84.258 Y89.433 E5.84901
G1 X84.662 Y89.129 E5.85742
G1 X85.05 Y88.919 E5.86476
G1 X86.151 Y88.418 E5.88487
G1 X86.651 Y88.198 E5.89396
G1 X89.134 Y87.024 E5.93963
G1 X91.591 Y85.775 E5.98547
G1 X94.005 Y84.46 E6.03118
G1 X94.499 Y84.184 E6.04059
G1 X94.971 Y83.977 E6.04917
G1 X95.496 Y83.816 E6.0583
G1 X95.992 Y83.718 E6.06671
G1 X96.497 Y83.693 E6.07511
G1 X96.659 Y83.695 E6.07781
G1 X97.389 Y83.72 E6.08995
G1 X100.918 Y83.781 E6.14865
G1 X103.714 Y83.741 E6.19515
G1 X106.431 Y83.626 E6.24038
G1 X109.177 Y83.431 E6.28616
G1 X111.883 Y83.163 E6.33138
G1 X114.613 Y82.814 E6.37715
G1 X115.267 Y82.715 E6.38815
G1 X116.004 Y82.653 E6.40045
G1 X116.669 Y82.662 E6.41151
G1 X118.167 Y82.703 E6.43643
G1 X120.896 Y82.699 E6.48181
G1 X123.651 Y82.605 E6.52766
G1 X124.285 Y82.589 E6.5382
G1 X124.79 Y82.616 E6.54661
G1 X125.284 Y82.723 E6.55502
G1 X125.756 Y82.906 E6.56344
G1 X126.243 Y83.196 E6.57286
G1 X126.849 Y83.635 E6.58531
G1 X129.143 Y85.244 E6.63191
G1 X131.421 Y86.747 E6.67729
G1 X133.736 Y88.183 E6.7226
G1 X135.245 Y89.071 E6.75171
G1 X135.659 Y89.361 E6.76012
G1 X136.022 Y89.713 E6.76853
G1 X136.326 Y90.117 E6.77694
G1 X136.562 Y90.564 E6.78534
G1 X136.724 Y91.043 E6.79375
G1 X136.809 Y91.542 E6.80217
G1 X136.79 Y92.282 E6.81448
G1 X136.656 Y92.923 E6.82537
G1 X136.084 Y95.591 E6.87075
G1 X135.582 Y98.302 E6.9166
G1 X135.16 Y101.013 E6.96223
G1 X134.818 Y103.706 E7.00737
G1 X134.64 Y105.422 E7.03606
G1 X134.577 Y106.092 E7.04725
G1 X134.434 Y106.782 E7.05897
G1 X134.228 Y107.323 E7.0686
G1 X134.125 Y107.548 E7.07271
G1 X133.65 Y108.484 E7.09017
G1 X133.339 Y109.072 E7.10123
G1 X132.123 Y111.545 E7.14706
G1 X131.001 Y114.001 E7.19196
G1 X129.934 Y116.519 E7.23744
G1 X128.734 Y119.615 E7.29266
G1 X128.523 Y120.056 E7.30079
G1 X128.077 Y120.829 E7.31563
G1 X127.564 Y121.693 E7.33234
G1 X126.225 Y124.095 E7.37807
G1 X124.551 Y127.348 E7.43891
G1 X124.377 Y127.66 E7.44486
G1 X124.091 Y128.077 E7.45326
G1 X123.744 Y128.445 E7.46168
G1 X123.27 Y128.798 E7.4715
G1 X122.727 Y129.13 E7.48209
G1 X121.418 Y129.903 E7.50737
G1 X119.097 Y131.365 E7.55299
G1 X116.808 Y132.898 E7.5988
G1 X114.572 Y134.489 E7.64444
G1 X112.351 Y136.169 E7.69075
G1 X111.925 Y136.492 E7.69964
G1 X111.498 Y136.763 E7.70805
G1 X111.034 Y136.965 E7.71647
G1 X110.545 Y137.09 E7.72486
G1 X110.041 Y137.137 E7.73328
G1 X109.537 Y137.104 E7.74168
G1 X109.044 Y136.991 E7.75009
G1 X108.575 Y136.803 E7.75849
G1 X108.141 Y136.543 E7.76691
G1 X107.783 Y136.246 E7.77464
G1 X106.803 Y135.306 E7.79722
G1 X104.807 Y133.443 E7.84263
G1 X102.763 Y131.643 E7.88792
G1 X100.634 Y129.871 E7.93399
G1 X98.48 Y128.18 E7.97953
G1 X97.326 Y127.312 E8.00354
G1 X96.812 Y126.827 E8.0153
G1 X96.468 Y126.384 E8.02462
G1 X96.324 Y126.168 E8.02894
G1 X95.74 Y125.209 E8.04761
G1 X94.253 Y122.845 E8.09406
G1 X92.743 Y120.588 E8.13922
G1 X91.145 Y118.341 E8.18507
G1 X89.487 Y116.144 E8.23084
G1 X88.974 Y115.494 E8.24461
G1 X88.558 Y114.891 E8.2568
G1 X88.262 Y114.358 E8.26694
G1 X87.484 Y112.914 E8.29421
G1 X86.125 Y110.557 E8.33946
G1 X84.684 Y108.211 E8.38524
G1 X84.561 Y108.02 E8.38902
G1 X84.249 Y107.519 E8.39884
G1 X84.016 Y107.07 E8.40725
G1 X83.857 Y106.59 E8.41566
G1 X83.776 Y106.091 E8.42407
G1 X83.765 Y105.799 E8.42893
G1 X83.774 Y104.841 E8.44486
G1 X83.794 Y104.044 E8.45812
G1 X83.784 Y101.292 E8.50388
G1 X83.698 Y98.573 E8.54912
G1 X83.534 Y95.857 E8.59437
G1 X83.297 Y93.168 E8.63926
G1 X83.194 Y92.157 E8.65616
G1 X83.182 Y91.651 E8.66458
G1 X83.25 Y91.15 E8.67299
G1 X83.397 Y90.666 E8.6814
G1 X83.617 Y90.211 E8.68981
G1 X83.907 Y89.797 E8.69821
G1 F1800 E1.69821
G1 F300 Z0.3
G0 F1500 X95.62 Y87.803 Z0.3
;TYPE:SUPPORT
G1 F300 Z0.1
G1 F1800 E8.69821
G1 F900 X95.854 Y87.387 E8.70615
G1 X96.095 Y87.175 E8.71149
G1 X96.485 Y87.082 E8.71815
G1 X96.545 Y87.097 E8.71918
G1 X96 Y87.642 E8.732
G1 X96 Y88.636 E8.74853
G1 X95.904 Y88.571 E8.75046
G1 X95.72 Y88.278 E8.75621
G1 X95.62 Y87.803 E8.76429
G1 F1800 E1.76429
G1 F300 Z0.3
G0 F1500 X103.554 Y87.196 Z0.3
G1 F300 Z0.1
G1 F1800 E8.76429
G1 F900 X104.107 Y87.326 E8.77373
G1 X104.286 Y87.581 E8.77891
G1 X104 Y87.724 E8.78423
G1 X104 Y87.642 E8.78559
G1 X103.554 Y87.196 E8.79608
G1 F1800 E1.79608
G1 F300 Z0.3
G0 F1500 X90.763 Y104.546 Z0.3
G1 F300 Z0.1
G1 F1800 E8.79608
G1 F900 X90.731 Y104.92 E8.80233
G1 X90.386 Y105.118 E8.80894
G1 X90.513 Y104.686 E8.81643
G1 X90.763 Y104.546 E8.82119
G1 F1800 E1.82119
G1 F300 Z0.3
G0 F1500 X87.507 Y104.663 Z0.3
G1 F300 Z0.1
G1 F1800 E8.82119
G1 F900 X88.252 Y105.793 E8.8437
G1 X88.977 Y105.968 E8.85611
G1 X88.704 Y106.161 E8.86167
G1 X88.099 Y106.003 E8.87206
G1 X88.089 Y105.993 E8.8723
G1 X87.474 Y105.796 E8.88304
G1 X87.268 Y105.723 E8.88667
G1 X87.495 Y104.676 E8.90449
G1 X87.507 Y104.663 E8.90478
G1 F1800 E1.90478
G1 F300 Z0.3
G0 F1500 X91.668 Y111.883 Z0.3
G1 F300 Z0.1
G1 F1800 E8.90478
G1 F900 X92.05 Y111.67 E8.91206
G1 X91.835 Y112.435 E8.92527
G1 X92.334 Y113.323 E8.94221
G1 X91.569 Y113.19 E8.95513
G1 X91.668 Y111.883 E8.97692
G1 F1800 E1.97692
G1 F300 Z0.3
G0 F1500 X93.622 Y110.836 Z0.3
G1 F300 Z0.1
G1 F1800 E8.97692
G1 F900 X93.829 Y110.653 E8.98152
G1 X94.331 Y110.8 E8.99022
G1 X94.043 Y110.961 E8.9957
G1 X93.622 Y110.836 E9.00301
G1 F1800 E2.00301
G1 F300 Z0.3
G0 F1500 X96.039 Y116.957 Z0.3
G1 F300 Z0.1
G1 F1800 E9.00301
G1 F900 X96.505 Y116.878 E9.01087
G1 X96.862 Y116.926 E9.01686
G1 X96.941 Y117.019 E9.01889
G1 X96.002 Y117.545 E9.03679
G1 X95.828 Y118.163 E9.04746
G1 X95.59 Y117.57 E9.05809
G1 X95.697 Y117.327 E9.0625
G1 X96.039 Y116.957 E9.07088
G1 F1800 E2.07088
G1 F300 Z0.3
G0 F1500 X99.204 Y124.323 Z0.3
G1 F300 Z0.1
G1 F1800 E9.07088
G1 F900 X99.917 Y124.524 E9.0832
G1 X100.881 Y123.982 E9.10159
G1 X100.852 Y124.167 E9.10471
G1 X100.262 Y124.617 E9.11705
G1 X99.895 Y124.81 E9.12394
G1 X99.525 Y124.7 E9.13036
G1 X99.374 Y124.61 E9.13329
G1 X99.235 Y124.425 E9.13713
G1 X99.204 Y124.323 E9.13891
G1 F1800 E2.13891
G1 F300 Z0.3
G0 F1500 X96.012 Y117.357 Z0.3
G1 F300 Z0.1
G1 F1800 E9.13891
G1 F900 X96.012 Y117.221 E9.14117
G1 X96.026 Y117.348
G1 X95.91 Y117.348 E9.1431
G1 F1800 E2.1431
G1 F300 Z0.3
G0 F1500 X118.568 Y123.557 Z0.3
G1 F300 Z0.1
G1 F1800 E9.1431
G1 F900 X118.896 Y123.387 E9.14924
G1 X119.232 Y123.57 E9.1556
G1 X118.813 Y123.694 E9.16287
G1 X118.568 Y123.557 E9.16754
G1 F1800 E2.16754
G1 F300 Z0.3
G0 F1500 X120.785 Y124.332 Z0.3
G1 F300 Z0.1
G1 F1800 E9.16754
G1 F900 X120.967 Y124.395 E9.17074
G1 X121.184 Y124.997 E9.18138
G1 X121.184 Y125.063 E9.18248
G1 X121.393 Y125.932 E9.19735
G1 X120.762 Y126.147 E9.20843
G1 X120.435 Y126.209 E9.21397
G1 X121.02 Y125.166 E9.23385
G1 X120.785 Y124.332 E9.24826
G1 F1800 E2.24826
G1 F300 Z0.3
G0 F1500 X123.949 Y118.684 Z0.3
G1 F300 Z0.1
G1 F1800 E9.24826
G1 F900 X124.602 Y118.525 E9.25944
G1 X125.194 Y117.629 E9.2773
G1 X125.49 Y118.368 E9.29054
G1 X124.359 Y118.914 E9.31142
G1 X123.949 Y118.684 E9.31924
G1 F1800 E2.31924
G1 F300 Z0.3
G0 F1500 X122.508 Y117.982 Z0.3
G1 F300 Z0.1
G1 F1800 E9.31924
G1 F900 X122.301 Y117.911 E9.32288
G1 X122.084 Y117.304 E9.3336
G1 X122.084 Y117.273 E9.33412
G1 X122.341 Y117.417 E9.33902
G1 X122.508 Y117.982 E9.34881
G1 F1800 E2.34881
G1 F300 Z0.3
G0 F1500 X126.423 Y112.606 Z0.3
G1 F300 Z0.1
G1 F1800 E9.34881
G1 F900 X126.104 Y112.236 E9.35694
