;FLAVOR:Marlin
;TIME:3477
;Filament used: 2.01083m
;Layer height: 0.2
;MINX:86.013
;MINY:86.012
;MINZ:0.2
;MAXX:133.987
;MAXY:133.986
;MAXZ:12.6
;Generated with Cura_SteamEngine master
M82 ;absolute extrusion mode
;Sliced at: Sat 19-11-2022 19:54:57
;Basic settings: Layer height: 0.2 Walls: 0.8 Fill: 100.0
G21 ;metric values
G90 ;absolute positioning
M82 ;set extruder to absolute mode
M107 ;start with the fan off
M117 Start heating ...
M104 S200
M117 Homing X/Y ...
G28 X0 Y0 ;move X/Y to min endstops
M117 Homing Z ...
G28 Z0 ;move Z to min endstops
G1 Z15.0 F100 ;move the platform down 15mm
M117 Heating ...
M109 S200
M117 Start cleaning ...
G92 E0 ;zero the extruded length
G1 F200 E10 ;extrude 10mm of feed stock
G92 E0 ;zero the extruded length again
M117 Intro line ...
G1 Z2.0 F3000 ; Move Z Axis up little to prevent scratching of Heat Bed
G1 X0.1 Y20 Z0.2 F5000.0 ; Move to start position
G1 X0.1 Y200.0 Z0.2 F1500.0 E15 ; Draw the first line
G1 X0.4 Y200.0 Z0.2 F5000.0 ; Move to side a little
G1 X0.4 Y20 Z0.3 F1500.0 E30 ; Draw the second line
G92 E0 ; Reset Extruder
G1 E-1 F500 ; Retract filiment by 1 mm
G1 Z2.0 F3000 ; Move Z Axis up little to prevent scratching of Heat Bed
G1 X5 Y20 Z0.3 F100 ; Move over to prevent blob squish
G1 F100
G92 E0 ; Reset Extruder
M117 Printing...

G92 E0
G92 E0
G1 F1800 E-7
;LAYER_COUNT:63
;LAYER:0
M107
G1 F300 Z0.4
G0 F3000 X93.323 Y92.775 Z0.4
;TYPE:SKIRT
G1 F300 Z0.2
G1 F1800 E0
G1 F1200 X93.836 Y92.277 E0.02378
G1 X94.217 Y91.939 E0.04072
G1 X94.538 Y91.673 E0.05459
G1 X95.276 Y91.078 E0.08612
G1 X95.809 Y90.661 E0.10862
G1 X96.256 Y90.343 E0.12687
G1 X96.472 Y90.2 E0.13549
G1 X97.276 Y89.678 E0.16737
G1 X97.801 Y89.346 E0.18803
G1 X98.279 Y89.072 E0.20635
G1 X98.697 Y88.853 E0.22205
G1 X99.432 Y88.479 E0.24948
G1 X100.069 Y88.166 E0.27308
G1 X100.34 Y88.045 E0.28296
G1 X101.24 Y87.683 E0.31522
G1 X101.711 Y87.503 E0.33199
G1 X102.318 Y87.28 E0.3535
G1 X103.025 Y87.052 E0.37821
G1 X103.147 Y87.017 E0.38243
G1 X104.152 Y86.749 E0.41702
G1 X104.762 Y86.597 E0.43793
G1 X105.028 Y86.54 E0.44698
G1 X106.315 Y86.311 E0.49046
G1 X106.633 Y86.262 E0.50116
G1 X107.349 Y86.16 E0.52521
G1 X107.877 Y86.109 E0.54286
G1 X108.256 Y86.086 E0.55549
G1 X109.115 Y86.042 E0.58409
G1 X109.849 Y86.014 E0.60852
G1 X110.08 Y86.012 E0.61621
G1 X110.639 Y86.029 E0.63481
G1 X111.669 Y86.084 E0.66912
G1 X112.368 Y86.131 E0.69242
G1 X112.891 Y86.19 E0.70992
G1 X113.244 Y86.242 E0.72179
G1 X114.237 Y86.4 E0.75523
G1 X114.951 Y86.527 E0.77935
G1 X115.175 Y86.577 E0.78699
G1 X115.869 Y86.753 E0.8108
G1 X116.562 Y86.94 E0.83467
G1 X117.286 Y87.146 E0.85971
G1 X117.791 Y87.315 E0.87742
G1 X118.069 Y87.418 E0.88728
G1 X118.876 Y87.728 E0.91604
G1 X119.562 Y88.003 E0.94062
G1 X119.826 Y88.12 E0.95022
G1 X120.799 Y88.595 E0.98623
G1 X121.167 Y88.784 E0.99999
G1 X121.865 Y89.154 E1.02627
G1 X122.382 Y89.458 E1.04622
G1 X122.483 Y89.521 E1.05018
G1 X123.35 Y90.084 E1.08456
G1 X123.959 Y90.493 E1.10896
G1 X124.374 Y90.799 E1.12611
G1 X124.673 Y91.034 E1.13876
G1 X125.373 Y91.602 E1.16874
G1 X125.93 Y92.066 E1.19285
G1 X126.333 Y92.433 E1.21098
G1 X126.529 Y92.626 E1.22013
G1 X127.195 Y93.292 E1.25146
G1 X127.718 Y93.83 E1.27641
G1 X128.069 Y94.226 E1.29401
G1 X128.316 Y94.526 E1.30694
G1 X128.867 Y95.207 E1.33607
G1 X129.326 Y95.791 E1.36078
G1 X129.645 Y96.239 E1.37907
G1 X129.807 Y96.484 E1.38884
G1 X130.269 Y97.195 E1.41704
G1 X130.7 Y97.88 E1.44396
G1 X130.963 Y98.345 E1.46173
G1 X131.082 Y98.57 E1.47019
G1 X131.513 Y99.416 E1.50177
G1 X131.833 Y100.067 E1.5259
G1 X131.954 Y100.34 E1.53583
G1 X132.318 Y101.247 E1.56834
G1 X132.493 Y101.703 E1.58458
G1 X132.734 Y102.36 E1.60786
G1 X132.815 Y102.614 E1.61672
G1 X133.154 Y103.787 E1.65733
G1 X133.249 Y104.144 E1.66962
G1 X133.43 Y104.864 E1.69431
G1 X133.492 Y105.157 E1.70427
G1 X133.638 Y106.003 E1.73283
G1 X133.739 Y106.643 E1.75438
G1 X133.837 Y107.32 E1.77713
G1 X133.892 Y107.904 E1.79664
G1 X133.96 Y109.15 E1.83814
G1 X133.987 Y109.834 E1.86091
G1 X133.983 Y110.373 E1.87884
G1 X133.968 Y110.713 E1.89016
G1 X133.918 Y111.659 E1.92167
G1 X133.871 Y112.363 E1.94513
G1 X133.811 Y112.889 E1.96274
G1 X133.76 Y113.234 E1.97434
G1 X133.629 Y114.061 E2.00219
G1 X133.488 Y114.87 E2.0295
G1 X133.365 Y115.422 E2.04831
G1 X133.159 Y116.197 E2.07499
G1 X132.822 Y117.359 E2.11523
G1 X132.741 Y117.608 E2.12394
G1 X132.425 Y118.478 E2.15472
G1 X132.281 Y118.853 E2.16808
G1 X132.028 Y119.488 E2.19082
G1 X131.696 Y120.222 E2.21761
G1 X131.648 Y120.32 E2.22124
G1 X131.173 Y121.252 E2.25603
G1 X130.894 Y121.782 E2.27595
G1 X130.704 Y122.112 E2.28862
G1 X130.241 Y122.847 E2.31751
G1 X129.911 Y123.356 E2.33769
G1 X129.503 Y123.964 E2.36204
G1 X129.168 Y124.415 E2.38073
G1 X128.997 Y124.632 E2.38992
G1 X128.388 Y125.386 E2.42215
G1 X127.93 Y125.936 E2.44596
G1 X127.343 Y126.559 E2.47443
G1 X126.662 Y127.239 E2.50644
G1 X126.162 Y127.726 E2.52965
G1 X125.737 Y128.101 E2.5485
G1 X125.545 Y128.259 E2.55677
G1 X124.478 Y129.121 E2.60239
G1 X123.966 Y129.501 E2.6236
G1 X123.316 Y129.937 E2.64963
G1 X122.788 Y130.28 E2.67058
G1 X122.159 Y130.676 E2.6953
G1 X121.901 Y130.825 E2.70521
G1 X121.063 Y131.269 E2.73675
G1 X120.619 Y131.495 E2.75332
G1 X119.95 Y131.823 E2.7781
G1 X119.284 Y132.113 E2.80226
G1 X118.276 Y132.502 E2.8382
G1 X117.545 Y132.77 E2.86409
G1 X117.255 Y132.863 E2.87422
G1 X116.504 Y133.075 E2.90018
G1 X115.842 Y133.252 E2.92297
G1 X115.142 Y133.428 E2.94697
G1 X114.602 Y133.539 E2.96531
G1 X114.205 Y133.605 E2.9787
G1 X113.348 Y133.74 E3.00755
G1 X112.67 Y133.838 E3.03034
G1 X112.102 Y133.892 E3.04931
G1 X110.87 Y133.959 E3.09035
G1 X110.146 Y133.986 E3.11445
G1 X109.606 Y133.982 E3.13241
G1 X109.239 Y133.966 E3.14463
G1 X108.223 Y133.913 E3.17846
G1 X107.545 Y133.863 E3.20108
G1 X107.339 Y133.839 E3.20797
G1 X106.545 Y133.725 E3.23465
G1 X106.232 Y133.675 E3.2452
G1 X105.06 Y133.465 E3.2848
G1 X104.802 Y133.41 E3.29357
G1 X103.926 Y133.192 E3.3236
G1 X103.439 Y133.061 E3.34037
G1 X102.779 Y132.874 E3.36319
G1 X102.497 Y132.782 E3.37305
G1 X101.563 Y132.441 E3.40612
G1 X101.116 Y132.269 E3.42205
G1 X100.498 Y132.022 E3.44419
G1 X99.794 Y131.705 E3.46987
G1 X98.787 Y131.193 E3.50744
G1 X98.179 Y130.872 E3.53031
G1 X97.82 Y130.665 E3.54409
G1 X97.241 Y130.299 E3.56687
G1 X96.597 Y129.881 E3.59241
G1 X96.009 Y129.486 E3.61597
G1 X95.394 Y129.019 E3.64165
G1 X94.596 Y128.373 E3.6758
G1 X94.06 Y127.926 E3.69901
G1 X93.685 Y127.583 E3.71592
G1 X93.435 Y127.338 E3.72756
G1 X92.762 Y126.663 E3.75926
G1 X92.273 Y126.161 E3.78257
G1 X91.922 Y125.764 E3.8002
G1 X91.685 Y125.476 E3.8126
G1 X91.145 Y124.809 E3.84115
G1 X90.713 Y124.261 E3.86435
G1 X90.391 Y123.813 E3.8827
G1 X90.157 Y123.461 E3.89676
G1 X89.776 Y122.873 E3.92007
G1 X89.258 Y122.044 E3.95258
G1 X89.007 Y121.6 E3.96954
G1 X88.948 Y121.49 E3.97369
G1 X88.479 Y120.569 E4.00807
G1 X88.165 Y119.932 E4.03169
G1 X87.932 Y119.393 E4.05122
G1 X87.762 Y118.963 E4.0666
G1 X87.501 Y118.281 E4.09089
G1 X87.307 Y117.756 E4.1095
G1 X87.19 Y117.4 E4.12197
G1 X86.831 Y116.158 E4.16497
G1 X86.75 Y115.854 E4.17543
G1 X86.575 Y115.162 E4.19917
G1 X86.461 Y114.598 E4.21831
G1 X86.396 Y114.212 E4.23133
G1 X86.261 Y113.354 E4.26022
G1 X86.163 Y112.674 E4.28307
G1 X86.106 Y112.072 E4.30318
G1 X86.038 Y110.811 E4.34518
G1 X86.013 Y110.152 E4.36712
G1 X86.033 Y109.278 E4.39619
G1 X86.086 Y108.289 E4.42914
G1 X86.134 Y107.595 E4.45227
G1 X86.198 Y107.042 E4.47079
G1 X86.403 Y105.74 E4.51463
G1 X86.52 Y105.081 E4.53689
G1 X86.574 Y104.834 E4.5453
G1 X86.769 Y104.072 E4.57146
G1 X86.853 Y103.763 E4.58211
G1 X87.181 Y102.633 E4.62124
G1 X87.262 Y102.384 E4.62995
G1 X87.575 Y101.523 E4.66042
G1 X87.738 Y101.099 E4.67553
G1 X88.017 Y100.4 E4.70056
G1 X88.212 Y99.969 E4.7163
G1 X88.461 Y99.466 E4.73497
G1 X88.818 Y98.764 E4.76116
G1 X89.12 Y98.194 E4.78262
G1 X89.263 Y97.947 E4.79211
G1 X89.811 Y97.071 E4.82648
G1 X90.085 Y96.649 E4.84321
G1 X90.501 Y96.029 E4.86804
G1 X90.706 Y95.748 E4.87961
G1 X91.175 Y95.154 E4.90478
G1 X91.605 Y94.623 E4.92751
G1 X92.065 Y94.073 E4.95136
G1 X92.439 Y93.664 E4.96979
G1 X92.658 Y93.44 E4.98021
G1 X93.323 Y92.775 E5.01149
G0 F3000 X93.601 Y93.062
G1 F1200 X94.114 Y92.564 E5.03527
G1 X94.753 Y92.014 E5.06331
G1 X95.523 Y91.393 E5.09621
G1 X96.056 Y90.976 E5.11872
G1 X96.477 Y90.677 E5.1359
G1 X96.69 Y90.536 E5.14439
G1 X97.49 Y90.016 E5.17613
G1 X98.015 Y89.684 E5.19679
G1 X98.465 Y89.426 E5.21404
G1 X98.879 Y89.209 E5.22959
G1 X99.608 Y88.838 E5.25679
G1 X100.245 Y88.525 E5.2804
G1 X100.489 Y88.416 E5.28929
G1 X101.383 Y88.057 E5.32133
G1 X101.849 Y87.879 E5.33792
G1 X102.456 Y87.656 E5.35943
G1 X103.141 Y87.435 E5.38337
G1 X103.25 Y87.404 E5.38714
G1 X104.249 Y87.137 E5.42153
G1 X104.859 Y86.985 E5.44244
G1 X105.098 Y86.934 E5.45057
G1 X106.377 Y86.707 E5.49377
G1 X106.689 Y86.658 E5.50428
G1 X107.405 Y86.556 E5.52833
G1 X108.246 Y86.488 E5.55639
G1 X109.13 Y86.442 E5.58584
G1 X109.864 Y86.414 E5.61027
G1 X110.072 Y86.412 E5.61719
G1 X110.623 Y86.429 E5.63552
G1 X111.643 Y86.483 E5.66949
G1 X112.342 Y86.53 E5.69279
G1 X113.14 Y86.631 E5.71955
G1 X114.171 Y86.794 E5.75427
G1 X114.875 Y86.92 E5.77805
G1 X115.077 Y86.965 E5.78494
G1 X115.765 Y87.14 E5.80855
G1 X116.452 Y87.324 E5.8322
G1 X117.176 Y87.53 E5.85724
G1 X117.652 Y87.69 E5.87394
G1 X117.926 Y87.792 E5.88366
G1 X118.728 Y88.099 E5.91223
G1 X119.414 Y88.374 E5.93681
G1 X119.651 Y88.48 E5.94544
G1 X120.617 Y88.951 E5.98119
G1 X120.98 Y89.137 E5.99475
G1 X121.668 Y89.502 E6.02066
G1 X122.175 Y89.8 E6.04022
G1 X123.127 Y90.416 E6.07793
G1 X123.736 Y90.825 E6.10233
G1 X124.202 Y91.171 E6.12164
G1 X124.421 Y91.345 E6.13094
G1 X125.117 Y91.909 E6.16074
G1 X125.674 Y92.373 E6.18485
G1 X126.052 Y92.718 E6.20187
G1 X126.247 Y92.909 E6.21095
G1 X126.908 Y93.571 E6.24206
G1 X127.431 Y94.109 E6.26702
G1 X127.983 Y94.75 E6.29515
G1 X128.552 Y95.454 E6.32526
G1 X129.011 Y96.038 E6.34997
G1 X129.312 Y96.46 E6.36721
G1 X129.472 Y96.702 E6.37685
G1 X129.93 Y97.408 E6.40484
G1 X130.361 Y98.093 E6.43176
G1 X130.613 Y98.538 E6.44877
G1 X130.726 Y98.752 E6.45682
G1 X131.154 Y99.593 E6.48821
G1 X131.474 Y100.244 E6.51233
G1 X131.583 Y100.489 E6.52125
G1 X131.945 Y101.39 E6.55355
G1 X132.118 Y101.842 E6.56964
G1 X132.316 Y102.378 E6.58865
G1 X132.431 Y102.726 E6.60084
G1 X132.768 Y103.891 E6.64118
G1 X132.861 Y104.241 E6.65322
G1 X133.042 Y104.961 E6.67791
G1 X133.098 Y105.225 E6.68689
G1 X133.243 Y106.065 E6.71524
G1 X133.343 Y106.7 E6.73662
G1 X133.441 Y107.377 E6.75937
G1 X133.493 Y107.926 E6.77772
G1 X133.56 Y109.166 E6.81902
G1 X133.587 Y109.85 E6.84179
G1 X133.583 Y110.355 E6.85858
G1 X133.568 Y110.692 E6.8698
G1 X133.519 Y111.633 E6.90114
G1 X133.472 Y112.337 E6.92461
G1 X133.371 Y113.131 E6.95123
G1 X133.235 Y113.992 E6.98022
G1 X133.094 Y114.801 E7.00754
G1 X132.978 Y115.319 E7.02519
G1 X132.75 Y116.172 E7.05456
G1 X132.438 Y117.247 E7.09179
G1 X132.365 Y117.472 E7.09966
G1 X132.051 Y118.335 E7.1302
G1 X131.909 Y118.704 E7.14335
G1 X131.613 Y119.444 E7.16986
G1 X131.335 Y120.05 E7.19204
G1 X131.292 Y120.139 E7.19532
G1 X130.819 Y121.066 E7.22994
G1 X130.54 Y121.596 E7.24986
G1 X130.365 Y121.9 E7.26152
G1 X129.906 Y122.63 E7.2902
G1 X129.579 Y123.133 E7.31016
G1 X129.171 Y123.741 E7.33451
G1 X128.854 Y124.168 E7.3522
G1 X128.686 Y124.38 E7.3612
G1 X128.08 Y125.13 E7.39327
G1 X127.622 Y125.68 E7.41707
G1 X127.058 Y126.279 E7.44444
G1 X126.383 Y126.953 E7.47616
G1 X125.883 Y127.44 E7.49938
G1 X125.482 Y127.793 E7.51715
G1 X125.293 Y127.948 E7.52528
G1 X124.226 Y128.81 E7.5709
G1 X123.743 Y129.169 E7.59092
G1 X123.098 Y129.602 E7.61675
G1 X122.575 Y129.942 E7.6375
G1 X121.946 Y130.338 E7.66222
G1 X121.714 Y130.472 E7.67113
G1 X120.881 Y130.913 E7.70248
G1 X120.442 Y131.136 E7.71886
G1 X119.783 Y131.459 E7.74327
G1 X119.132 Y131.743 E7.76689
G1 X118.192 Y132.106 E7.80041
G1 X117.407 Y132.394 E7.82822
G1 X117.147 Y132.478 E7.83731
G1 X116.4 Y132.689 E7.86312
G1 X115.745 Y132.864 E7.88567
G1 X115.045 Y133.04 E7.90968
G1 X114.536 Y133.144 E7.92696
G1 X114.142 Y133.21 E7.94025
G1 X113.291 Y133.344 E7.9689
G1 X112.613 Y133.442 E7.99168
G1 X112.08 Y133.493 E8.00949
G1 X110.919 Y133.557 E8.04817
G1 X110.131 Y133.586 E8.07439
G1 X109.624 Y133.582 E8.09126
G1 X109.26 Y133.566 E8.10337
G1 X108.248 Y133.513 E8.13708
G1 X107.581 Y133.465 E8.15932
G1 X107.395 Y133.443 E8.16555
G1 X106.607 Y133.33 E8.19203
G1 X106.302 Y133.282 E8.2023
G1 X105.13 Y133.072 E8.2419
G1 X104.898 Y133.022 E8.24979
G1 X104.031 Y132.806 E8.27951
G1 X103.548 Y132.676 E8.29615
G1 X102.888 Y132.489 E8.31896
G1 X102.634 Y132.406 E8.32785
G1 X101.706 Y132.067 E8.36071
G1 X101.265 Y131.898 E8.37642
G1 X100.543 Y131.608 E8.4023
G1 X99.965 Y131.344 E8.42343
G1 X98.974 Y130.84 E8.46041
G1 X98.366 Y130.519 E8.48328
G1 X98.034 Y130.327 E8.49603
G1 X97.458 Y129.963 E8.5187
G1 X96.821 Y129.549 E8.54397
G1 X96.233 Y129.154 E8.56753
G1 X95.643 Y128.706 E8.59216
G1 X94.852 Y128.066 E8.62601
G1 X94.316 Y127.619 E8.64922
G1 X93.751 Y127.087 E8.67503
G1 X93.079 Y126.416 E8.70662
G1 X92.559 Y125.882 E8.73141
G1 X92.017 Y125.25 E8.7591
G1 X91.459 Y124.562 E8.78856
G1 X91.027 Y124.014 E8.81177
G1 X90.724 Y123.591 E8.82908
G1 X90.493 Y123.244 E8.84294
G1 X90.115 Y122.661 E8.86605
G1 X89.597 Y121.832 E8.89856
G1 X89.305 Y121.308 E8.91852
G1 X88.838 Y120.392 E8.95271
G1 X88.524 Y119.755 E8.97633
G1 X88.304 Y119.246 E8.99478
G1 X88.135 Y118.82 E9.01002
G1 X87.876 Y118.143 E9.03413
G1 X87.682 Y117.618 E9.05274
G1 X87.574 Y117.288 E9.06429
G1 X87.218 Y116.055 E9.10698
G1 X87.138 Y115.756 E9.11727
G1 X86.963 Y115.064 E9.14101
G1 X86.855 Y114.532 E9.15907
G1 X86.791 Y114.149 E9.17198
G1 X86.657 Y113.297 E9.20067
G1 X86.559 Y112.617 E9.22352
G1 X86.505 Y112.05 E9.24246
G1 X86.438 Y110.795 E9.28427
G1 X86.413 Y110.136 E9.3062
G1 X86.432 Y109.295 E9.33418
G1 X86.485 Y108.317 E9.36675
G1 X86.533 Y107.623 E9.38989
G1 X86.593 Y107.104 E9.40727
G1 X86.797 Y105.807 E9.45094
G1 X86.913 Y105.155 E9.47296
G1 X86.962 Y104.933 E9.48053
G1 X87.155 Y104.176 E9.50651
G1 X87.237 Y103.874 E9.51692
G1 X87.565 Y102.744 E9.55605
G1 X87.638 Y102.52 E9.56389
G1 X87.948 Y101.666 E9.59411
G1 X88.109 Y101.247 E9.60904
G1 X88.388 Y100.548 E9.63407
G1 X88.571 Y100.146 E9.64876
G1 X88.817 Y99.647 E9.66726
G1 X89.172 Y98.952 E9.69322
G1 X89.474 Y98.382 E9.71467
G1 X89.602 Y98.159 E9.72323
G1 X90.147 Y97.289 E9.75737
G1 X90.418 Y96.872 E9.77391
G1 X90.834 Y96.252 E9.79875
G1 X91.02 Y95.996 E9.80927
G1 X91.486 Y95.405 E9.8343
G1 X91.912 Y94.879 E9.85681
G1 X92.372 Y94.329 E9.88066
G1 X92.724 Y93.944 E9.89801
G1 X92.941 Y93.722 E9.90834
G1 X93.601 Y93.062 E9.93938
G0 F3000 X93.88 Y93.349
G1 F1200 X94.393 Y92.851 E9.96316
G1 X95.008 Y92.322 E9.99014
G1 X95.769 Y91.708 E10.02267
G1 X96.302 Y91.291 E10.04517
G1 X96.882 Y90.888 E10.06866
G1 X97.704 Y90.354 E10.10127
G1 X98.229 Y90.022 E10.12193
G1 X99.028 Y89.582 E10.15226
G1 X99.785 Y89.197 E10.18051
G1 X100.422 Y88.884 E10.20412
G1 X100.638 Y88.787 E10.21199
G1 X101.527 Y88.43 E10.24386
G1 X101.986 Y88.254 E10.26021
G1 X102.593 Y88.031 E10.28172
G1 X103.257 Y87.818 E10.30491
G1 X103.354 Y87.79 E10.30827
G1 X104.345 Y87.525 E10.34239
G1 X104.955 Y87.373 E10.36329
G1 X105.168 Y87.328 E10.37054
G1 X106.439 Y87.102 E10.41347
G1 X106.746 Y87.054 E10.42381
G1 X107.462 Y86.952 E10.44786
G1 X108.27 Y86.887 E10.47482
G1 X109.145 Y86.841 E10.50397
G1 X109.879 Y86.813 E10.5284
G1 X110.064 Y86.812 E10.53455
G1 X110.607 Y86.829 E10.55262
G1 X111.616 Y86.882 E10.58622
G1 X112.315 Y86.929 E10.60953
G1 X113.082 Y87.027 E10.63524
G1 X114.105 Y87.189 E10.66969
G1 X114.799 Y87.312 E10.69313
G1 X114.978 Y87.352 E10.69924
G1 X115.662 Y87.526 E10.72271
G1 X116.343 Y87.709 E10.74616
G1 X117.067 Y87.915 E10.7712
G1 X117.748 Y88.152 E10.79518
G1 X118.579 Y88.471 E10.82479
G1 X119.265 Y88.746 E10.84937
G1 X119.476 Y88.839 E10.85704
G1 X120.435 Y89.307 E10.89253
G1 X120.794 Y89.491 E10.90595
G1 X121.471 Y89.85 E10.93144
G1 X121.967 Y90.142 E10.95058
G1 X122.904 Y90.748 E10.98769
G1 X123.513 Y91.157 E11.01209
G1 X123.954 Y91.485 E11.03037
G1 X124.169 Y91.655 E11.03949
G1 X124.861 Y92.216 E11.06912
G1 X125.418 Y92.68 E11.09323
